;FLAVOR:Marlin
;TIME:2281
;Filament used: 1.65724m
;Layer height: 0.2
;MINX:14.038
;MINY:20.654
;MINZ:0.2
;MAXX:61.037
;MAXY:67.653
;MAXZ:21.2
;Generated with Cura_SteamEngine 4.6.1
M140 S65
M105
M190 S65
M104 S210
M105
M109 S210
M82 ;absolute extrusion mode
; Ender 3 Custom Start G-code
G92 E0 ; Reset Extruder
G28 ; Home all axes
G1 Z2.0 F3000 ; Move Z Axis up little to prevent scratching of Heat Bed
G1 X0.1 Y20 Z0.3 F5000.0 ; Move to start position
G1 X0.1 Y200.0 Z0.3 F1500.0 E15 ; Draw the first line
G1 X0.4 Y200.0 Z0.3 F5000.0 ; Move to side a little
G1 X0.4 Y20 Z0.3 F1500.0 E30 ; Draw the second line
G92 E0 ; Reset Extruder
G1 Z2.0 F3000 ; Move Z Axis up little to prevent scratching of Heat Bed
G1 X5 Y20 Z0.3 F5000.0 ; Move over to prevent blob squish
G92 E0
G92 E0
G1 F1500 E-6.5
;LAYER_COUNT:112
;LAYER:0
M107
G0 F6000 X50.174 Y21.465 Z0.2
;TYPE:SKIRT
G1 F1500 E0
G1 F1200 X51.076 Y21.518 E0.03005
G1 X51.969 Y21.65 E0.06008
G1 X52.847 Y21.861 E0.09011
G1 X53.703 Y22.149 E0.12015
G1 X54.53 Y22.511 E0.15018
G1 X55.322 Y22.946 E0.18023
G1 X56.073 Y23.448 E0.21027
G1 X56.776 Y24.015 E0.24031
G1 X57.426 Y24.642 E0.27035
G1 X58.018 Y25.324 E0.30039
G1 X58.548 Y26.055 E0.33042
G1 X59.01 Y26.831 E0.36046
G1 X59.403 Y27.644 E0.39049
G1 X59.721 Y28.489 E0.42052
G1 X59.964 Y29.359 E0.45056
G1 X60.129 Y30.247 E0.4806
G1 X60.224 Y31.378 E0.51835
G1 X60.237 Y31.985 E0.53855
G1 X60.237 Y56.042 E1.33869
G1 X60.228 Y56.77 E1.3629
G1 X60.177 Y57.672 E1.39295
G1 X60.046 Y58.565 E1.42297
G1 X59.837 Y59.444 E1.45302
G1 X59.551 Y60.3 E1.48304
G1 X59.19 Y61.128 E1.51308
G1 X58.758 Y61.921 E1.54312
G1 X58.257 Y62.673 E1.57317
G1 X57.691 Y63.377 E1.60321
G1 X57.066 Y64.028 E1.63323
G1 X56.385 Y64.622 E1.66329
G1 X55.654 Y65.152 E1.69332
G1 X54.88 Y65.617 E1.72335
G1 X54.067 Y66.011 E1.7534
G1 X53.223 Y66.331 E1.78342
G1 X52.353 Y66.576 E1.81348
G1 X51.466 Y66.742 E1.8435
G1 X50.322 Y66.84 E1.88168
G1 X49.716 Y66.853 E1.90184
G1 X25.613 Y66.853 E2.70351
G1 X24.915 Y66.844 E2.72673
G1 X24.014 Y66.793 E2.75675
G1 X23.12 Y66.661 E2.7868
G1 X22.242 Y66.452 E2.81682
G1 X21.385 Y66.165 E2.84688
G1 X20.558 Y65.804 E2.87689
G1 X19.765 Y65.371 E2.90694
G1 X19.014 Y64.87 E2.93697
G1 X18.31 Y64.304 E2.96702
G1 X17.659 Y63.678 E2.99705
G1 X17.066 Y62.997 E3.02709
G1 X16.536 Y62.266 E3.05712
G1 X16.072 Y61.491 E3.08716
G1 X15.678 Y60.678 E3.11721
G1 X15.358 Y59.834 E3.14723
G1 X15.114 Y58.964 E3.17729
G1 X14.948 Y58.076 E3.20733
G1 X14.851 Y56.921 E3.24588
G1 X14.838 Y56.312 E3.26614
G1 X14.839 Y32.19 E4.06844
G1 X14.848 Y31.525 E4.09056
G1 X14.9 Y30.623 E4.12061
G1 X15.032 Y29.73 E4.15064
G1 X15.242 Y28.852 E4.18066
G1 X15.529 Y27.995 E4.21072
G1 X15.891 Y27.168 E4.24075
G1 X16.324 Y26.376 E4.27077
G1 X16.826 Y25.625 E4.30082
G1 X17.393 Y24.921 E4.33088
G1 X18.019 Y24.271 E4.3609
G1 X18.7 Y23.678 E4.39093
G1 X19.432 Y23.148 E4.42099
G1 X20.207 Y22.685 E4.45102
G1 X21.02 Y22.292 E4.48105
G1 X21.865 Y21.972 E4.5111
G1 X22.734 Y21.729 E4.54111
G1 X23.622 Y21.563 E4.57116
G1 X24.761 Y21.467 E4.60918
G1 X25.368 Y21.454 E4.62937
G1 X49.476 Y21.455 E5.43121
G1 X50.174 Y21.465 E5.45442
G0 F6000 X50.18 Y21.065
G1 F1200 X51.099 Y21.118 E5.48504
G1 X52.01 Y21.251 E5.51566
G1 X52.906 Y21.462 E5.54628
G1 X53.78 Y21.75 E5.57689
G1 X54.627 Y22.113 E5.60754
G1 X55.438 Y22.548 E5.63814
G1 X56.208 Y23.052 E5.66875
G1 X56.932 Y23.621 E5.69938
G1 X57.604 Y24.251 E5.73002
G1 X58.219 Y24.936 E5.76064
G1 X58.772 Y25.672 E5.79126
G1 X59.259 Y26.453 E5.82187
G1 X59.676 Y27.274 E5.85249
G1 X60.021 Y28.128 E5.88313
G1 X60.29 Y29.008 E5.91373
G1 X60.482 Y29.909 E5.94438
G1 X60.595 Y30.822 E5.97497
G1 X60.624 Y31.367 E5.99313
G1 X60.637 Y31.985 E6.01369
G1 X60.637 Y56.047 E6.81399
G1 X60.628 Y56.775 E6.83821
G1 X60.577 Y57.694 E6.86882
G1 X60.446 Y58.606 E6.89946
G1 X60.236 Y59.502 E6.93007
G1 X59.95 Y60.377 E6.96069
G1 X59.589 Y61.224 E6.99131
G1 X59.155 Y62.036 E7.02194
G1 X58.653 Y62.808 E7.05256
G1 X58.085 Y63.533 E7.0832
G1 X57.457 Y64.206 E7.11381
G1 X56.773 Y64.822 E7.14443
G1 X56.038 Y65.376 E7.17504
G1 X55.258 Y65.865 E7.20566
G1 X54.438 Y66.284 E7.23629
G1 X53.585 Y66.63 E7.2669
G1 X52.705 Y66.901 E7.29753
G1 X51.805 Y67.094 E7.32814
G1 X50.891 Y67.209 E7.35878
G1 X50.334 Y67.24 E7.37734
G1 X49.716 Y67.253 E7.3979
G1 X25.608 Y67.253 E8.19973
G1 X24.91 Y67.244 E8.22295
G1 X23.991 Y67.192 E8.25357
G1 X23.08 Y67.061 E8.28418
G1 X22.184 Y66.851 E8.31479
G1 X21.309 Y66.564 E8.34541
G1 X20.462 Y66.202 E8.37605
G1 X19.65 Y65.768 E8.40667
G1 X18.879 Y65.266 E8.43727
G1 X18.154 Y64.698 E8.46791
G1 X17.481 Y64.069 E8.49854
G1 X16.866 Y63.385 E8.52914
G1 X16.312 Y62.65 E8.55975
G1 X15.824 Y61.869 E8.59038
G1 X15.405 Y61.049 E8.62101
G1 X15.059 Y60.196 E8.65162
G1 X14.789 Y59.316 E8.68224
G1 X14.596 Y58.415 E8.71289
G1 X14.482 Y57.502 E8.74349
G1 X14.451 Y56.931 E8.76251
G1 X14.438 Y56.312 E8.7831
G1 X14.439 Y32.185 E9.58557
G1 X14.448 Y31.52 E9.60769
G1 X14.5 Y30.6 E9.63834
G1 X14.632 Y29.689 E9.66895
G1 X14.843 Y28.793 E9.69957
G1 X15.13 Y27.918 E9.7302
G1 X15.493 Y27.072 E9.76082
G1 X15.927 Y26.26 E9.79144
G1 X16.43 Y25.489 E9.82206
G1 X16.999 Y24.765 E9.85268
G1 X17.627 Y24.093 E9.88328
G1 X18.312 Y23.477 E9.91392
G1 X19.048 Y22.924 E9.94454
G1 X19.829 Y22.436 E9.97517
G1 X20.649 Y22.018 E10.00578
G1 X21.503 Y21.673 E10.03641
G1 X22.383 Y21.403 E10.06703
G1 X23.283 Y21.211 E10.09764
G1 X24.197 Y21.097 E10.12827
G1 X24.75 Y21.067 E10.14669
G1 X25.368 Y21.054 E10.16725
G1 X49.482 Y21.055 E10.96929
G1 X50.18 Y21.065 E10.9925
G0 F6000 X50.186 Y20.665
G1 F1200 X51.122 Y20.719 E11.02369
G1 X52.05 Y20.851 E11.05486
G1 X52.964 Y21.063 E11.08607
G1 X53.856 Y21.352 E11.11726
G1 X54.721 Y21.715 E11.14846
G1 X55.551 Y22.151 E11.17964
G1 X56.342 Y22.656 E11.21085
G1 X57.086 Y23.227 E11.24205
G1 X57.779 Y23.859 E11.27324
G1 X58.416 Y24.547 E11.30443
G1 X58.991 Y25.288 E11.33562
G1 X59.502 Y26.074 E11.3668
G1 X59.944 Y26.902 E11.39802
G1 X60.313 Y27.764 E11.42921
G1 X60.608 Y28.654 E11.46039
G1 X60.826 Y29.566 E11.49158
G1 X60.966 Y30.494 E11.5228
G1 X61.024 Y31.356 E11.55153
G1 X61.037 Y31.985 E11.57246
G1 X61.037 Y56.052 E12.37293
G1 X61.028 Y56.78 E12.39714
G1 X60.977 Y57.716 E12.42832
G1 X60.845 Y58.645 E12.45953
G1 X60.636 Y59.559 E12.49071
G1 X60.349 Y60.452 E12.52191
G1 X59.987 Y61.317 E12.5531
G1 X59.553 Y62.149 E12.58431
G1 X59.049 Y62.94 E12.61551
G1 X58.48 Y63.685 E12.64668
G1 X57.849 Y64.38 E12.67791
G1 X57.162 Y65.018 E12.70909
G1 X56.423 Y65.595 E12.74027
G1 X55.637 Y66.107 E12.77147
G1 X54.811 Y66.55 E12.80265
G1 X53.949 Y66.922 E12.83387
G1 X53.06 Y67.218 E12.86504
G1 X52.148 Y67.438 E12.89624
G1 X51.221 Y67.579 E12.92743
G1 X50.345 Y67.639 E12.95663
G1 X49.716 Y67.653 E12.97756
G1 X25.603 Y67.653 E13.77956
G1 X24.905 Y67.644 E13.80278
G1 X23.969 Y67.592 E13.83396
G1 X23.04 Y67.46 E13.86517
G1 X22.126 Y67.25 E13.89636
G1 X21.233 Y66.963 E13.92756
G1 X20.368 Y66.6 E13.95876
G1 X19.537 Y66.166 E13.98994
G1 X18.746 Y65.662 E14.02113
G1 X18.001 Y65.092 E14.05233
G1 X17.307 Y64.461 E14.08353
G1 X16.67 Y63.774 E14.11469
G1 X16.093 Y63.034 E14.1459
G1 X15.581 Y62.248 E14.1771
G1 X15.138 Y61.421 E14.2083
G1 X14.767 Y60.56 E14.23949
G1 X14.471 Y59.67 E14.27068
G1 X14.252 Y58.758 E14.30188
G1 X14.111 Y57.831 E14.33306
G1 X14.051 Y56.942 E14.3627
G1 X14.038 Y56.312 E14.38366
G1 X14.039 Y32.179 E15.18633
G1 X14.048 Y31.514 E15.20845
G1 X14.101 Y30.578 E15.23963
G1 X14.233 Y29.649 E15.27084
G1 X14.444 Y28.735 E15.30203
G1 X14.732 Y27.843 E15.33321
G1 X15.095 Y26.978 E15.36441
G1 X15.53 Y26.147 E15.39561
G1 X16.034 Y25.357 E15.42678
G1 X16.604 Y24.612 E15.45798
G1 X17.236 Y23.918 E15.48919
G1 X17.924 Y23.281 E15.52038
G1 X18.664 Y22.705 E15.55157
G1 X19.45 Y22.193 E15.58277
G1 X20.277 Y21.751 E15.61396
G1 X21.139 Y21.381 E15.64516
G1 X22.029 Y21.085 E15.67635
G1 X22.941 Y20.867 E15.70754
G1 X23.868 Y20.726 E15.73873
G1 X24.739 Y20.667 E15.76776
G1 X25.368 Y20.654 E15.78869
G1 X49.488 Y20.655 E16.59092
G1 X50.186 Y20.665 E16.61414
G1 F1500 E10.11414
;MESH:light-mount v0.stl
G0 F6000 X49.623 Y30.989
G0 X49.623 Y32.068
G0 X49.438 Y56.054
;TYPE:WALL-INNER
G1 F1500 E16.61414
G1 F1200 X49.239 Y56.054 E16.62076
G1 X25.638 Y56.054 E17.40573
G1 X25.638 Y32.254 E18.19732
G1 X49.437 Y32.254 E18.98888
G1 X49.438 Y55.855 E19.77385
G1 X49.438 Y56.054 E19.77814
G0 F6000 X49.838 Y56.454
;TYPE:WALL-OUTER
G1 F1200 X25.238 Y56.454 E20.59634
G1 X25.238 Y31.854 E21.41453
G1 X49.837 Y31.854 E22.2327
G1 X49.838 Y56.454 E23.0509
G0 F6000 X49.568 Y56.184
G0 X49.328 Y55.664
G0 X49.048 Y55.664
;TYPE:SKIN
G1 F1200 X26.028 Y55.664 E23.81655
G1 X26.028 Y32.644 E24.5822
G1 X49.047 Y32.644 E25.34781
G1 X49.048 Y55.664 E26.11346
G0 F6000 X49.328 Y55.664
G0 X49.264 Y55.851
G0 X26.652 Y55.944
G0 X26.652 Y55.502
G1 F1200 X26.187 Y55.037 E26.13533
G0 F6000 X26.187 Y54.471
G1 F1200 X27.218 Y55.502 E26.18383
G0 F6000 X27.784 Y55.502
G1 F1200 X26.187 Y53.906 E26.25892
G0 F6000 X26.187 Y53.34
G1 F1200 X28.35 Y55.502 E26.36064
G0 F6000 X28.915 Y55.502
G1 F1200 X26.187 Y52.774 E26.48896
G0 F6000 X26.187 Y52.209
G1 F1200 X29.481 Y55.502 E26.64387
G0 F6000 X30.047 Y55.502
G1 F1200 X26.187 Y51.643 E26.82541
G0 F6000 X26.187 Y51.077
G1 F1200 X30.612 Y55.502 E27.03355
G0 F6000 X31.178 Y55.502
G1 F1200 X26.187 Y50.512 E27.26829
G0 F6000 X26.187 Y49.946
G1 F1200 X31.744 Y55.502 E27.52965
G0 F6000 X32.309 Y55.502
G1 F1200 X26.187 Y49.38 E27.81761
G0 F6000 X26.187 Y48.815
G1 F1200 X32.875 Y55.502 E28.13217
G0 F6000 X33.441 Y55.502
G1 F1200 X26.187 Y48.249 E28.47335
G0 F6000 X26.187 Y47.683
G1 F1200 X34.006 Y55.502 E28.84113
G0 F6000 X34.572 Y55.502
G1 F1200 X26.187 Y47.118 E29.23551
G0 F6000 X26.187 Y46.552
G1 F1200 X35.138 Y55.502 E29.65652
G0 F6000 X35.703 Y55.502
G1 F1200 X26.187 Y45.986 E30.10412
G0 F6000 X26.187 Y45.421
G1 F1200 X36.269 Y55.502 E30.57832
G0 F6000 X36.835 Y55.502
G1 F1200 X26.187 Y44.855 E31.07915
G0 F6000 X26.187 Y44.289
G1 F1200 X37.4 Y55.502 E31.60657
G0 F6000 X37.966 Y55.502
G1 F1200 X26.187 Y43.723 E32.16062
G0 F6000 X26.187 Y43.158
G1 F1200 X38.532 Y55.502 E32.74127
G0 F6000 X39.098 Y55.502
G1 F1200 X26.187 Y42.592 E33.34854
G0 F6000 X26.187 Y42.026
G1 F1200 X39.663 Y55.502 E33.98241
G0 F6000 X40.229 Y55.502
G1 F1200 X26.187 Y41.461 E34.64288
G0 F6000 X26.187 Y40.895
G1 F1200 X40.795 Y55.502 E35.32997
G0 F6000 X41.36 Y55.502
G1 F1200 X26.187 Y40.329 E36.04366
G0 F6000 X26.187 Y39.764
G1 F1200 X41.926 Y55.502 E36.78395
G0 F6000 X42.492 Y55.502
G1 F1200 X26.187 Y39.198 E37.55087
G0 F6000 X26.187 Y38.632
G1 F1200 X43.057 Y55.502 E38.34438
G0 F6000 X43.623 Y55.502
G1 F1200 X26.187 Y38.067 E39.16449
G0 F6000 X26.187 Y37.501
G1 F1200 X44.189 Y55.502 E40.01123
G0 F6000 X44.754 Y55.502
G1 F1200 X26.187 Y36.935 E40.88456
G0 F6000 X26.187 Y36.37
G1 F1200 X45.32 Y55.502 E41.7845
G0 F6000 X45.886 Y55.502
G1 F1200 X26.187 Y35.804 E42.71105
G0 F6000 X26.187 Y35.238
G1 F1200 X46.451 Y55.502 E43.66421
G0 F6000 X47.017 Y55.502
G1 F1200 X26.187 Y34.672 E44.64399
G0 F6000 X26.187 Y34.107
G1 F1200 X47.583 Y55.502 E45.65037
G0 F6000 X48.149 Y55.502
G1 F1200 X26.187 Y33.541 E46.68337
G0 F6000 X26.187 Y32.975
G1 F1200 X48.714 Y55.502 E47.74297
G0 F6000 X48.887 Y55.11
G1 F1200 X26.581 Y32.804 E48.79218
G0 F6000 X27.147 Y32.804
G1 F1200 X48.887 Y54.544 E49.81476
G0 F6000 X48.887 Y53.979
G1 F1200 X27.712 Y32.804 E50.81077
G0 F6000 X28.278 Y32.804
G1 F1200 X48.887 Y53.413 E51.78015
G0 F6000 X48.887 Y52.847
G1 F1200 X28.844 Y32.804 E52.72291
G0 F6000 X29.409 Y32.804
G1 F1200 X48.887 Y52.282 E53.6391
G0 F6000 X48.887 Y51.716
G1 F1200 X29.975 Y32.804 E54.52866
G0 F6000 X30.541 Y32.804
G1 F1200 X48.887 Y51.15 E55.3916
G0 F6000 X48.887 Y50.585
G1 F1200 X31.107 Y32.804 E56.22794
G0 F6000 X31.672 Y32.804
G1 F1200 X48.887 Y50.019 E57.03768
G0 F6000 X48.887 Y49.453
G1 F1200 X32.238 Y32.804 E57.8208
G0 F6000 X32.804 Y32.804
G1 F1200 X48.887 Y48.887 E58.57729
G0 F6000 X48.887 Y48.322
G1 F1200 X33.369 Y32.804 E59.30721
G0 F6000 X33.935 Y32.804
G1 F1200 X48.887 Y47.756 E60.01051
G0 F6000 X48.887 Y47.19
G1 F1200 X34.501 Y32.804 E60.68718
G0 F6000 X35.066 Y32.804
G1 F1200 X48.887 Y46.625 E61.33728
G0 F6000 X48.887 Y46.059
G1 F1200 X35.632 Y32.804 E61.96075
G0 F6000 X36.198 Y32.804
G1 F1200 X48.887 Y45.493 E62.55761
G0 F6000 X48.887 Y44.928
G1 F1200 X36.763 Y32.804 E63.12788
G0 F6000 X37.329 Y32.804
G1 F1200 X48.887 Y44.362 E63.67153
G0 F6000 X48.887 Y43.796
G1 F1200 X37.895 Y32.804 E64.18856
G0 F6000 X38.46 Y32.804
G1 F1200 X48.887 Y43.23 E64.679
G0 F6000 X48.887 Y42.664
G1 F1200 X39.026 Y32.804 E65.1428
G0 F6000 X39.592 Y32.804
G1 F1200 X48.887 Y42.099 E65.58001
G0 F6000 X48.887 Y41.533
G1 F1200 X40.158 Y32.804 E65.9906
G0 F6000 X40.723 Y32.804
G1 F1200 X48.887 Y40.967 E66.37458
G0 F6000 X48.887 Y40.401
G1 F1200 X41.289 Y32.804 E66.73195
G0 F6000 X41.855 Y32.804
G1 F1200 X48.887 Y39.836 E67.06271
G0 F6000 X48.887 Y39.27
G1 F1200 X42.42 Y32.804 E67.36687
G0 F6000 X42.986 Y32.804
G1 F1200 X48.887 Y38.704 E67.64442
G0 F6000 X48.887 Y38.139
G1 F1200 X43.552 Y32.804 E67.89536
G0 F6000 X44.117 Y32.804
G1 F1200 X48.887 Y37.573 E68.1197
G0 F6000 X48.887 Y37.007
G1 F1200 X44.683 Y32.804 E68.31742
G0 F6000 X45.249 Y32.804
G1 F1200 X48.887 Y36.442 E68.48854
G0 F6000 X48.887 Y35.876
G1 F1200 X45.814 Y32.804 E68.63306
G0 F6000 X46.38 Y32.804
G1 F1200 X48.887 Y35.31 E68.75096
G0 F6000 X48.887 Y34.745
G1 F1200 X46.946 Y32.804 E68.84226
G0 F6000 X47.511 Y32.804
G1 F1200 X48.887 Y34.179 E68.90696
G0 F6000 X48.887 Y33.613
G1 F1200 X48.077 Y32.804 E68.94503
G0 F6000 X48.643 Y32.804
G1 F1200 X48.887 Y33.048 E68.95651
G0 F6000 X49.237 Y33.047
;MESH:NONMESH
G0 F300 X49.237 Y33.047 Z0.4
G0 F6000 X49.328 Y33.048
G0 X49.438 Y56.054
;TIME_ELAPSED:116.423863
;LAYER:1
M140 S65
M106 S85
;TYPE:WALL-INNER
;MESH:light-mount v0.stl
G1 F1350 X49.239 Y56.054 E68.96313
G1 X25.646 Y56.054 E69.74784
G1 X25.638 Y32.453 E70.53281
G1 X25.638 Y32.254 E70.53943
G1 X25.837 Y32.254 E70.54371
G1 X49.43 Y32.254 E71.32842
G1 X49.438 Y55.855 E72.11339
G1 X49.438 Y56.054 E72.11767
G0 F7500 X49.838 Y56.454
;TYPE:WALL-OUTER
G1 F1350 X25.246 Y56.454 E72.9356
G1 X25.238 Y31.854 E73.7538
G1 X49.83 Y31.854 E74.57174
G1 X49.838 Y56.454 E75.38994
G0 F7500 X49.568 Y56.184
G0 X49.328 Y55.664
G0 X49.048 Y55.664
;TYPE:SKIN
G1 F1350 X26.036 Y55.664 E76.15532
G1 X26.028 Y32.644 E76.92097
G1 X49.04 Y32.644 E77.68635
G1 X49.048 Y55.664 E78.452
G0 F7500 X48.582 Y55.503
G1 F1350 X48.887 Y55.198 E78.46634
G0 F7500 X48.887 Y54.633
G1 F1350 X48.016 Y55.503 E78.50729
G0 F7500 X47.451 Y55.503
G1 F1350 X48.887 Y54.067 E78.57483
G0 F7500 X48.886 Y53.502
G1 F1350 X46.885 Y55.503 E78.66895
G0 F7500 X46.319 Y55.503
G1 F1350 X48.886 Y52.936 E78.7897
G0 F7500 X48.886 Y52.371
G1 F1350 X45.754 Y55.503 E78.93702
G0 F7500 X45.188 Y55.503
G1 F1350 X48.886 Y51.805 E79.11096
G0 F7500 X48.885 Y51.24
G1 F1350 X44.622 Y55.503 E79.31148
G0 F7500 X44.056 Y55.503
G1 F1350 X48.885 Y50.674 E79.53862
G0 F7500 X48.885 Y50.109
G1 F1350 X43.491 Y55.503 E79.79234
G0 F7500 X42.925 Y55.503
G1 F1350 X48.885 Y49.544 E80.07265
G0 F7500 X48.885 Y48.978
G1 F1350 X42.359 Y55.503 E80.37959
G0 F7500 X41.794 Y55.503
G1 F1350 X48.885 Y48.412 E80.71313
G0 F7500 X48.884 Y47.847
G1 F1350 X41.228 Y55.503 E81.07325
G0 F7500 X40.662 Y55.503
G1 F1350 X48.884 Y47.282 E81.45996
G0 F7500 X48.884 Y46.716
G1 F1350 X40.097 Y55.503 E81.87328
G0 F7500 X39.531 Y55.503
G1 F1350 X48.884 Y46.15 E82.31321
G0 F7500 X48.883 Y45.585
G1 F1350 X38.965 Y55.503 E82.77972
G0 F7500 X38.4 Y55.503
G1 F1350 X48.883 Y45.02 E83.27281
G0 F7500 X48.883 Y44.454
G1 F1350 X37.834 Y55.503 E83.79252
G0 F7500 X37.268 Y55.503
G1 F1350 X48.882 Y43.889 E84.33881
G0 F7500 X48.882 Y43.323
G1 F1350 X36.703 Y55.503 E84.9117
G0 F7500 X36.137 Y55.503
G1 F1350 X48.882 Y42.758 E85.51118
G0 F7500 X48.882 Y42.193
G1 F1350 X35.571 Y55.503 E86.13727
G0 F7500 X35.006 Y55.503
G1 F1350 X48.882 Y41.627 E86.78995
G0 F7500 X48.882 Y41.061
G1 F1350 X34.44 Y55.503 E87.46926
G0 F7500 X33.874 Y55.503
G1 F1350 X48.882 Y40.496 E88.17517
G0 F7500 X48.881 Y39.931
G1 F1350 X33.308 Y55.503 E88.90765
G0 F7500 X32.743 Y55.503
G1 F1350 X48.881 Y39.365 E89.66673
G0 F7500 X48.881 Y38.799
