;FLAVOR:Marlin
;TIME:6751
;Filament used: 4.39769m
;Layer height: 0.2
;MINX:12.65
;MINY:18.007
;MINZ:0.2
;MAXX:69.619
;MAXY:106.487
;MAXZ:43
;Generated with Cura_SteamEngine 4.6.1
M140 S65
M105
M190 S65
M104 S210
M105
M109 S210
M82 ;absolute extrusion mode
; Ender 3 Custom Start G-code
G92 E0 ; Reset Extruder
G28 ; Home all axes
G1 Z2.0 F3000 ; Move Z Axis up little to prevent scratching of Heat Bed
G1 X0.1 Y20 Z0.3 F5000.0 ; Move to start position
G1 X0.1 Y200.0 Z0.3 F1500.0 E15 ; Draw the first line
G1 X0.4 Y200.0 Z0.3 F5000.0 ; Move to side a little
G1 X0.4 Y20 Z0.3 F1500.0 E30 ; Draw the second line
G92 E0 ; Reset Extruder
G1 Z2.0 F3000 ; Move Z Axis up little to prevent scratching of Heat Bed
G1 X5 Y20 Z0.3 F5000.0 ; Move over to prevent blob squish
G92 E0
G92 E0
G1 F1500 E-6.5
;LAYER_COUNT:215
;LAYER:0
M107
G0 F6000 X42.832 Y18.849 Z0.2
;TYPE:SKIRT
G1 F1500 E0
G1 F1200 X43.434 Y18.891 E0.02007
G1 X43.845 Y18.93 E0.0338
G1 X44.423 Y18.997 E0.05316
G1 X44.8 Y19.048 E0.06581
G1 X45.931 Y19.222 E0.10387
G1 X46.629 Y19.354 E0.1275
G1 X47.841 Y19.628 E0.16882
G1 X48.196 Y19.715 E0.18098
G1 X48.837 Y19.889 E0.20307
G1 X49.756 Y20.175 E0.23508
G1 X50.108 Y20.295 E0.24745
G1 X50.435 Y20.412 E0.259
G1 X51.471 Y20.805 E0.29586
G1 X51.83 Y20.949 E0.30872
G1 X52.452 Y21.216 E0.33124
G1 X52.734 Y21.343 E0.34152
G1 X53.114 Y21.523 E0.35551
G1 X53.655 Y21.794 E0.37563
G1 X53.997 Y21.973 E0.38847
G1 X54.933 Y22.487 E0.42399
G1 X55.526 Y22.84 E0.44694
G1 X56.609 Y23.534 E0.48972
G1 X57.208 Y23.949 E0.51396
G1 X58.167 Y24.665 E0.55377
G1 X58.712 Y25.101 E0.57698
G1 X59.642 Y25.9 E0.61776
G1 X60.179 Y26.396 E0.64207
G1 X61.058 Y27.268 E0.68326
G1 X61.53 Y27.769 E0.70615
G1 X62.295 Y28.638 E0.74466
G1 X62.534 Y28.92 E0.75695
G1 X62.988 Y29.481 E0.78095
G1 X63.173 Y29.72 E0.79101
G1 X63.415 Y30.046 E0.80451
G1 X63.749 Y30.515 E0.82366
G1 X63.982 Y30.856 E0.8374
G1 X64.616 Y31.827 E0.87597
G1 X64.966 Y32.404 E0.89841
G1 X65.553 Y33.448 E0.93825
G1 X65.884 Y34.088 E0.96221
G1 X66.428 Y35.239 E1.00456
G1 X66.71 Y35.895 E1.02831
G1 X67.139 Y36.996 E1.06761
G1 X67.261 Y37.325 E1.07928
G1 X67.485 Y37.979 E1.10227
G1 X67.586 Y38.297 E1.11337
G1 X67.696 Y38.665 E1.12614
G1 X67.854 Y39.236 E1.14585
G1 X67.955 Y39.635 E1.15954
G1 X68.209 Y40.722 E1.19667
G1 X68.341 Y41.384 E1.21912
G1 X68.538 Y42.579 E1.2594
G1 X68.629 Y43.279 E1.28288
G1 X68.746 Y44.518 E1.32427
G1 X68.788 Y45.227 E1.34789
G1 X68.817 Y46.408 E1.38718
G1 X68.819 Y46.774 E1.39936
G1 X68.806 Y47.516 E1.42404
G1 X68.792 Y47.858 E1.43543
G1 X68.768 Y48.258 E1.44875
G1 X68.698 Y49.129 E1.47782
G1 X68.666 Y49.464 E1.48901
G1 X68.626 Y49.816 E1.50079
G1 X68.579 Y50.173 E1.51277
G1 X68.5 Y50.701 E1.53053
G1 X68.43 Y51.11 E1.54433
G1 X68.21 Y52.259 E1.58324
G1 X68.1 Y52.768 E1.60056
G1 X67.551 Y55.343 E1.68813
G1 X67.098 Y57.813 E1.77165
G1 X66.707 Y60.337 E1.8566
G1 X66.39 Y62.849 E1.94081
G1 X66.144 Y65.377 E2.02529
G1 X65.971 Y67.901 E2.10944
G1 X65.866 Y70.479 E2.19525
G1 X65.835 Y72.849 E2.27408
G1 X65.834 Y94.891 E3.0072
G1 X65.824 Y95.618 E3.03139
G1 X65.772 Y96.52 E3.06144
G1 X65.64 Y97.413 E3.09146
G1 X65.429 Y98.292 E3.12153
G1 X65.142 Y99.148 E3.15156
G1 X64.78 Y99.975 E3.18158
G1 X64.346 Y100.767 E3.21162
G1 X63.844 Y101.518 E3.24166
G1 X63.278 Y102.221 E3.27168
G1 X62.651 Y102.872 E3.30174
G1 X61.97 Y103.464 E3.33176
G1 X61.239 Y103.994 E3.36179
G1 X60.463 Y104.457 E3.39184
G1 X59.65 Y104.85 E3.42188
G1 X58.805 Y105.17 E3.45193
G1 X57.936 Y105.413 E3.48194
G1 X57.048 Y105.578 E3.51198
G1 X55.912 Y105.674 E3.5499
G1 X55.305 Y105.687 E3.57009
G1 X27.21 Y105.686 E4.50454
G1 X26.512 Y105.677 E4.52775
G1 X25.611 Y105.626 E4.55777
G1 X24.717 Y105.494 E4.58783
G1 X23.839 Y105.285 E4.61785
G1 X22.982 Y104.998 E4.64791
G1 X22.155 Y104.637 E4.67792
G1 X21.362 Y104.204 E4.70797
G1 X20.611 Y103.703 E4.73799
G1 X19.907 Y103.137 E4.76804
G1 X19.256 Y102.511 E4.79808
G1 X18.663 Y101.83 E4.82811
G1 X18.133 Y101.099 E4.85814
G1 X17.669 Y100.324 E4.88819
G1 X17.275 Y99.511 E4.91824
G1 X16.955 Y98.667 E4.94826
G1 X16.711 Y97.797 E4.97831
G1 X16.545 Y96.909 E5.00836
G1 X16.448 Y95.754 E5.04691
G1 X16.435 Y95.145 E5.06717
G1 X16.435 Y72.922 E5.80631
G1 X16.398 Y70.316 E5.89299
G1 X16.289 Y67.748 E5.97848
G1 X16.111 Y65.236 E6.06224
G1 X15.86 Y62.709 E6.1467
G1 X15.535 Y60.17 E6.23184
G1 X15.144 Y57.685 E6.31551
G1 X14.676 Y55.164 E6.40079
G1 X14.34 Y53.566 E6.4551
G1 X14.079 Y52.368 E6.49588
G1 X13.969 Y51.822 E6.5144
G1 X13.899 Y51.44 E6.52732
G1 X13.728 Y50.385 E6.56287
G1 X13.642 Y49.709 E6.58553
G1 X13.524 Y48.455 E6.62743
G1 X13.482 Y47.756 E6.65072
G1 X13.452 Y46.567 E6.69028
G1 X13.45 Y46.192 E6.70275
G1 X13.463 Y45.452 E6.72736
G1 X13.518 Y44.486 E6.75955
G1 X13.545 Y44.166 E6.77023
G1 X13.579 Y43.829 E6.78149
G1 X13.717 Y42.659 E6.82068
G1 X13.822 Y41.97 E6.84386
G1 X14.046 Y40.778 E6.8842
G1 X14.12 Y40.42 E6.89636
G1 X14.28 Y39.73 E6.91992
G1 X14.535 Y38.799 E6.95202
G1 X14.646 Y38.431 E6.96481
G1 X14.753 Y38.095 E6.97653
G1 X15.103 Y37.065 E7.01272
G1 X15.213 Y36.758 E7.02356
G1 X15.36 Y36.367 E7.03746
G1 X15.614 Y35.74 E7.05996
G1 X15.767 Y35.387 E7.07275
G1 X16.001 Y34.876 E7.09145
G1 X16.166 Y34.533 E7.1041
G1 X16.678 Y33.517 E7.14195
G1 X17.015 Y32.902 E7.16527
G1 X17.647 Y31.837 E7.20646
G1 X18.031 Y31.239 E7.2301
G1 X18.718 Y30.246 E7.27026
G1 X19.137 Y29.682 E7.29363
G1 X19.892 Y28.737 E7.33386
G1 X20.355 Y28.197 E7.35752
G1 X21.186 Y27.294 E7.39833
G1 X21.686 Y26.788 E7.42199
G1 X22.579 Y25.944 E7.46286
G1 X23.125 Y25.463 E7.48706
G1 X24.061 Y24.697 E7.52729
G1 X24.612 Y24.277 E7.55033
G1 X25.618 Y23.562 E7.59138
G1 X26.237 Y23.155 E7.61602
G1 X27.307 Y22.506 E7.65764
G1 X27.918 Y22.164 E7.68093
G1 X28.964 Y21.624 E7.72009
G1 X29.291 Y21.462 E7.73222
G1 X29.93 Y21.165 E7.75566
G1 X30.239 Y21.03 E7.76688
G1 X30.575 Y20.89 E7.77898
G1 X31.099 Y20.683 E7.79772
G1 X31.497 Y20.536 E7.81183
G1 X32.564 Y20.165 E7.84941
G1 X33.214 Y19.963 E7.87204
G1 X34.409 Y19.635 E7.91326
G1 X35.097 Y19.471 E7.93678
G1 X36.255 Y19.238 E7.97607
G1 X36.949 Y19.123 E7.99947
G1 X38.177 Y18.963 E8.04066
G1 X38.911 Y18.895 E8.06518
G1 X40.149 Y18.824 E8.10642
G1 X40.82 Y18.807 E8.12874
G1 X41.993 Y18.817 E8.16776
G1 X42.832 Y18.849 E8.19568
G0 F6000 X42.851 Y18.45
G1 F1200 X43.464 Y18.492 E8.21612
G1 X43.892 Y18.533 E8.23042
G1 X44.47 Y18.6 E8.24977
G1 X44.861 Y18.652 E8.26289
G1 X45.992 Y18.826 E8.30095
G1 X46.717 Y18.964 E8.3255
G1 X47.929 Y19.238 E8.36683
G1 X48.298 Y19.328 E8.37946
G1 X48.95 Y19.505 E8.40193
G1 X49.885 Y19.796 E8.4345
G1 X50.237 Y19.916 E8.44687
G1 X50.577 Y20.038 E8.45889
G1 X51.613 Y20.431 E8.49574
G1 X51.986 Y20.581 E8.50911
G1 X52.617 Y20.851 E8.53194
G1 X52.899 Y20.978 E8.54222
G1 X53.293 Y21.166 E8.55674
G1 X53.834 Y21.437 E8.57687
G1 X54.189 Y21.623 E8.5902
G1 X55.125 Y22.137 E8.62572
G1 X55.742 Y22.503 E8.64958
G1 X56.825 Y23.197 E8.69236
G1 X57.448 Y23.628 E8.71755
G1 X58.407 Y24.344 E8.75736
G1 X58.973 Y24.798 E8.78149
G1 X59.903 Y25.597 E8.82227
G1 X60.46 Y26.112 E8.8475
G1 X61.339 Y26.984 E8.88869
G1 X61.83 Y27.505 E8.9125
G1 X62.595 Y28.374 E8.951
G1 X62.844 Y28.667 E8.96379
G1 X63.304 Y29.236 E8.98813
G1 X63.489 Y29.475 E8.99818
G1 X63.741 Y29.814 E9.01223
G1 X64.075 Y30.283 E9.03138
G1 X64.317 Y30.637 E9.04564
G1 X64.951 Y31.608 E9.08421
G1 X65.315 Y32.208 E9.10755
G1 X65.902 Y33.252 E9.14739
G1 X66.246 Y33.918 E9.17232
G1 X66.79 Y35.069 E9.21466
G1 X67.083 Y35.75 E9.23932
G1 X67.512 Y36.851 E9.27862
G1 X67.638 Y37.192 E9.29071
G1 X67.867 Y37.858 E9.31414
G1 X67.968 Y38.176 E9.32524
G1 X68.081 Y38.558 E9.33849
G1 X68.239 Y39.129 E9.35819
G1 X68.345 Y39.544 E9.37244
G1 X68.599 Y40.631 E9.40956
G1 X68.736 Y41.319 E9.4329
G1 X68.933 Y42.514 E9.47318
G1 X69.027 Y43.241 E9.49756
G1 X69.144 Y44.48 E9.53895
G1 X69.188 Y45.217 E9.56351
G1 X69.217 Y46.398 E9.6028
G1 X69.219 Y46.778 E9.61544
G1 X69.206 Y47.533 E9.64056
G1 X69.192 Y47.875 E9.65194
G1 X69.167 Y48.29 E9.66577
G1 X69.097 Y49.161 E9.69483
G1 X69.063 Y49.509 E9.70646
G1 X69.023 Y49.861 E9.71824
G1 X68.974 Y50.233 E9.73072
G1 X68.895 Y50.761 E9.74848
G1 X68.823 Y51.185 E9.76278
G1 X68.603 Y52.334 E9.80169
G1 X68.486 Y52.875 E9.8201
G1 X67.949 Y55.393 E9.90574
G1 X67.489 Y57.897 E9.99041
G1 X67.104 Y60.383 E10.07408
G1 X66.787 Y62.902 E10.15853
G1 X66.543 Y65.41 E10.24234
G1 X66.369 Y67.944 E10.32682
G1 X66.266 Y70.464 E10.4107
G1 X66.235 Y72.849 E10.49004
G1 X66.234 Y94.897 E11.22335
G1 X66.224 Y95.624 E11.24754
G1 X66.171 Y96.543 E11.27815
G1 X66.039 Y97.454 E11.30877
G1 X65.828 Y98.35 E11.33939
G1 X65.541 Y99.225 E11.37001
G1 X65.178 Y100.071 E11.40063
G1 X64.744 Y100.883 E11.43126
G1 X64.24 Y101.654 E11.46189
G1 X63.672 Y102.378 E11.4925
G1 X63.043 Y103.05 E11.52311
G1 X62.358 Y103.665 E11.55373
G1 X61.622 Y104.218 E11.58435
G1 X60.841 Y104.706 E11.61498
G1 X60.021 Y105.124 E11.64559
G1 X59.167 Y105.469 E11.67623
G1 X58.287 Y105.738 E11.70683
G1 X57.386 Y105.931 E11.73748
G1 X56.473 Y106.044 E11.76808
G1 X55.923 Y106.074 E11.7864
G1 X55.305 Y106.087 E11.80696
G1 X27.205 Y106.086 E12.74157
G1 X26.507 Y106.077 E12.76479
G1 X25.588 Y106.025 E12.7954
G1 X24.677 Y105.894 E12.82601
G1 X23.781 Y105.684 E12.85662
G1 X22.906 Y105.397 E12.88725
G1 X22.059 Y105.035 E12.91789
G1 X21.247 Y104.601 E12.94851
G1 X20.476 Y104.099 E12.97911
G1 X19.751 Y103.531 E13.00974
G1 X19.078 Y102.902 E13.04038
G1 X18.463 Y102.218 E13.07097
G1 X17.909 Y101.483 E13.10159
G1 X17.421 Y100.702 E13.13222
G1 X17.002 Y99.882 E13.16284
G1 X16.656 Y99.029 E13.19346
G1 X16.386 Y98.149 E13.22408
G1 X16.193 Y97.248 E13.25472
G1 X16.079 Y96.335 E13.28533
G1 X16.048 Y95.764 E13.30434
G1 X16.035 Y95.145 E13.32494
G1 X16.035 Y72.928 E14.06388
G1 X15.998 Y70.303 E14.15119
G1 X15.891 Y67.789 E14.23489
G1 X15.712 Y65.263 E14.31911
G1 X15.462 Y62.748 E14.40317
G1 X15.141 Y60.24 E14.48727
G1 X14.755 Y57.783 E14.56999
G1 X14.275 Y55.2 E14.65737
G1 X13.93 Y53.559 E14.71315
G1 X13.687 Y52.447 E14.75101
G1 X13.577 Y51.901 E14.76953
G1 X13.505 Y51.504 E14.78295
G1 X13.334 Y50.449 E14.8185
G1 X13.244 Y49.746 E14.84207
G1 X13.126 Y48.492 E14.88396
G1 X13.082 Y47.766 E14.90815
G1 X13.052 Y46.577 E14.94771
G1 X13.05 Y46.187 E14.96068
G1 X13.063 Y45.435 E14.9857
G1 X13.104 Y44.659 E15.01155
G1 X13.147 Y44.133 E15.0291
G1 X13.182 Y43.782 E15.04083
G1 X13.32 Y42.612 E15.08001
G1 X13.429 Y41.896 E15.1041
G1 X13.653 Y40.704 E15.14444
G1 X13.73 Y40.332 E15.15708
G1 X13.893 Y39.631 E15.18102
G1 X14.152 Y38.684 E15.21367
G1 X14.263 Y38.316 E15.22645
G1 X14.375 Y37.967 E15.23865
G1 X14.839 Y36.617 E15.28612
G1 X14.986 Y36.226 E15.30002
G1 X15.111 Y35.909 E15.31135
G1 X15.244 Y35.587 E15.32294
G1 X15.403 Y35.221 E15.33621
G1 X15.637 Y34.71 E15.3549
G1 X15.809 Y34.353 E15.36808
G1 X16.321 Y33.337 E15.40593
G1 X16.671 Y32.697 E15.43019
G1 X17.303 Y31.632 E15.47138
G1 X17.702 Y31.011 E15.49593
G1 X18.389 Y30.018 E15.53609
G1 X18.825 Y29.433 E15.56035
G1 X19.58 Y28.488 E15.60059
G1 X20.061 Y27.926 E15.62519
G1 X20.892 Y27.023 E15.666
G1 X21.411 Y26.497 E15.69058
G1 X22.304 Y25.653 E15.73145
G1 X22.872 Y25.154 E15.7566
G1 X23.808 Y24.388 E15.79682
G1 X24.38 Y23.951 E15.82077
G1 X25.386 Y23.236 E15.86182
G1 X26.03 Y22.813 E15.88744
G1 X27.1 Y22.164 E15.92907
G1 X27.734 Y21.808 E15.95325
G1 X28.78 Y21.268 E15.9924
G1 X29.121 Y21.1 E16.00505
G1 X29.77 Y20.799 E16.02884
G1 X30.079 Y20.664 E16.04006
G1 X30.428 Y20.518 E16.05264
G1 X30.952 Y20.311 E16.07138
G1 X31.366 Y20.158 E16.08606
G1 X32.433 Y19.787 E16.12363
G1 X33.108 Y19.577 E16.14714
G1 X34.303 Y19.249 E16.18836
G1 X35.018 Y19.079 E16.2128
G1 X36.176 Y18.846 E16.25209
G1 X36.897 Y18.727 E16.27639
G1 X38.125 Y18.567 E16.31758
G1 X38.888 Y18.495 E16.34307
G1 X40.126 Y18.424 E16.38432
G1 X40.823 Y18.407 E16.40751
G1 X41.996 Y18.417 E16.44652
G1 X42.851 Y18.45 E16.47498
G0 F6000 X42.87 Y18.05
G1 F1200 X43.494 Y18.093 E16.49578
G1 X43.938 Y18.135 E16.51062
G1 X44.516 Y18.202 E16.52997
G1 X44.922 Y18.257 E16.5436
G1 X46.053 Y18.431 E16.58166
G1 X46.806 Y18.574 E16.60715
G1 X48.018 Y18.848 E16.64848
G1 X48.4 Y18.942 E16.66156
G1 X49.063 Y19.121 E16.6844
G1 X50.014 Y19.417 E16.71753
G1 X50.366 Y19.537 E16.7299
G1 X50.718 Y19.664 E16.74235
G1 X51.754 Y20.057 E16.7792
G1 X52.141 Y20.212 E16.79306
G1 X52.781 Y20.486 E16.81622
G1 X53.063 Y20.613 E16.82651
G1 X53.473 Y20.808 E16.84161
G1 X54.014 Y21.079 E16.86173
G1 X54.382 Y21.272 E16.87555
G1 X55.318 Y21.786 E16.91107
G1 X55.958 Y22.166 E16.93583
G1 X57.041 Y22.86 E16.97861
G1 X57.687 Y23.308 E17.00475
G1 X58.646 Y24.024 E17.04456
G1 X59.233 Y24.494 E17.06957
G1 X60.163 Y25.293 E17.11035
G1 X60.742 Y25.828 E17.13657
G1 X61.621 Y26.7 E17.17775
G1 X62.131 Y27.241 E17.20248
G1 X62.896 Y28.11 E17.24099
G1 X63.154 Y28.414 E17.25425
G1 X63.621 Y28.991 E17.27894
G1 X63.806 Y29.23 E17.28899
G1 X64.067 Y29.582 E17.30357
G1 X64.401 Y30.051 E17.32272
G1 X64.652 Y30.418 E17.3375
G1 X65.286 Y31.389 E17.37607
G1 X65.663 Y32.012 E17.40029
G1 X66.25 Y33.056 E17.44013
G1 X66.607 Y33.747 E17.466
G1 X67.151 Y34.898 E17.50834
G1 X67.455 Y35.604 E17.53391
G1 X67.884 Y36.705 E17.57321
G1 X68.016 Y37.06 E17.58581
G1 X68.145 Y37.428 E17.59878
G1 X68.349 Y38.055 E17.62071
G1 X68.467 Y38.451 E17.63445
G1 X68.625 Y39.022 E17.65415
G1 X68.734 Y39.453 E17.66894
G1 X68.988 Y40.54 E17.70607
G1 X69.131 Y41.254 E17.73029
G1 X69.328 Y42.449 E17.77057
G1 X69.425 Y43.204 E17.79589
G1 X69.542 Y44.443 E17.83728
G1 X69.588 Y45.207 E17.86274
G1 X69.617 Y46.388 E17.90203
G1 X69.619 Y46.783 E17.91517
G1 X69.606 Y47.549 E17.94065
G1 X69.592 Y47.891 E17.95203
G1 X69.566 Y48.322 E17.96639
G1 X69.496 Y49.193 E17.99546
G1 X69.461 Y49.554 E18.00752
G1 X69.421 Y49.906 E18.0193
G1 X69.37 Y50.292 E18.03225
G1 X69.291 Y50.82 E18.05001
G1 X69.216 Y51.261 E18.06489
G1 X68.996 Y52.41 E18.1038
G1 X68.886 Y52.92 E18.12115
G1 X68.339 Y55.484 E18.20835
G1 X67.882 Y57.97 E18.29242
G1 X67.502 Y60.427 E18.37511
G1 X67.184 Y62.95 E18.45969
G1 X66.941 Y65.443 E18.543
G1 X66.769 Y67.951 E18.62661
G1 X66.666 Y70.485 E18.71096
G1 X66.635 Y72.849 E18.7896
G1 X66.634 Y94.902 E19.52308
G1 X66.624 Y95.629 E19.54727
G1 X66.571 Y96.566 E19.57848
G1 X66.439 Y97.494 E19.60966
G1 X66.228 Y98.408 E19.64086
G1 X65.939 Y99.3 E19.67204
G1 X65.576 Y100.165 E19.70324
G1 X65.141 Y100.996 E19.73444
G1 X64.636 Y101.786 E19.76563
G1 X64.066 Y102.531 E19.79682
G1 X63.435 Y103.225 E19.82802
G1 X62.746 Y103.862 E19.85923
G1 X62.006 Y104.438 E19.89042
G1 X61.22 Y104.949 E19.9216
G1 X60.393 Y105.391 E19.95279
G1 X59.531 Y105.761 E19.98399
G1 X58.641 Y106.056 E20.01518
G1 X57.729 Y106.275 E20.04637
G1 X56.802 Y106.415 E20.07755
G1 X55.934 Y106.474 E20.10649
G1 X55.305 Y106.487 E20.12741
G1 X27.2 Y106.486 E21.06219
G1 X26.502 Y106.477 E21.08541
G1 X25.566 Y106.425 E21.11659
G1 X24.637 Y106.293 E21.1478
G1 X23.723 Y106.083 E21.17899
G1 X22.83 Y105.796 E21.21019
G1 X21.965 Y105.433 E21.24139
G1 X21.134 Y104.999 E21.27257
G1 X20.343 Y104.495 E21.30376
G1 X19.598 Y103.925 E21.33496
G1 X18.904 Y103.294 E21.36616
G1 X18.267 Y102.607 E21.39732
G1 X17.69 Y101.867 E21.42853
G1 X17.178 Y101.081 E21.45973
G1 X16.735 Y100.254 E21.49093
G1 X16.364 Y99.393 E21.52212
G1 X16.068 Y98.503 E21.55331
G1 X15.849 Y97.591 E21.58451
G1 X15.708 Y96.664 E21.6157
G1 X15.648 Y95.775 E21.64533
G1 X15.635 Y95.145 E21.66629
G1 X15.635 Y72.934 E22.40503
G1 X15.598 Y70.326 E22.49178
G1 X15.491 Y67.804 E22.57574
G1 X15.314 Y65.309 E22.65893
G1 X15.064 Y62.787 E22.74322
G1 X14.748 Y60.321 E22.82591
G1 X14.352 Y57.803 E22.91069
G1 X13.889 Y55.309 E22.99506
G1 X13.538 Y53.641 E23.05175
G1 X13.295 Y52.526 E23.08971
G1 X13.185 Y51.98 E23.10823
G1 X13.11 Y51.568 E23.12216
G1 X12.939 Y50.513 E23.15771
G1 X12.845 Y49.784 E23.18216
G1 X12.727 Y48.53 E23.22405
G1 X12.682 Y47.776 E23.24917
G1 X12.652 Y46.587 E23.28873
G1 X12.65 Y46.183 E23.30217
G1 X12.655 Y45.751 E23.31654
G1 X12.689 Y44.88 E23.34553
G1 X12.748 Y44.099 E23.37158
G1 X12.785 Y43.735 E23.38375
G1 X12.923 Y42.565 E23.42293
G1 X13.036 Y41.822 E23.44793
G1 X13.26 Y40.63 E23.48827
G1 X13.34 Y40.244 E23.50138
G1 X13.429 Y39.849 E23.51485
G1 X13.652 Y38.974 E23.54488
G1 X13.88 Y38.2 E23.57172
G1 X13.996 Y37.838 E23.58436
