;FLAVOR:Marlin
;TIME:6723
;Filament used: 4.40234m
;Layer height: 0.2
;MINX:11.759
;MINY:13.002
;MINZ:0.2
;MAXX:68.725
;MAXY:101.484
;MAXZ:43
;Generated with Cura_SteamEngine 4.6.1
M140 S65
M105
M190 S65
M104 S210
M105
M109 S210
M82 ;absolute extrusion mode
; Ender 3 Custom Start G-code
G92 E0 ; Reset Extruder
G28 ; Home all axes
G1 Z2.0 F3000 ; Move Z Axis up little to prevent scratching of Heat Bed
G1 X0.1 Y20 Z0.3 F5000.0 ; Move to start position
G1 X0.1 Y200.0 Z0.3 F1500.0 E15 ; Draw the first line
G1 X0.4 Y200.0 Z0.3 F5000.0 ; Move to side a little
G1 X0.4 Y20 Z0.3 F1500.0 E30 ; Draw the second line
G92 E0 ; Reset Extruder
G1 Z2.0 F3000 ; Move Z Axis up little to prevent scratching of Heat Bed
G1 X5 Y20 Z0.3 F5000.0 ; Move over to prevent blob squish
G92 E0
G92 E0
G1 F1500 E-6.5
;LAYER_COUNT:215
;LAYER:0
M107
G0 F6000 X41.978 Y13.855 Z0.2
;TYPE:SKIRT
G1 F1500 E0
G1 F1200 X42.674 Y13.908 E0.02322
G1 X43.884 Y14.042 E0.06371
G1 X44.571 Y14.142 E0.0868
G1 X45.741 Y14.353 E0.12634
G1 X46.421 Y14.5 E0.14948
G1 X47.541 Y14.782 E0.18789
G1 X48.171 Y14.962 E0.20969
G1 X49.276 Y15.317 E0.24829
G1 X49.946 Y15.558 E0.27197
G1 X51.098 Y16.019 E0.31324
G1 X51.738 Y16.301 E0.3365
G1 X52.775 Y16.801 E0.37479
G1 X53.369 Y17.112 E0.39709
G1 X54.369 Y17.678 E0.43531
G1 X54.959 Y18.039 E0.45832
G1 X56.001 Y18.726 E0.49983
G1 X56.58 Y19.137 E0.52344
G1 X57.483 Y19.827 E0.56124
G1 X57.996 Y20.246 E0.58327
G1 X58.859 Y20.999 E0.62137
G1 X59.361 Y21.468 E0.64422
G1 X60.232 Y22.338 E0.68516
G1 X60.707 Y22.846 E0.70829
G1 X61.464 Y23.713 E0.74657
G1 X61.894 Y24.24 E0.7692
G1 X62.627 Y25.202 E0.80942
G1 X63.025 Y25.763 E0.8323
G1 X63.661 Y26.726 E0.87068
G1 X64.028 Y27.326 E0.89408
G1 X64.606 Y28.348 E0.93313
G1 X64.915 Y28.937 E0.95525
G1 X65.421 Y29.986 E0.99399
G1 X65.688 Y30.582 E1.01571
G1 X65.8 Y30.854 E1.02549
G1 X66.155 Y31.747 E1.05746
G1 X66.385 Y32.385 E1.08001
G1 X66.769 Y33.576 E1.12163
G1 X66.959 Y34.241 E1.14464
G1 X67.228 Y35.321 E1.18166
G1 X67.369 Y35.982 E1.20413
G1 X67.583 Y37.173 E1.24438
G1 X67.681 Y37.844 E1.26694
G1 X67.811 Y39.007 E1.30586
G1 X67.865 Y39.7 E1.32898
G1 X67.915 Y40.858 E1.36753
G1 X67.925 Y41.466 E1.38775
G1 X67.921 Y41.786 E1.3984
G1 X67.895 Y42.758 E1.43074
G1 X67.855 Y43.434 E1.45326
G1 X67.74 Y44.665 E1.49438
G1 X67.654 Y45.342 E1.51708
G1 X67.473 Y46.463 E1.55485
G1 X67.34 Y47.14 E1.5778
G1 X66.98 Y48.682 E1.63046
G1 X66.43 Y50.843 E1.70463
G1 X65.869 Y53.328 E1.78936
G1 X65.374 Y55.852 E1.87491
G1 X64.964 Y58.315 E1.95795
G1 X64.617 Y60.835 E2.04256
G1 X64.34 Y63.382 E2.12777
G1 X64.136 Y65.911 E2.21216
G1 X64.007 Y68.404 E2.29519
G1 X63.94 Y71.922 E2.41222
G1 X63.939 Y89.888 E3.00977
G1 X63.929 Y90.615 E3.03396
G1 X63.877 Y91.517 E3.06401
G1 X63.745 Y92.41 E3.09403
G1 X63.534 Y93.289 E3.1241
G1 X63.247 Y94.145 E3.15412
G1 X62.885 Y94.972 E3.18415
G1 X62.451 Y95.764 E3.21419
G1 X61.949 Y96.515 E3.24423
G1 X61.383 Y97.218 E3.27425
G1 X60.756 Y97.869 E3.30431
G1 X60.075 Y98.461 E3.33433
G1 X59.344 Y98.991 E3.36436
G1 X58.568 Y99.454 E3.39441
G1 X57.755 Y99.847 E3.42445
G1 X56.91 Y100.167 E3.4545
G1 X56.041 Y100.41 E3.48451
G1 X55.153 Y100.575 E3.51455
G1 X54.017 Y100.671 E3.55247
G1 X53.41 Y100.684 E3.57266
G1 X27.315 Y100.683 E4.44059
G1 X26.617 Y100.674 E4.4638
G1 X25.716 Y100.623 E4.49382
G1 X24.822 Y100.491 E4.52387
G1 X23.944 Y100.282 E4.55389
G1 X23.087 Y99.995 E4.58395
G1 X22.26 Y99.634 E4.61397
G1 X21.467 Y99.201 E4.64402
G1 X20.716 Y98.7 E4.67404
G1 X20.012 Y98.134 E4.70409
G1 X19.361 Y97.508 E4.73413
G1 X18.768 Y96.827 E4.76416
G1 X18.238 Y96.096 E4.79419
G1 X17.774 Y95.321 E4.82423
G1 X17.38 Y94.508 E4.85428
G1 X17.06 Y93.664 E4.8843
G1 X16.816 Y92.794 E4.91436
G1 X16.65 Y91.906 E4.9444
G1 X16.553 Y90.751 E4.98295
G1 X16.54 Y90.142 E5.00321
G1 X16.54 Y71.889 E5.61031
G1 X16.503 Y69.283 E5.697
G1 X16.394 Y66.715 E5.78249
G1 X16.217 Y64.213 E5.86591
G1 X15.968 Y61.7 E5.9499
G1 X15.64 Y59.137 E6.03584
G1 X15.249 Y56.652 E6.11951
G1 X14.789 Y54.176 E6.20327
G1 X14.244 Y51.642 E6.28948
G1 X13.647 Y49.21 E6.37277
G1 X13.39 Y48.243 E6.40605
G1 X13.301 Y47.874 E6.41868
G1 X13.226 Y47.535 E6.43022
G1 X13.031 Y46.586 E6.46245
G1 X12.923 Y45.966 E6.48338
G1 X12.754 Y44.775 E6.52339
G1 X12.679 Y44.069 E6.547
G1 X12.592 Y42.851 E6.58762
G1 X12.566 Y42.189 E6.60965
G1 X12.559 Y41.092 E6.64614
G1 X12.579 Y40.395 E6.66933
G1 X12.657 Y39.139 E6.71119
G1 X12.724 Y38.442 E6.73447
G1 X12.87 Y37.331 E6.77174
G1 X12.979 Y36.671 E6.79399
G1 X13.215 Y35.484 E6.83425
G1 X13.376 Y34.797 E6.85771
G1 X13.684 Y33.664 E6.89677
G1 X13.886 Y33.009 E6.91956
G1 X14.272 Y31.892 E6.95887
G1 X14.515 Y31.259 E6.98142
G1 X14.965 Y30.192 E7.01994
G1 X15.255 Y29.565 E7.04292
G1 X15.807 Y28.47 E7.0837
G1 X16.148 Y27.848 E7.10729
G1 X16.742 Y26.849 E7.14595
G1 X17.106 Y26.28 E7.16842
G1 X17.77 Y25.315 E7.20738
G1 X18.181 Y24.759 E7.23037
G1 X18.913 Y23.836 E7.26955
G1 X19.34 Y23.332 E7.29153
G1 X20.126 Y22.463 E7.3305
G1 X20.624 Y21.95 E7.35428
G1 X21.491 Y21.117 E7.39427
G1 X22.001 Y20.659 E7.41707
G1 X22.884 Y19.918 E7.4554
G1 X23.42 Y19.498 E7.47805
G1 X24.41 Y18.774 E7.51885
G1 X25.006 Y18.37 E7.54279
G1 X26.009 Y17.74 E7.58219
G1 X26.567 Y17.413 E7.6037
G1 X27.521 Y16.895 E7.63981
G1 X28.134 Y16.589 E7.66259
G1 X29.278 Y16.064 E7.70446
G1 X29.947 Y15.785 E7.72857
G1 X31.039 Y15.375 E7.76736
G1 X31.666 Y15.162 E7.78939
G1 X32.775 Y14.826 E7.82793
G1 X33.444 Y14.648 E7.85095
G1 X34.612 Y14.379 E7.89082
G1 X35.294 Y14.246 E7.91393
G1 X36.441 Y14.063 E7.95256
G1 X37.115 Y13.979 E7.97515
G1 X38.302 Y13.87 E8.0148
G1 X38.996 Y13.83 E8.03792
G1 X40.191 Y13.802 E8.07768
G1 X40.857 Y13.808 E8.09983
G1 X41.978 Y13.855 E8.13715
G0 F6000 X41.995 Y13.455
G1 F1200 X42.718 Y13.51 E8.16126
G1 X43.928 Y13.644 E8.20175
G1 X44.642 Y13.748 E8.22575
G1 X45.812 Y13.959 E8.26529
G1 X46.519 Y14.112 E8.28935
G1 X47.639 Y14.394 E8.32777
G1 X48.293 Y14.581 E8.35039
G1 X49.398 Y14.936 E8.38899
G1 X50.094 Y15.187 E8.4136
G1 X51.246 Y15.648 E8.45487
G1 X51.912 Y15.941 E8.47907
G1 X52.949 Y16.441 E8.51736
G1 X53.566 Y16.764 E8.54053
G1 X54.566 Y17.33 E8.57874
G1 X55.18 Y17.705 E8.60267
G1 X56.222 Y18.392 E8.64418
G1 X56.823 Y18.819 E8.66871
G1 X57.726 Y19.509 E8.7065
G1 X58.259 Y19.945 E8.72941
G1 X59.122 Y20.698 E8.7675
G1 X59.644 Y21.185 E8.79124
G1 X60.515 Y22.055 E8.83219
G1 X61.009 Y22.583 E8.85624
G1 X61.766 Y23.45 E8.89452
G1 X62.212 Y23.998 E8.91802
G1 X62.945 Y24.96 E8.95825
G1 X63.359 Y25.542 E8.982
G1 X63.995 Y26.505 E9.02039
G1 X64.377 Y27.129 E9.04472
G1 X64.955 Y28.151 E9.08377
G1 X65.275 Y28.764 E9.10677
G1 X65.781 Y29.813 E9.14551
G1 X66.055 Y30.423 E9.16775
G1 X66.172 Y30.706 E9.17794
G1 X66.527 Y31.599 E9.2099
G1 X66.766 Y32.262 E9.23334
G1 X67.15 Y33.453 E9.27496
G1 X67.347 Y34.144 E9.29886
G1 X67.616 Y35.224 E9.33588
G1 X67.763 Y35.911 E9.35924
G1 X67.977 Y37.102 E9.39949
G1 X68.078 Y37.799 E9.42291
G1 X68.208 Y38.962 E9.46184
G1 X68.264 Y39.683 E9.48589
G1 X68.314 Y40.841 E9.52444
G1 X68.325 Y41.464 E9.54517
G1 X68.321 Y41.796 E9.55621
G1 X68.295 Y42.768 E9.58855
G1 X68.253 Y43.471 E9.61197
G1 X68.138 Y44.702 E9.65309
G1 X68.048 Y45.406 E9.6767
G1 X67.867 Y46.527 E9.71447
G1 X67.729 Y47.23 E9.7383
G1 X67.367 Y48.781 E9.79127
G1 X66.821 Y50.924 E9.86482
G1 X66.256 Y53.428 E9.9502
G1 X65.775 Y55.882 E10.03337
G1 X65.356 Y58.399 E10.11824
G1 X65.012 Y60.901 E10.20224
G1 X64.741 Y63.386 E10.28538
G1 X64.536 Y65.928 E10.3702
G1 X64.407 Y68.433 E10.45363
G1 X64.34 Y71.93 E10.56996
G1 X64.339 Y89.894 E11.16745
G1 X64.329 Y90.621 E11.19163
G1 X64.276 Y91.54 E11.22225
G1 X64.144 Y92.451 E11.25286
G1 X63.933 Y93.347 E11.28348
G1 X63.646 Y94.222 E11.31411
G1 X63.283 Y95.068 E11.34473
G1 X62.849 Y95.88 E11.37535
G1 X62.345 Y96.651 E11.40599
G1 X61.777 Y97.375 E11.43659
G1 X61.148 Y98.047 E11.46721
G1 X60.463 Y98.662 E11.49782
G1 X59.727 Y99.215 E11.52844
G1 X58.946 Y99.703 E11.55907
G1 X58.126 Y100.121 E11.58969
G1 X57.272 Y100.466 E11.62032
G1 X56.392 Y100.735 E11.65093
G1 X55.491 Y100.928 E11.68157
G1 X54.578 Y101.041 E11.71217
G1 X54.028 Y101.071 E11.73049
G1 X53.41 Y101.084 E11.75105
G1 X27.31 Y101.083 E12.61914
G1 X26.612 Y101.074 E12.64236
G1 X25.693 Y101.022 E12.67297
G1 X24.782 Y100.891 E12.70359
G1 X23.886 Y100.681 E12.73419
G1 X23.011 Y100.394 E12.76482
G1 X22.164 Y100.032 E12.79546
G1 X21.352 Y99.598 E12.82608
G1 X20.581 Y99.096 E12.85668
G1 X19.856 Y98.528 E12.88731
G1 X19.183 Y97.899 E12.91795
G1 X18.568 Y97.215 E12.94855
G1 X18.014 Y96.48 E12.97916
G1 X17.526 Y95.699 E13.00979
G1 X17.107 Y94.879 E13.04042
G1 X16.761 Y94.026 E13.07103
G1 X16.491 Y93.146 E13.10165
G1 X16.298 Y92.245 E13.1323
G1 X16.184 Y91.332 E13.1629
G1 X16.153 Y90.761 E13.18192
G1 X16.14 Y90.142 E13.20251
G1 X16.14 Y71.895 E13.80941
G1 X16.103 Y69.27 E13.89672
G1 X15.996 Y66.762 E13.98022
G1 X15.818 Y64.241 E14.06427
G1 X15.568 Y61.723 E14.14843
G1 X15.247 Y59.212 E14.23263
G1 X14.86 Y56.75 E14.31552
G1 X14.391 Y54.228 E14.40084
G1 X13.858 Y51.749 E14.48518
G1 X13.252 Y49.281 E14.5697
G1 X13.001 Y48.336 E14.60222
G1 X12.912 Y47.967 E14.61485
G1 X12.834 Y47.616 E14.62681
G1 X12.639 Y46.667 E14.65903
G1 X12.527 Y46.022 E14.6808
G1 X12.358 Y44.831 E14.72081
G1 X12.28 Y44.097 E14.74537
G1 X12.193 Y42.879 E14.78598
G1 X12.166 Y42.192 E14.80885
G1 X12.159 Y41.095 E14.84533
G1 X12.179 Y40.37 E14.86946
G1 X12.257 Y39.114 E14.91131
G1 X12.327 Y38.39 E14.9355
G1 X12.473 Y37.279 E14.97277
G1 X12.586 Y36.593 E14.9959
G1 X12.822 Y35.406 E15.03615
G1 X12.99 Y34.692 E15.06055
G1 X13.298 Y33.559 E15.0996
G1 X13.508 Y32.878 E15.1233
G1 X13.894 Y31.761 E15.16261
G1 X14.146 Y31.104 E15.18601
G1 X14.596 Y30.037 E15.22453
G1 X14.898 Y29.384 E15.24846
G1 X15.45 Y28.289 E15.28924
G1 X15.804 Y27.644 E15.31371
G1 X16.398 Y26.645 E15.35237
G1 X16.777 Y26.053 E15.37575
G1 X17.441 Y25.088 E15.41471
G1 X17.868 Y24.51 E15.43861
G1 X18.6 Y23.587 E15.47779
G1 X19.044 Y23.064 E15.50061
G1 X19.83 Y22.195 E15.53958
G1 X20.347 Y21.661 E15.5643
G1 X21.214 Y20.828 E15.60429
G1 X21.744 Y20.352 E15.62799
G1 X22.627 Y19.611 E15.66633
G1 X23.184 Y19.175 E15.68985
G1 X24.174 Y18.451 E15.73065
G1 X24.793 Y18.031 E15.75553
G1 X25.796 Y17.401 E15.79492
G1 X26.376 Y17.062 E15.81727
G1 X27.33 Y16.544 E15.85337
G1 X27.967 Y16.225 E15.87707
G1 X29.111 Y15.7 E15.91893
G1 X29.806 Y15.41 E15.94398
G1 X30.898 Y15 E15.98277
G1 X31.55 Y14.779 E16.00567
G1 X32.659 Y14.443 E16.04421
G1 X33.354 Y14.258 E16.06813
G1 X34.522 Y13.989 E16.108
G1 X35.231 Y13.851 E16.13202
G1 X36.378 Y13.668 E16.17065
G1 X37.079 Y13.58 E16.19415
G1 X38.266 Y13.471 E16.2338
G1 X38.987 Y13.43 E16.25782
G1 X40.182 Y13.402 E16.29758
G1 X40.874 Y13.408 E16.32059
G1 X41.995 Y13.455 E16.35791
G0 F6000 X42.012 Y13.056
G1 F1200 X42.762 Y13.113 E16.38293
G1 X43.972 Y13.247 E16.42342
G1 X44.713 Y13.355 E16.44832
G1 X45.883 Y13.566 E16.48787
G1 X46.617 Y13.724 E16.51284
G1 X47.737 Y14.006 E16.55125
G1 X48.416 Y14.2 E16.57474
G1 X49.521 Y14.555 E16.61334
G1 X50.243 Y14.815 E16.63886
G1 X51.395 Y15.276 E16.68013
G1 X52.085 Y15.581 E16.70523
G1 X53.122 Y16.081 E16.74352
G1 X53.763 Y16.416 E16.76757
G1 X54.763 Y16.982 E16.80579
G1 X55.4 Y17.371 E16.83062
G1 X56.442 Y18.058 E16.87213
G1 X57.066 Y18.502 E16.8976
G1 X57.969 Y19.192 E16.9354
G1 X58.522 Y19.644 E16.95915
G1 X59.385 Y20.397 E16.99725
G1 X59.927 Y20.902 E17.02189
G1 X60.798 Y21.772 E17.06283
G1 X61.31 Y22.32 E17.08778
G1 X62.067 Y23.187 E17.12606
G1 X62.531 Y23.755 E17.15045
G1 X63.264 Y24.717 E17.19068
G1 X63.693 Y25.322 E17.21534
G1 X64.329 Y26.285 E17.25373
G1 X64.725 Y26.932 E17.27896
G1 X65.303 Y27.954 E17.31801
G1 X65.636 Y28.59 E17.34189
G1 X66.142 Y29.639 E17.38062
G1 X66.422 Y30.265 E17.40343
G1 X66.544 Y30.558 E17.41399
G1 X66.899 Y31.451 E17.44595
G1 X67.146 Y32.14 E17.4703
G1 X67.53 Y33.331 E17.51192
G1 X67.735 Y34.047 E17.53669
G1 X68.004 Y35.127 E17.57371
G1 X68.157 Y35.841 E17.59799
G1 X68.371 Y37.032 E17.63824
G1 X68.476 Y37.755 E17.66254
G1 X68.606 Y38.918 E17.70146
G1 X68.664 Y39.665 E17.72638
G1 X68.714 Y40.823 E17.76493
G1 X68.725 Y41.462 E17.78619
G1 X68.721 Y41.807 E17.79767
G1 X68.695 Y42.779 E17.83001
G1 X68.651 Y43.508 E17.8543
G1 X68.536 Y44.739 E17.89542
G1 X68.443 Y45.469 E17.91989
G1 X68.262 Y46.59 E17.95766
G1 X68.119 Y47.32 E17.9824
G1 X67.755 Y48.88 E18.03568
G1 X67.205 Y51.04 E18.10982
G1 X66.653 Y53.487 E18.19325
G1 X66.163 Y55.988 E18.27801
G1 X65.752 Y58.453 E18.36113
G1 X65.412 Y60.927 E18.44419
G1 X65.135 Y63.46 E18.52894
G1 X64.935 Y65.945 E18.61186
G1 X64.807 Y68.431 E18.69465
G1 X64.74 Y71.937 E18.81129
G1 X64.739 Y89.899 E19.4087
G1 X64.729 Y90.626 E19.43289
G1 X64.676 Y91.563 E19.4641
G1 X64.544 Y92.491 E19.49528
G1 X64.333 Y93.405 E19.52648
G1 X64.044 Y94.297 E19.55766
G1 X63.681 Y95.162 E19.58886
G1 X63.246 Y95.993 E19.62006
G1 X62.741 Y96.783 E19.65125
G1 X62.171 Y97.528 E19.68245
G1 X61.54 Y98.222 E19.71364
G1 X60.851 Y98.859 E19.74485
G1 X60.111 Y99.435 E19.77604
G1 X59.325 Y99.946 E19.80722
G1 X58.498 Y100.388 E19.83841
G1 X57.636 Y100.758 E19.86961
G1 X56.746 Y101.053 E19.9008
G1 X55.834 Y101.272 E19.93199
G1 X54.907 Y101.412 E19.96317
G1 X54.039 Y101.471 E19.99211
G1 X53.41 Y101.484 E20.01304
G1 X27.305 Y101.483 E20.88129
G1 X26.607 Y101.474 E20.90451
G1 X25.671 Y101.422 E20.93569
G1 X24.742 Y101.29 E20.9669
G1 X23.828 Y101.08 E20.99809
G1 X22.935 Y100.793 E21.02929
G1 X22.07 Y100.43 E21.06049
G1 X21.239 Y99.996 E21.09167
G1 X20.448 Y99.492 E21.12286
G1 X19.703 Y98.922 E21.15406
G1 X19.009 Y98.291 E21.18526
G1 X18.372 Y97.604 E21.21642
G1 X17.795 Y96.864 E21.24763
G1 X17.283 Y96.078 E21.27883
G1 X16.84 Y95.251 E21.31004
G1 X16.469 Y94.39 E21.34122
G1 X16.173 Y93.5 E21.37241
G1 X15.954 Y92.588 E21.40361
G1 X15.813 Y91.661 E21.4348
G1 X15.753 Y90.772 E21.46443
G1 X15.74 Y90.142 E21.48539
G1 X15.74 Y71.901 E22.09209
G1 X15.703 Y69.293 E22.17884
G1 X15.596 Y66.771 E22.2628
G1 X15.419 Y64.276 E22.34599
G1 X15.171 Y61.777 E22.42951
G1 X14.853 Y59.288 E22.51297
G1 X14.459 Y56.779 E22.59744
G1 X14 Y54.313 E22.68087
G1 X13.466 Y51.831 E22.76531
G1 X12.873 Y49.414 E22.84809
G1 X12.613 Y48.43 E22.88194
G1 X12.524 Y48.061 E22.89456
G1 X12.442 Y47.696 E22.90701
G1 X12.247 Y46.747 E22.93923
G1 X12.131 Y46.078 E22.96181
G1 X11.962 Y44.887 E23.00182
G1 X11.881 Y44.126 E23.02728
G1 X11.794 Y42.908 E23.06789
G1 X11.766 Y42.194 E23.09166
G1 X11.759 Y41.097 E23.12814
G1 X11.78 Y40.345 E23.15316
G1 X11.858 Y39.089 E23.19502
G1 X11.931 Y38.338 E23.22012
G1 X12.077 Y37.227 E23.25739
G1 X12.194 Y36.515 E23.28138
G1 X12.43 Y35.328 E23.32164
G1 X12.604 Y34.587 E23.34695
G1 X12.912 Y33.454 E23.386
G1 X13.13 Y32.747 E23.41061
G1 X13.516 Y31.63 E23.44992
G1 X13.778 Y30.948 E23.47422
G1 X14.228 Y29.881 E23.51273
G1 X14.541 Y29.204 E23.53754
G1 X15.093 Y28.109 E23.57833
G1 X15.46 Y27.439 E23.60374
G1 X16.054 Y26.44 E23.64239
G1 X16.447 Y25.827 E23.66661
G1 X17.111 Y24.862 E23.70557
G1 X17.554 Y24.262 E23.73038
G1 X18.286 Y23.339 E23.76956
G1 X18.747 Y22.795 E23.79328
G1 X19.533 Y21.926 E23.83225
G1 X20.07 Y21.373 E23.85789
G1 X20.937 Y20.54 E23.89787
G1 X21.487 Y20.046 E23.92246
G1 X22.37 Y19.305 E23.9608
G1 X22.948 Y18.852 E23.98523
G1 X23.938 Y18.128 E24.02602
G1 X24.58 Y17.692 E24.05183
G1 X25.583 Y17.062 E24.09123
G1 X26.185 Y16.71 E24.11442
G1 X27.139 Y16.192 E24.15053
G1 X27.8 Y15.861 E24.17511
G1 X28.944 Y15.336 E24.21698
G1 X29.666 Y15.036 E24.24298
G1 X30.758 Y14.626 E24.28178
G1 X31.434 Y14.397 E24.30552
G1 X32.543 Y14.061 E24.34406
G1 X33.264 Y13.869 E24.36888
G1 X34.432 Y13.6 E24.40874
G1 X35.168 Y13.456 E24.43368
G1 X36.315 Y13.273 E24.47232
G1 X37.042 Y13.182 E24.49669
G1 X38.229 Y13.073 E24.53633
G1 X38.977 Y13.03 E24.56125
G1 X40.172 Y13.002 E24.60101
G1 X40.891 Y13.009 E24.62492
G1 X42.012 Y13.056 E24.66224
G1 F1500 E18.16224
;MESH:FS90R-mount v9.stl
G0 F6000 X42.012 Y30.849
G0 X42.012 Y29.394
G0 X46.668 Y29.756
G0 X46.678 Y34.595
G0 X47.733 Y35.742
G0 X48.237 Y36.468
G0 X48.67 Y37.236
G0 X49.029 Y38.04
G0 X49.313 Y38.877
G0 X49.517 Y39.735
G0 X49.639 Y40.609
G0 X49.679 Y41.488
G0 X49.637 Y42.369
G0 X49.514 Y43.241
G0 X49.309 Y44.099
G0 X49.025 Y44.934
G0 X48.665 Y45.739
G0 X48.232 Y46.507
G0 X47.728 Y47.232
G0 X46.877 Y48.157
