;FLAVOR:Marlin
;TIME:6292
;Filament used: 4.21957m
;Layer height: 0.2
;MINX:10.751
;MINY:12.956
;MINZ:0.2
;MAXX:67.726
;MAXY:101.442
;MAXZ:43
;Generated with Cura_SteamEngine 4.6.1
M140 S65
M105
M190 S65
M104 S210
M105
M109 S210
M82 ;absolute extrusion mode
; Ender 3 Custom Start G-code
G92 E0 ; Reset Extruder
G28 ; Home all axes
G1 Z2.0 F3000 ; Move Z Axis up little to prevent scratching of Heat Bed
G1 X0.1 Y20 Z0.3 F5000.0 ; Move to start position
G1 X0.1 Y200.0 Z0.3 F1500.0 E15 ; Draw the first line
G1 X0.4 Y200.0 Z0.3 F5000.0 ; Move to side a little
G1 X0.4 Y20 Z0.3 F1500.0 E30 ; Draw the second line
G92 E0 ; Reset Extruder
G1 Z2.0 F3000 ; Move Z Axis up little to prevent scratching of Heat Bed
G1 X5 Y20 Z0.3 F5000.0 ; Move over to prevent blob squish
G92 E0
G92 E0
G1 F1500 E-6.5
;LAYER_COUNT:215
;LAYER:0
M107
G0 F6000 X40.577 Y13.786 Z0.2
;TYPE:SKIRT
G1 F1500 E0
G1 F1200 X40.938 Y13.806 E0.01203
G1 X41.26 Y13.829 E0.02276
G1 X42.04 Y13.897 E0.0488
G1 X42.378 Y13.932 E0.06011
G1 X42.983 Y14.009 E0.08039
G1 X43.643 Y14.107 E0.10258
G1 X43.97 Y14.161 E0.11361
G1 X44.639 Y14.286 E0.13624
G1 X45.248 Y14.414 E0.15694
G1 X45.559 Y14.485 E0.16755
G1 X46.279 Y14.664 E0.19223
G1 X47.131 Y14.902 E0.22165
G1 X47.813 Y15.115 E0.24541
G1 X48.741 Y15.435 E0.27806
G1 X49.409 Y15.688 E0.30182
G1 X49.997 Y15.928 E0.32294
G1 X50.305 Y16.06 E0.33409
G1 X50.926 Y16.342 E0.35677
G1 X51.77 Y16.751 E0.38797
G1 X52.375 Y17.069 E0.4107
G1 X53.231 Y17.549 E0.44334
G1 X53.816 Y17.903 E0.46608
G1 X54.651 Y18.44 E0.4991
G1 X55.229 Y18.838 E0.52244
G1 X55.977 Y19.384 E0.55325
G1 X56.511 Y19.802 E0.5758
G1 X57.052 Y20.246 E0.59908
G1 X57.301 Y20.458 E0.60996
G1 X57.806 Y20.904 E0.63236
G1 X58.237 Y21.301 E0.65185
G1 X58.473 Y21.526 E0.6627
G1 X58.959 Y22.009 E0.68549
G1 X59.673 Y22.759 E0.71993
G1 X60.129 Y23.271 E0.74273
G1 X60.73 Y23.985 E0.77377
G1 X61.171 Y24.544 E0.79746
G1 X61.743 Y25.313 E0.82933
G1 X62.153 Y25.902 E0.8532
G1 X62.663 Y26.679 E0.88412
G1 X62.855 Y26.989 E0.89624
G1 X63.006 Y27.243 E0.90607
G1 X63.502 Y28.105 E0.93915
G1 X63.663 Y28.401 E0.95036
G1 X63.817 Y28.696 E0.96142
G1 X64.133 Y29.325 E0.98484
G1 X64.281 Y29.631 E0.99614
G1 X64.539 Y30.198 E1.01686
G1 X64.911 Y31.074 E1.04852
G1 X65.068 Y31.469 E1.06265
G1 X65.19 Y31.791 E1.07411
G1 X65.483 Y32.621 E1.10338
G1 X65.604 Y32.99 E1.1163
G1 X65.7 Y33.299 E1.12706
G1 X65.981 Y34.27 E1.16068
G1 X66.131 Y34.859 E1.1809
G1 X66.358 Y35.864 E1.21516
G1 X66.44 Y36.276 E1.22914
G1 X66.498 Y36.596 E1.23995
G1 X66.637 Y37.454 E1.26886
G1 X66.734 Y38.193 E1.29365
G1 X66.799 Y38.799 E1.31392
G1 X66.827 Y39.109 E1.32428
G1 X66.874 Y39.773 E1.34642
G1 X66.909 Y40.516 E1.37116
G1 X66.925 Y41.21 E1.39424
G1 X66.926 Y41.53 E1.40489
G1 X66.911 Y42.39 E1.4335
G1 X66.896 Y42.762 E1.44588
G1 X66.877 Y43.095 E1.45697
G1 X66.8 Y44.088 E1.4901
G1 X66.759 Y44.488 E1.50347
G1 X66.721 Y44.806 E1.51412
G1 X66.592 Y45.733 E1.54525
G1 X66.48 Y46.395 E1.56758
G1 X66.35 Y47.064 E1.59025
G1 X66.281 Y47.389 E1.6013
G1 X66.131 Y48.026 E1.62307
G1 X65.829 Y49.196 E1.66326
G1 X65.187 Y51.832 E1.75349
G1 X64.663 Y54.283 E1.83686
G1 X64.202 Y56.793 E1.92174
G1 X63.812 Y59.31 E2.00645
G1 X63.499 Y61.786 E2.08946
G1 X63.251 Y64.329 E2.17444
G1 X63.073 Y66.904 E2.26029
G1 X62.971 Y69.387 E2.34294
G1 X62.938 Y71.86 E2.4252
G1 X62.937 Y89.846 E3.02342
G1 X62.927 Y90.573 E3.0476
G1 X62.875 Y91.475 E3.07765
G1 X62.743 Y92.368 E3.10768
G1 X62.532 Y93.247 E3.13774
G1 X62.245 Y94.103 E3.16777
G1 X61.883 Y94.93 E3.1978
G1 X61.449 Y95.722 E3.22784
G1 X60.947 Y96.473 E3.25788
G1 X60.381 Y97.176 E3.2879
G1 X59.754 Y97.827 E3.31796
G1 X59.073 Y98.419 E3.34797
G1 X58.342 Y98.949 E3.378
G1 X57.566 Y99.412 E3.40806
G1 X56.753 Y99.805 E3.43809
G1 X55.908 Y100.125 E3.46815
G1 X55.039 Y100.368 E3.49816
G1 X54.151 Y100.533 E3.5282
G1 X53.015 Y100.629 E3.56612
G1 X52.408 Y100.642 E3.58631
G1 X26.313 Y100.641 E4.45423
G1 X25.615 Y100.632 E4.47745
G1 X24.714 Y100.581 E4.50747
G1 X23.82 Y100.449 E4.53752
G1 X22.942 Y100.24 E4.56754
G1 X22.085 Y99.953 E4.5976
G1 X21.258 Y99.592 E4.62761
G1 X20.465 Y99.159 E4.65766
G1 X19.714 Y98.658 E4.68769
G1 X19.01 Y98.092 E4.71774
G1 X18.359 Y97.466 E4.74777
G1 X17.766 Y96.785 E4.77781
G1 X17.236 Y96.054 E4.80784
G1 X16.772 Y95.279 E4.83788
G1 X16.378 Y94.466 E4.86793
G1 X16.058 Y93.622 E4.89795
G1 X15.814 Y92.752 E4.92801
G1 X15.648 Y91.864 E4.95805
G1 X15.551 Y90.709 E4.9966
G1 X15.538 Y90.1 E5.01686
G1 X15.538 Y71.855 E5.62369
G1 X15.501 Y69.249 E5.71038
G1 X15.392 Y66.681 E5.79587
G1 X15.215 Y64.179 E5.87929
G1 X14.966 Y61.666 E5.96328
G1 X14.638 Y59.103 E6.04923
G1 X14.247 Y56.618 E6.13289
G1 X13.787 Y54.142 E6.21665
G1 X13.242 Y51.611 E6.30277
G1 X12.596 Y48.984 E6.39274
G1 X12.376 Y48.147 E6.42153
G1 X12.298 Y47.828 E6.43245
G1 X12.142 Y47.127 E6.45634
G1 X11.968 Y46.231 E6.48669
G1 X11.858 Y45.548 E6.5097
G1 X11.727 Y44.551 E6.54315
G1 X11.656 Y43.842 E6.56685
G1 X11.592 Y42.949 E6.59663
G1 X11.573 Y42.56 E6.60958
G1 X11.562 Y42.231 E6.62053
G1 X11.551 Y41.279 E6.65219
G1 X11.563 Y40.628 E6.67385
G1 X11.593 Y39.912 E6.69768
G1 X11.612 Y39.586 E6.70855
G1 X11.663 Y38.947 E6.72987
G1 X11.769 Y37.962 E6.76282
G1 X11.868 Y37.262 E6.78633
G1 X12.03 Y36.303 E6.81868
G1 X12.098 Y35.954 E6.8305
G1 X12.165 Y35.64 E6.84118
G1 X12.38 Y34.714 E6.8728
G1 X12.553 Y34.061 E6.89527
G1 X12.744 Y33.401 E6.91812
G1 X12.843 Y33.077 E6.92939
G1 X13.058 Y32.429 E6.9521
G1 X13.365 Y31.579 E6.98216
G1 X13.607 Y30.971 E7.00392
G1 X13.912 Y30.253 E7.02987
G1 X14.051 Y29.939 E7.04129
G1 X14.307 Y29.398 E7.0612
G1 X14.589 Y28.831 E7.08226
G1 X14.736 Y28.547 E7.09289
G1 X15.085 Y27.906 E7.11717
G1 X15.412 Y27.338 E7.13897
G1 X15.571 Y27.072 E7.14928
G1 X15.916 Y26.521 E7.1709
G1 X16.285 Y25.959 E7.19326
G1 X16.473 Y25.682 E7.20439
G1 X16.85 Y25.153 E7.226
G1 X17.433 Y24.378 E7.25825
G1 X17.654 Y24.099 E7.27009
G1 X17.865 Y23.842 E7.28115
G1 X18.515 Y23.08 E7.31446
G1 X18.973 Y22.576 E7.33712
G1 X19.636 Y21.887 E7.36892
G1 X19.928 Y21.598 E7.38258
G1 X20.162 Y21.374 E7.39336
G1 X20.839 Y20.752 E7.42393
G1 X21.361 Y20.3 E7.4469
G1 X21.864 Y19.884 E7.46861
G1 X22.386 Y19.474 E7.49069
G1 X22.628 Y19.291 E7.50078
G1 X23.475 Y18.68 E7.53552
G1 X24.085 Y18.269 E7.55998
G1 X24.774 Y17.833 E7.5871
G1 X25.419 Y17.451 E7.61203
G1 X26.274 Y16.976 E7.64456
G1 X26.605 Y16.803 E7.65698
G1 X26.89 Y16.66 E7.66759
G1 X27.769 Y16.24 E7.69999
G1 X28.334 Y15.992 E7.72051
G1 X29.344 Y15.581 E7.75678
G1 X29.707 Y15.445 E7.76967
G1 X29.986 Y15.346 E7.77952
G1 X30.817 Y15.066 E7.80869
G1 X31.49 Y14.862 E7.83208
G1 X32.153 Y14.677 E7.85497
G1 X32.462 Y14.596 E7.8656
G1 X33.086 Y14.447 E7.88693
G1 X34.087 Y14.237 E7.92095
G1 X34.427 Y14.175 E7.93245
G1 X34.731 Y14.125 E7.94269
G1 X35.686 Y13.984 E7.9748
G1 X36.109 Y13.932 E7.98898
G1 X36.434 Y13.898 E7.99984
G1 X37.328 Y13.821 E8.02969
G1 X37.99 Y13.784 E8.05174
G1 X39.014 Y13.756 E8.08581
G1 X39.772 Y13.759 E8.11102
G1 X40.577 Y13.786 E8.13781
G0 F6000 X40.599 Y13.386
G1 F1200 X40.96 Y13.406 E8.14984
G1 X41.295 Y13.43 E8.16101
G1 X42.075 Y13.498 E8.18705
G1 X42.426 Y13.535 E8.19879
G1 X43.042 Y13.613 E8.21944
G1 X43.702 Y13.711 E8.24163
G1 X44.041 Y13.767 E8.25306
G1 X44.721 Y13.895 E8.27608
G1 X45.654 Y14.096 E8.30782
G1 X46.385 Y14.278 E8.33288
G1 X47.248 Y14.519 E8.36268
G1 X47.631 Y14.636 E8.376
G1 X47.941 Y14.737 E8.38684
G1 X48.88 Y15.06 E8.41987
G1 X49.56 Y15.318 E8.44406
G1 X50.148 Y15.558 E8.46518
G1 X50.468 Y15.695 E8.47676
G1 X51.099 Y15.981 E8.4998
G1 X51.953 Y16.395 E8.53137
G1 X52.29 Y16.569 E8.54398
G1 X52.569 Y16.719 E8.55452
G1 X53.436 Y17.205 E8.58758
G1 X54.031 Y17.565 E8.61071
G1 X54.618 Y17.939 E8.63386
G1 X55.205 Y18.333 E8.65737
G1 X55.464 Y18.514 E8.66788
G1 X55.959 Y18.872 E8.6882
G1 X56.221 Y19.068 E8.69908
G1 X56.765 Y19.493 E8.72204
G1 X57.306 Y19.937 E8.74532
G1 X57.565 Y20.157 E8.75662
G1 X58.077 Y20.609 E8.77934
G1 X58.508 Y21.006 E8.79883
G1 X58.753 Y21.24 E8.81009
G1 X59.248 Y21.732 E8.83331
G1 X59.742 Y22.246 E8.85702
G1 X59.97 Y22.491 E8.86815
G1 X60.434 Y23.012 E8.89135
G1 X61.042 Y23.735 E8.92277
G1 X61.491 Y24.304 E8.94688
G1 X62.07 Y25.082 E8.97914
G1 X62.487 Y25.681 E9.00341
G1 X62.827 Y26.194 E9.02388
G1 X63.003 Y26.469 E9.03474
G1 X63.195 Y26.779 E9.04687
G1 X63.352 Y27.042 E9.05706
G1 X63.854 Y27.914 E9.09052
G1 X64.015 Y28.21 E9.10173
G1 X64.175 Y28.516 E9.11322
G1 X64.491 Y29.145 E9.13663
G1 X64.644 Y29.464 E9.14839
G1 X64.906 Y30.04 E9.16944
G1 X65.282 Y30.926 E9.20145
G1 X65.439 Y31.321 E9.21559
G1 X65.566 Y31.656 E9.22751
G1 X65.863 Y32.496 E9.25714
G1 X65.984 Y32.865 E9.27006
G1 X66.084 Y33.187 E9.28127
G1 X66.367 Y34.168 E9.31523
G1 X66.521 Y34.769 E9.33586
G1 X66.683 Y35.471 E9.35983
G1 X66.75 Y35.786 E9.37054
G1 X66.893 Y36.53 E9.39574
G1 X67.033 Y37.4 E9.42505
G1 X67.132 Y38.151 E9.45024
G1 X67.197 Y38.757 E9.47051
G1 X67.226 Y39.078 E9.48123
G1 X67.273 Y39.754 E9.50377
G1 X67.318 Y40.808 E9.53886
G1 X67.326 Y41.535 E9.56304
G1 X67.31 Y42.406 E9.59201
G1 X67.295 Y42.778 E9.6044
G1 X67.276 Y43.125 E9.61595
G1 X67.198 Y44.129 E9.64945
G1 X67.157 Y44.529 E9.66282
G1 X67.118 Y44.86 E9.67391
G1 X66.987 Y45.798 E9.70541
G1 X66.872 Y46.471 E9.72812
G1 X66.742 Y47.14 E9.75078
G1 X66.671 Y47.478 E9.76227
G1 X66.519 Y48.125 E9.78438
G1 X66.194 Y49.385 E9.82766
G1 X65.586 Y51.88 E9.91307
G1 X65.052 Y54.374 E9.9979
G1 X64.597 Y56.854 E10.08176
G1 X64.211 Y59.35 E10.16577
G1 X63.893 Y61.86 E10.24992
G1 X63.65 Y64.362 E10.33352
G1 X63.473 Y66.91 E10.41848
G1 X63.37 Y69.43 E10.50236
G1 X63.338 Y71.865 E10.58336
G1 X63.337 Y89.852 E11.18161
G1 X63.327 Y90.579 E11.20579
G1 X63.274 Y91.498 E11.23641
G1 X63.142 Y92.409 E11.26702
G1 X62.931 Y93.305 E11.29764
G1 X62.644 Y94.18 E11.32827
G1 X62.281 Y95.026 E11.35888
G1 X61.847 Y95.838 E11.38951
G1 X61.343 Y96.609 E11.42014
G1 X60.775 Y97.333 E11.45075
G1 X60.146 Y98.005 E11.48137
G1 X59.461 Y98.62 E11.51198
G1 X58.725 Y99.173 E11.5426
G1 X57.944 Y99.661 E11.57323
G1 X57.124 Y100.079 E11.60385
G1 X56.27 Y100.424 E11.63448
G1 X55.39 Y100.693 E11.66509
G1 X54.489 Y100.886 E11.69573
G1 X53.576 Y100.999 E11.72633
G1 X53.026 Y101.029 E11.74465
G1 X52.408 Y101.042 E11.76521
G1 X26.308 Y101.041 E12.6333
G1 X25.61 Y101.032 E12.65652
G1 X24.691 Y100.98 E12.68713
G1 X23.78 Y100.849 E12.71774
G1 X22.884 Y100.639 E12.74835
G1 X22.009 Y100.352 E12.77898
G1 X21.162 Y99.99 E12.80962
G1 X20.35 Y99.556 E12.84024
G1 X19.579 Y99.054 E12.87084
G1 X18.854 Y98.486 E12.90147
G1 X18.181 Y97.857 E12.93211
G1 X17.566 Y97.173 E12.9627
G1 X17.012 Y96.438 E12.99332
G1 X16.524 Y95.657 E13.02395
G1 X16.105 Y94.837 E13.05458
G1 X15.759 Y93.984 E13.08519
G1 X15.489 Y93.104 E13.11581
G1 X15.296 Y92.203 E13.14645
G1 X15.182 Y91.29 E13.17706
G1 X15.151 Y90.719 E13.19608
G1 X15.138 Y90.1 E13.21667
G1 X15.138 Y71.861 E13.8233
G1 X15.101 Y69.236 E13.91062
G1 X14.994 Y66.728 E13.99411
G1 X14.816 Y64.207 E14.07817
G1 X14.566 Y61.689 E14.16233
G1 X14.245 Y59.178 E14.24652
G1 X13.855 Y56.701 E14.32992
G1 X13.389 Y54.194 E14.41473
G1 X12.856 Y51.718 E14.49897
G1 X12.2 Y49.052 E14.59029
G1 X11.989 Y48.248 E14.61794
G1 X11.908 Y47.917 E14.62927
G1 X11.749 Y47.205 E14.65354
G1 X11.631 Y46.613 E14.67361
G1 X11.512 Y45.928 E14.69674
G1 X11.462 Y45.602 E14.70771
G1 X11.329 Y44.593 E14.74156
G1 X11.286 Y44.188 E14.7551
G1 X11.258 Y43.873 E14.76562
G1 X11.193 Y42.968 E14.7958
G1 X11.162 Y42.238 E14.8201
G1 X11.151 Y41.274 E14.85217
G1 X11.163 Y40.611 E14.87422
G1 X11.193 Y39.895 E14.89806
G1 X11.213 Y39.556 E14.90935
G1 X11.265 Y38.906 E14.93104
G1 X11.333 Y38.243 E14.95321
G1 X11.373 Y37.909 E14.96439
G1 X11.473 Y37.197 E14.98831
G1 X11.582 Y36.534 E15.01065
G1 X11.706 Y35.878 E15.03286
G1 X11.775 Y35.551 E15.04398
G1 X11.992 Y34.614 E15.07596
G1 X12.087 Y34.246 E15.08861
G1 X12.169 Y33.949 E15.09885
G1 X12.36 Y33.289 E15.12171
G1 X12.463 Y32.953 E15.13339
G1 X12.682 Y32.295 E15.15646
G1 X12.992 Y31.434 E15.1869
G1 X13.117 Y31.113 E15.19835
G1 X13.239 Y30.815 E15.20906
G1 X13.544 Y30.097 E15.23501
G1 X13.689 Y29.771 E15.24688
G1 X13.949 Y29.22 E15.26714
G1 X14.383 Y28.358 E15.29924
G1 X14.586 Y27.98 E15.31351
G1 X14.739 Y27.706 E15.32395
G1 X15.23 Y26.862 E15.35643
G1 X15.581 Y26.301 E15.37844
G1 X15.95 Y25.739 E15.4008
G1 X16.146 Y25.452 E15.41236
G1 X16.529 Y24.914 E15.43432
G1 X17.12 Y24.129 E15.467
G1 X17.341 Y23.85 E15.47884
G1 X17.559 Y23.584 E15.49028
G1 X18.217 Y22.814 E15.52397
G1 X18.684 Y22.299 E15.54709
G1 X19.354 Y21.603 E15.57922
G1 X19.646 Y21.314 E15.59289
G1 X19.89 Y21.081 E15.60411
G1 X20.575 Y20.45 E15.63508
G1 X21.106 Y19.992 E15.65841
G1 X21.609 Y19.576 E15.68012
G1 X21.875 Y19.363 E15.69145
G1 X22.393 Y18.968 E15.71312
G1 X23.25 Y18.35 E15.74826
G1 X23.87 Y17.932 E15.77313
G1 X24.299 Y17.657 E15.79008
G1 X24.569 Y17.49 E15.80064
G1 X25.223 Y17.102 E15.82593
G1 X25.811 Y16.772 E15.84836
G1 X26.42 Y16.449 E15.87128
G1 X26.716 Y16.3 E15.88231
G1 X27.606 Y15.875 E15.91511
G1 X28.182 Y15.622 E15.93603
G1 X28.883 Y15.333 E15.96125
G1 X29.204 Y15.207 E15.97272
G1 X29.857 Y14.967 E15.99586
G1 X30.698 Y14.684 E16.02537
G1 X31.382 Y14.477 E16.04914
G1 X32.045 Y14.292 E16.07204
G1 X32.701 Y14.126 E16.09454
G1 X33.002 Y14.056 E16.10482
G1 X33.691 Y13.908 E16.12826
G1 X34.015 Y13.844 E16.13925
G1 X34.671 Y13.729 E16.1614
G1 X35.638 Y13.587 E16.1939
G1 X36.061 Y13.535 E16.20808
G1 X36.397 Y13.499 E16.21932
G1 X37.304 Y13.421 E16.2496
G1 X37.977 Y13.384 E16.27201
G1 X38.699 Y13.361 E16.29604
G1 X39.013 Y13.356 E16.30649
G1 X39.783 Y13.359 E16.3321
G1 X40.599 Y13.386 E16.35925
G0 F6000 X40.621 Y12.987
G1 F1200 X40.982 Y13.007 E16.37128
G1 X41.329 Y13.032 E16.38285
G1 X42.109 Y13.1 E16.40889
G1 X42.474 Y13.137 E16.42109
G1 X43.101 Y13.217 E16.44211
G1 X43.761 Y13.315 E16.46431
G1 X44.113 Y13.373 E16.47617
G1 X44.804 Y13.503 E16.49956
G1 X45.413 Y13.631 E16.52026
G1 X45.748 Y13.707 E16.53168
G1 X46.49 Y13.892 E16.55712
G1 X47.365 Y14.137 E16.58734
G1 X47.748 Y14.254 E16.60066
G1 X48.07 Y14.358 E16.61191
G1 X49.019 Y14.685 E16.6453
G1 X49.385 Y14.821 E16.65828
G1 X49.711 Y14.948 E16.66992
G1 X50.299 Y15.188 E16.69104
G1 X50.632 Y15.33 E16.70308
G1 X51.272 Y15.62 E16.72645
G1 X51.842 Y15.893 E16.74747
G1 X52.137 Y16.04 E16.75844
G1 X52.474 Y16.214 E16.77105
G1 X52.763 Y16.369 E16.78196
G1 X53.347 Y16.693 E16.80417
G1 X53.64 Y16.862 E16.81542
G1 X54.246 Y17.228 E16.83897
G1 X55.1 Y17.778 E16.87275
G1 X55.43 Y18.002 E16.88602
G1 X55.698 Y18.19 E16.89691
G1 X56.193 Y18.548 E16.91723
G1 X56.465 Y18.751 E16.92851
G1 X56.758 Y18.977 E16.94082
G1 X57.018 Y19.184 E16.95188
G1 X57.559 Y19.628 E16.97515
G1 X57.828 Y19.856 E16.98688
G1 X58.348 Y20.315 E17.00995
G1 X58.779 Y20.712 E17.02944
G1 X59.034 Y20.955 E17.04116
G1 X59.536 Y21.455 E17.06472
G1 X60.03 Y21.969 E17.08843
G1 X60.267 Y22.223 E17.09999
G1 X60.525 Y22.509 E17.1128
G1 X60.738 Y22.753 E17.12357
G1 X61.355 Y23.485 E17.15541
G1 X61.607 Y23.8 E17.16883
G1 X61.811 Y24.064 E17.17993
G1 X62.397 Y24.852 E17.21259
G1 X62.82 Y25.46 E17.23722
G1 X63.343 Y26.258 E17.26896
G1 X63.535 Y26.568 E17.28108
G1 X63.698 Y26.841 E17.29166
G1 X64.205 Y27.723 E17.3255
G1 X64.366 Y28.019 E17.3367
G1 X64.532 Y28.337 E17.34864
G1 X64.848 Y28.966 E17.37205
G1 X65.007 Y29.296 E17.38423
G1 X65.273 Y29.882 E17.40564
G1 X65.654 Y30.778 E17.43802
G1 X65.811 Y31.173 E17.45216
G1 X65.943 Y31.521 E17.46454
G1 X66.145 Y32.084 E17.48443
G1 X66.364 Y32.741 E17.50746
G1 X66.468 Y33.074 E17.51907
G1 X66.754 Y34.066 E17.5534
G1 X66.83 Y34.355 E17.56334
G1 X66.91 Y34.68 E17.57448
G1 X67.072 Y35.382 E17.59844
G1 X67.142 Y35.708 E17.60953
G1 X67.224 Y36.12 E17.6235
G1 X67.287 Y36.465 E17.63516
G1 X67.429 Y37.345 E17.66481
G1 X67.529 Y38.108 E17.69041
G1 X67.625 Y39.048 E17.72183
G1 X67.673 Y39.735 E17.74474
G1 X67.708 Y40.478 E17.76948
G1 X67.718 Y40.801 E17.78023
G1 X67.725 Y41.196 E17.79337
G1 X67.726 Y41.541 E17.80484
G1 X67.71 Y42.422 E17.83415
G1 X67.695 Y42.794 E17.84653
G1 X67.675 Y43.154 E17.85852
G1 X67.596 Y44.17 E17.89242
G1 X67.555 Y44.57 E17.90579
G1 X67.514 Y44.913 E17.91728
G1 X67.382 Y45.862 E17.94915
G1 X67.265 Y46.547 E17.97226
G1 X67.135 Y47.216 E17.99493
G1 X67.061 Y47.567 E18.00686
