;FLAVOR:Marlin
;TIME:6400
;Filament used: 4.32565m
;Layer height: 0.2
;MINX:15.692
;MINY:20.148
;MINZ:0.2
;MAXX:72.653
;MAXY:108.628
;MAXZ:43
;Generated with Cura_SteamEngine 4.6.1
M140 S65
M105
M190 S65
M104 S210
M105
M109 S210
M82 ;absolute extrusion mode
; Ender 3 Custom Start G-code
G92 E0 ; Reset Extruder
G28 ; Home all axes
G1 Z2.0 F3000 ; Move Z Axis up little to prevent scratching of Heat Bed
G1 X0.1 Y20 Z0.3 F5000.0 ; Move to start position
G1 X0.1 Y200.0 Z0.3 F1500.0 E15 ; Draw the first line
G1 X0.4 Y200.0 Z0.3 F5000.0 ; Move to side a little
G1 X0.4 Y20 Z0.3 F1500.0 E30 ; Draw the second line
G92 E0 ; Reset Extruder
G1 Z2.0 F3000 ; Move Z Axis up little to prevent scratching of Heat Bed
G1 X5 Y20 Z0.3 F5000.0 ; Move over to prevent blob squish
G92 E0
G92 E0
G1 F1500 E-6.5
;LAYER_COUNT:215
;LAYER:0
M107
G0 F6000 X45.765 Y20.991 Z0.2
;TYPE:SKIRT
G1 F1500 E0
G1 F1200 X46.993 Y21.089 E0.04097
G1 X47.691 Y21.169 E0.06434
G1 X48.861 Y21.344 E0.10369
G1 X49.552 Y21.472 E0.12706
G1 X50.702 Y21.726 E0.16623
G1 X51.372 Y21.898 E0.18924
G1 X52.552 Y22.244 E0.23014
G1 X53.216 Y22.464 E0.2534
G1 X54.291 Y22.861 E0.29152
G1 X54.941 Y23.127 E0.31488
G1 X56.106 Y23.651 E0.35737
G1 X56.73 Y23.957 E0.38048
G1 X57.701 Y24.476 E0.4171
G1 X58.285 Y24.814 E0.43954
G1 X59.332 Y25.466 E0.48057
G1 X59.931 Y25.869 E0.50458
G1 X60.908 Y26.578 E0.54473
G1 X61.454 Y27.003 E0.56774
G1 X62.375 Y27.772 E0.60765
G1 X62.899 Y28.241 E0.63104
G1 X63.76 Y29.067 E0.67072
G1 X64.244 Y29.565 E0.69382
G1 X65.029 Y30.428 E0.73262
G1 X65.476 Y30.953 E0.75556
G1 X66.239 Y31.915 E0.79639
G1 X66.656 Y32.48 E0.81975
G1 X67.337 Y33.472 E0.85977
G1 X67.72 Y34.073 E0.88347
G1 X68.333 Y35.115 E0.92368
G1 X68.666 Y35.729 E0.94691
G1 X69.183 Y36.764 E0.98539
G1 X69.465 Y37.38 E1.00793
G1 X69.931 Y38.492 E1.04803
G1 X70.179 Y39.145 E1.07126
G1 X70.567 Y40.284 E1.11128
G1 X70.776 Y40.977 E1.13536
G1 X71.09 Y42.17 E1.17639
G1 X71.242 Y42.837 E1.19914
G1 X71.454 Y43.938 E1.23643
G1 X71.561 Y44.619 E1.25936
G1 X71.716 Y45.876 E1.30149
G1 X71.779 Y46.587 E1.32523
G1 X71.84 Y47.744 E1.36376
G1 X71.853 Y48.42 E1.38625
G1 X71.837 Y49.594 E1.4253
G1 X71.803 Y50.301 E1.44884
G1 X71.699 Y51.55 E1.49053
G1 X71.616 Y52.249 E1.51394
G1 X71.435 Y53.43 E1.55368
G1 X71.303 Y54.128 E1.57731
G1 X71.042 Y55.286 E1.61679
G1 X70.951 Y55.658 E1.62953
G1 X70.869 Y55.966 E1.64013
G1 X70.244 Y58.476 E1.72616
G1 X69.703 Y60.938 E1.81
G1 X69.226 Y63.447 E1.89494
G1 X68.82 Y65.974 E1.98007
G1 X68.487 Y68.491 E2.06452
G1 X68.227 Y71.011 E2.14878
G1 X68.038 Y73.53 E2.23279
G1 X67.921 Y76.053 E2.3168
G1 X67.872 Y79.077 E2.41739
G1 X67.871 Y97.046 E3.01504
G1 X67.86 Y97.773 E3.03923
G1 X67.806 Y98.675 E3.06928
G1 X67.673 Y99.568 E3.09931
G1 X67.461 Y100.446 E3.12935
G1 X67.173 Y101.302 E3.15939
G1 X66.81 Y102.129 E3.18943
G1 X66.375 Y102.92 E3.21945
G1 X65.872 Y103.67 E3.24949
G1 X65.305 Y104.373 E3.27953
G1 X64.677 Y105.023 E3.30959
G1 X63.995 Y105.614 E3.3396
G1 X63.263 Y106.143 E3.36964
G1 X62.487 Y106.605 E3.39968
G1 X61.673 Y106.997 E3.42973
G1 X60.828 Y107.315 E3.45976
G1 X59.958 Y107.557 E3.48979
G1 X59.07 Y107.721 E3.51983
G1 X57.949 Y107.815 E3.55724
G1 X57.342 Y107.828 E3.57744
G1 X31.247 Y107.827 E4.44536
G1 X30.549 Y107.818 E4.46858
G1 X29.648 Y107.767 E4.49859
G1 X28.754 Y107.635 E4.52865
G1 X27.876 Y107.426 E4.55867
G1 X27.019 Y107.139 E4.58873
G1 X26.192 Y106.778 E4.61874
G1 X25.399 Y106.345 E4.64879
G1 X24.648 Y105.844 E4.67882
G1 X23.944 Y105.278 E4.70886
G1 X23.293 Y104.652 E4.7389
G1 X22.7 Y103.971 E4.76894
G1 X22.17 Y103.24 E4.79897
G1 X21.706 Y102.465 E4.82901
G1 X21.312 Y101.652 E4.85906
G1 X20.992 Y100.808 E4.88908
G1 X20.748 Y99.938 E4.91913
G1 X20.582 Y99.05 E4.94918
G1 X20.485 Y97.895 E4.98773
G1 X20.472 Y97.286 E5.00799
G1 X20.472 Y79.016 E5.61565
G1 X20.435 Y76.41 E5.70234
G1 X20.326 Y73.842 E5.78783
G1 X20.149 Y71.34 E5.87125
G1 X19.9 Y68.827 E5.95524
G1 X19.572 Y66.264 E6.04118
G1 X19.181 Y63.779 E6.12485
G1 X18.721 Y61.303 E6.20861
G1 X18.183 Y58.802 E6.2937
G1 X17.245 Y55.06 E6.42201
G1 X17.135 Y54.573 E6.43862
G1 X16.916 Y53.473 E6.47592
G1 X16.806 Y52.803 E6.4985
G1 X16.655 Y51.648 E6.53725
G1 X16.589 Y50.965 E6.56007
G1 X16.512 Y49.738 E6.60096
G1 X16.492 Y49.046 E6.62398
G1 X16.498 Y47.894 E6.6623
G1 X16.527 Y47.183 E6.68597
G1 X16.622 Y45.918 E6.72816
G1 X16.698 Y45.22 E6.75151
G1 X16.858 Y44.115 E6.78865
G1 X16.979 Y43.443 E6.81136
G1 X17.24 Y42.223 E6.85285
G1 X17.416 Y41.523 E6.87686
G1 X17.748 Y40.375 E6.91661
G1 X17.956 Y39.734 E6.93902
G1 X18.352 Y38.641 E6.97769
G1 X18.618 Y37.98 E7.00139
G1 X19.129 Y36.828 E7.0433
G1 X19.439 Y36.189 E7.06693
G1 X19.974 Y35.179 E7.10494
G1 X20.314 Y34.587 E7.12765
G1 X20.96 Y33.543 E7.16848
G1 X21.345 Y32.966 E7.19155
G1 X22.024 Y32.019 E7.23031
G1 X22.459 Y31.455 E7.254
G1 X23.257 Y30.492 E7.29559
G1 X23.719 Y29.971 E7.31876
G1 X24.494 Y29.156 E7.35616
G1 X24.987 Y28.672 E7.37914
G1 X25.905 Y27.829 E7.42059
G1 X26.426 Y27.382 E7.44343
G1 X27.322 Y26.664 E7.48161
G1 X27.889 Y26.241 E7.50514
G1 X28.932 Y25.518 E7.54735
G1 X29.538 Y25.129 E7.5713
G1 X30.539 Y24.535 E7.61002
G1 X31.131 Y24.21 E7.63248
G1 X32.186 Y23.675 E7.67182
G1 X32.838 Y23.373 E7.69572
G1 X33.977 Y22.893 E7.73683
G1 X34.61 Y22.65 E7.75938
G1 X35.676 Y22.282 E7.79689
G1 X36.329 Y22.081 E7.81962
G1 X37.532 Y21.754 E7.86108
G1 X38.243 Y21.588 E7.88536
G1 X39.405 Y21.36 E7.92475
G1 X40.083 Y21.25 E7.94759
G1 X41.279 Y21.098 E7.98769
G1 X41.969 Y21.034 E8.01074
G1 X43.165 Y20.964 E8.05059
G1 X43.864 Y20.948 E8.07384
G1 X45.057 Y20.96 E8.11353
G1 X45.765 Y20.991 E8.1371
G0 F6000 X45.797 Y20.593
G1 F1200 X47.025 Y20.691 E8.17807
G1 X47.75 Y20.774 E8.20234
G1 X48.92 Y20.949 E8.24169
G1 X49.638 Y21.081 E8.26597
G1 X50.788 Y21.335 E8.30514
G1 X51.485 Y21.514 E8.32907
G1 X52.665 Y21.86 E8.36997
G1 X53.354 Y22.088 E8.39411
G1 X54.429 Y22.485 E8.43223
G1 X55.105 Y22.762 E8.45653
G1 X56.27 Y23.286 E8.49901
G1 X56.919 Y23.605 E8.52306
G1 X57.89 Y24.124 E8.55968
G1 X58.496 Y24.474 E8.58296
G1 X59.543 Y25.126 E8.62398
G1 X60.166 Y25.545 E8.64896
G1 X61.143 Y26.254 E8.68911
G1 X61.711 Y26.696 E8.71304
G1 X62.632 Y27.465 E8.75295
G1 X63.176 Y27.953 E8.77726
G1 X64.037 Y28.779 E8.81694
G1 X64.54 Y29.295 E8.84091
G1 X65.325 Y30.158 E8.87971
G1 X65.789 Y30.704 E8.90354
G1 X66.552 Y31.666 E8.94438
G1 X66.986 Y32.254 E8.96869
G1 X67.667 Y33.246 E9.00871
G1 X68.064 Y33.87 E9.03331
G1 X68.677 Y34.912 E9.07352
G1 X69.024 Y35.55 E9.09767
G1 X69.541 Y36.585 E9.13615
G1 X69.834 Y37.225 E9.15956
G1 X70.3 Y38.337 E9.19966
G1 X70.558 Y39.016 E9.22382
G1 X70.946 Y40.155 E9.26384
G1 X71.163 Y40.875 E9.28886
G1 X71.477 Y42.068 E9.32989
G1 X71.635 Y42.762 E9.35356
G1 X71.847 Y43.863 E9.39085
G1 X71.958 Y44.57 E9.41465
G1 X72.113 Y45.827 E9.45678
G1 X72.178 Y46.566 E9.48145
G1 X72.239 Y47.723 E9.51999
G1 X72.253 Y48.425 E9.54334
G1 X72.237 Y49.599 E9.58239
G1 X72.201 Y50.335 E9.6069
G1 X72.097 Y51.584 E9.64859
G1 X72.012 Y52.31 E9.6729
G1 X71.831 Y53.491 E9.71264
G1 X71.694 Y54.216 E9.73718
G1 X71.433 Y55.374 E9.77666
G1 X71.338 Y55.76 E9.78988
G1 X71.252 Y56.083 E9.801
G1 X70.637 Y58.553 E9.88566
G1 X70.093 Y61.027 E9.96991
G1 X69.62 Y63.519 E10.05427
G1 X69.212 Y66.053 E10.13964
G1 X68.887 Y68.514 E10.22221
G1 X68.626 Y71.045 E10.30683
G1 X68.438 Y73.544 E10.39018
G1 X68.32 Y76.077 E10.47452
G1 X68.272 Y79.084 E10.57455
G1 X68.271 Y97.052 E11.17217
G1 X68.26 Y97.779 E11.19635
G1 X68.206 Y98.698 E11.22697
G1 X68.072 Y99.609 E11.2576
G1 X67.86 Y100.505 E11.28822
G1 X67.572 Y101.379 E11.31883
G1 X67.208 Y102.225 E11.34946
G1 X66.772 Y103.036 E11.38008
G1 X66.268 Y103.806 E11.41069
G1 X65.698 Y104.53 E11.44134
G1 X65.068 Y105.201 E11.47195
G1 X64.383 Y105.815 E11.50255
G1 X63.646 Y106.368 E11.53319
G1 X62.864 Y106.854 E11.56382
G1 X62.043 Y107.271 E11.59444
G1 X61.189 Y107.615 E11.62507
G1 X60.309 Y107.883 E11.65566
G1 X59.408 Y108.074 E11.6863
G1 X58.494 Y108.186 E11.71692
G1 X57.96 Y108.215 E11.73471
G1 X57.342 Y108.228 E11.75527
G1 X31.242 Y108.227 E12.62336
G1 X30.544 Y108.218 E12.64658
G1 X29.625 Y108.166 E12.67719
G1 X28.714 Y108.035 E12.7078
G1 X27.818 Y107.825 E12.73841
G1 X26.943 Y107.538 E12.76904
G1 X26.096 Y107.176 E12.79968
G1 X25.284 Y106.742 E12.8303
G1 X24.513 Y106.24 E12.8609
G1 X23.788 Y105.672 E12.89153
G1 X23.115 Y105.043 E12.92217
G1 X22.5 Y104.359 E12.95276
G1 X21.946 Y103.624 E12.98338
G1 X21.458 Y102.843 E13.01401
G1 X21.039 Y102.023 E13.04463
G1 X20.693 Y101.17 E13.07525
G1 X20.423 Y100.29 E13.10587
G1 X20.23 Y99.389 E13.13651
G1 X20.116 Y98.476 E13.16712
G1 X20.085 Y97.905 E13.18614
G1 X20.072 Y97.286 E13.20673
G1 X20.072 Y79.022 E13.81419
G1 X20.035 Y76.397 E13.90151
G1 X19.928 Y73.889 E13.985
G1 X19.75 Y71.368 E14.06906
G1 X19.5 Y68.85 E14.15322
G1 X19.179 Y66.339 E14.23741
G1 X18.792 Y63.877 E14.32031
G1 X18.323 Y61.355 E14.40563
G1 X17.793 Y58.893 E14.48939
G1 X16.857 Y55.157 E14.61749
G1 X16.743 Y54.651 E14.63474
G1 X16.524 Y53.551 E14.67204
G1 X16.409 Y52.855 E14.69551
G1 X16.258 Y51.7 E14.73425
G1 X16.19 Y50.99 E14.75797
G1 X16.113 Y49.763 E14.79886
G1 X16.092 Y49.044 E14.82279
G1 X16.098 Y47.892 E14.8611
G1 X16.128 Y47.153 E14.8857
G1 X16.223 Y45.888 E14.9279
G1 X16.302 Y45.163 E14.95215
G1 X16.462 Y44.058 E14.98929
G1 X16.588 Y43.359 E15.01291
G1 X16.849 Y42.139 E15.05441
G1 X17.031 Y41.412 E15.07933
G1 X17.363 Y40.264 E15.11908
G1 X17.58 Y39.598 E15.14238
G1 X17.976 Y38.505 E15.18104
G1 X18.252 Y37.818 E15.20567
G1 X18.763 Y36.666 E15.24758
G1 X19.086 Y36.002 E15.27214
G1 X19.621 Y34.992 E15.31016
G1 X19.974 Y34.376 E15.33377
G1 X20.62 Y33.332 E15.37461
G1 X21.02 Y32.733 E15.39856
G1 X21.699 Y31.786 E15.43732
G1 X22.151 Y31.2 E15.46193
G1 X22.949 Y30.237 E15.50353
G1 X23.43 Y29.696 E15.52761
G1 X24.205 Y28.881 E15.56501
G1 X24.716 Y28.378 E15.58886
G1 X25.634 Y27.535 E15.63032
G1 X26.175 Y27.07 E15.65404
G1 X27.071 Y26.352 E15.69223
G1 X27.661 Y25.912 E15.71671
G1 X28.704 Y25.189 E15.75892
G1 X29.334 Y24.785 E15.78381
G1 X30.335 Y24.191 E15.82253
G1 X30.95 Y23.853 E15.84587
G1 X32.005 Y23.318 E15.88521
G1 X32.683 Y23.004 E15.91006
G1 X33.822 Y22.524 E15.95117
G1 X34.479 Y22.272 E15.97458
G1 X35.545 Y21.904 E16.01209
G1 X36.224 Y21.695 E16.03572
G1 X37.427 Y21.368 E16.07718
G1 X38.166 Y21.195 E16.10242
G1 X39.328 Y20.967 E16.14181
G1 X40.033 Y20.854 E16.16556
G1 X41.229 Y20.702 E16.20565
G1 X41.946 Y20.635 E16.22961
G1 X43.142 Y20.565 E16.26945
G1 X43.868 Y20.548 E16.29361
G1 X45.061 Y20.56 E16.33329
G1 X45.797 Y20.593 E16.35779
G0 F6000 X45.829 Y20.194
G1 F1200 X47.057 Y20.292 E16.39877
G1 X47.809 Y20.378 E16.42394
G1 X48.979 Y20.553 E16.46329
G1 X49.724 Y20.691 E16.48849
G1 X50.874 Y20.945 E16.52766
G1 X51.597 Y21.13 E16.55248
G1 X52.777 Y21.476 E16.59338
G1 X53.493 Y21.713 E16.61846
G1 X54.568 Y22.11 E16.65658
G1 X55.269 Y22.397 E16.68177
G1 X56.434 Y22.921 E16.72426
G1 X57.107 Y23.252 E16.74921
G1 X58.078 Y23.771 E16.78582
G1 X58.708 Y24.135 E16.81002
G1 X59.755 Y24.787 E16.85105
G1 X60.401 Y25.221 E16.87693
G1 X61.378 Y25.93 E16.91708
G1 X61.967 Y26.389 E16.94192
G1 X62.888 Y27.158 E16.98183
G1 X63.453 Y27.664 E17.00705
G1 X64.314 Y28.49 E17.04674
G1 X64.836 Y29.026 E17.07162
G1 X65.621 Y29.889 E17.11042
G1 X66.102 Y30.455 E17.13513
G1 X66.865 Y31.417 E17.17597
G1 X67.316 Y32.027 E17.2012
G1 X67.997 Y33.019 E17.24122
G1 X68.409 Y33.667 E17.26676
G1 X69.022 Y34.709 E17.30697
G1 X69.382 Y35.371 E17.33203
G1 X69.899 Y36.406 E17.37051
G1 X70.203 Y37.071 E17.39483
G1 X70.669 Y38.183 E17.43493
G1 X70.936 Y38.887 E17.45998
G1 X71.324 Y40.026 E17.5
G1 X71.55 Y40.773 E17.52595
G1 X71.864 Y41.966 E17.56698
G1 X72.028 Y42.686 E17.59154
G1 X72.24 Y43.787 E17.62884
G1 X72.355 Y44.521 E17.65355
G1 X72.51 Y45.778 E17.69567
G1 X72.578 Y46.545 E17.72128
G1 X72.639 Y47.702 E17.75982
G1 X72.653 Y48.431 E17.78407
G1 X72.637 Y49.605 E17.82312
G1 X72.6 Y50.368 E17.84853
G1 X72.496 Y51.617 E17.89021
G1 X72.407 Y52.37 E17.91543
G1 X72.226 Y53.551 E17.95517
G1 X72.084 Y54.304 E17.98066
G1 X71.823 Y55.462 E18.02014
G1 X71.67 Y56.065 E18.04083
G1 X71.022 Y58.664 E18.12992
G1 X70.482 Y61.122 E18.21362
G1 X70.009 Y63.614 E18.29799
G1 X69.615 Y66.062 E18.38046
G1 X69.283 Y68.575 E18.46476
G1 X69.024 Y71.08 E18.54853
G1 X68.836 Y73.592 E18.63231
G1 X68.721 Y76.07 E18.71482
G1 X68.672 Y79.09 E18.81527
G1 X68.671 Y97.058 E19.41289
G1 X68.66 Y97.785 E19.43708
G1 X68.606 Y98.722 E19.46829
G1 X68.472 Y99.65 E19.49948
G1 X68.26 Y100.564 E19.53068
G1 X67.97 Y101.456 E19.56188
G1 X67.606 Y102.32 E19.59306
G1 X67.169 Y103.15 E19.62426
G1 X66.664 Y103.94 E19.65545
G1 X66.092 Y104.684 E19.68666
G1 X65.46 Y105.376 E19.71783
G1 X64.771 Y106.012 E19.74902
G1 X64.03 Y106.588 E19.78023
G1 X63.243 Y107.097 E19.81141
G1 X62.415 Y107.539 E19.84263
G1 X61.553 Y107.907 E19.8738
G1 X60.662 Y108.202 E19.90502
G1 X59.75 Y108.419 E19.9362
G1 X58.823 Y108.558 E19.96737
G1 X57.971 Y108.615 E19.99577
G1 X57.342 Y108.628 E20.0167
G1 X31.237 Y108.627 E20.88495
G1 X30.539 Y108.618 E20.90817
G1 X29.603 Y108.566 E20.93935
G1 X28.674 Y108.434 E20.97056
G1 X27.76 Y108.224 E21.00175
G1 X26.867 Y107.937 E21.03295
G1 X26.002 Y107.574 E21.06415
G1 X25.171 Y107.14 E21.09533
G1 X24.38 Y106.636 E21.12653
G1 X23.635 Y106.066 E21.15773
G1 X22.941 Y105.435 E21.18892
G1 X22.304 Y104.748 E21.22009
G1 X21.727 Y104.008 E21.2513
G1 X21.215 Y103.222 E21.28249
G1 X20.772 Y102.395 E21.3137
G1 X20.401 Y101.534 E21.34488
G1 X20.105 Y100.644 E21.37608
G1 X19.886 Y99.732 E21.40727
G1 X19.745 Y98.805 E21.43846
G1 X19.685 Y97.916 E21.46809
G1 X19.672 Y97.286 E21.48905
G1 X19.672 Y79.028 E22.09632
G1 X19.635 Y76.42 E22.18307
G1 X19.528 Y73.898 E22.26703
G1 X19.351 Y71.403 E22.35022
G1 X19.103 Y68.904 E22.43374
G1 X18.785 Y66.415 E22.5172
G1 X18.391 Y63.906 E22.60167
G1 X17.932 Y61.44 E22.6851
G1 X17.405 Y58.992 E22.76839
G1 X16.469 Y55.255 E22.89652
G1 X16.351 Y54.729 E22.91445
G1 X16.132 Y53.629 E22.95175
G1 X16.013 Y52.907 E22.97609
G1 X15.862 Y51.752 E23.01483
G1 X15.791 Y51.015 E23.03946
G1 X15.714 Y49.788 E23.08035
G1 X15.692 Y49.042 E23.10517
G1 X15.698 Y47.89 E23.14349
G1 X15.729 Y47.123 E23.16902
G1 X15.824 Y45.858 E23.21121
G1 X15.907 Y45.106 E23.23638
G1 X16.067 Y44.001 E23.27351
G1 X16.196 Y43.276 E23.29801
G1 X16.457 Y42.056 E23.3395
G1 X16.647 Y41.301 E23.3654
G1 X16.979 Y40.153 E23.40514
G1 X17.204 Y39.462 E23.42931
G1 X17.6 Y38.369 E23.46798
G1 X17.887 Y37.656 E23.49354
G1 X18.398 Y36.504 E23.53546
G1 X18.733 Y35.815 E23.56094
G1 X19.268 Y34.805 E23.59895
G1 X19.634 Y34.166 E23.62345
G1 X20.28 Y33.122 E23.66428
G1 X20.694 Y32.5 E23.68913
G1 X21.373 Y31.553 E23.72789
G1 X21.843 Y30.944 E23.75347
G1 X22.641 Y29.981 E23.79507
G1 X23.14 Y29.42 E23.82004
G1 X23.915 Y28.605 E23.85745
G1 X24.446 Y28.083 E23.88222
G1 X25.364 Y27.24 E23.92367
G1 X25.925 Y26.758 E23.94827
G1 X26.821 Y26.04 E23.98646
G1 X27.433 Y25.584 E24.01184
G1 X28.476 Y24.861 E24.05405
G1 X29.129 Y24.441 E24.07988
G1 X30.13 Y23.847 E24.11859
G1 X30.769 Y23.496 E24.14284
G1 X31.824 Y22.961 E24.18218
G1 X32.527 Y22.635 E24.20796
G1 X33.666 Y22.155 E24.24907
G1 X34.348 Y21.894 E24.27335
G1 X35.414 Y21.526 E24.31086
G1 X36.119 Y21.309 E24.3354
G1 X37.322 Y20.982 E24.37686
G1 X38.089 Y20.803 E24.40306
G1 X39.251 Y20.575 E24.44244
G1 X39.982 Y20.457 E24.46707
G1 X41.178 Y20.305 E24.50717
G1 X41.922 Y20.236 E24.53202
G1 X43.118 Y20.166 E24.57187
G1 X43.872 Y20.148 E24.59695
G1 X45.065 Y20.16 E24.63663
G1 X45.829 Y20.194 E24.66207
G1 F1500 E18.16207
;MESH:FS90R-mount v10.stl
G0 F6000 X45.82 Y37.433
G0 X45.82 Y35.977
G0 X50.9 Y36.342
G0 X50.909 Y42.03
G0 X51.921 Y43.24
G0 X52.391 Y43.989
G0 X52.79 Y44.775
G0 X53.113 Y45.599
G0 X53.356 Y46.448
G0 X53.52 Y47.315
G0 X53.601 Y48.195
G0 X53.601 Y49.071
G0 X53.517 Y49.949
G0 X53.353 Y50.816
G0 X53.109 Y51.664
G0 X52.786 Y52.488
G0 X52.387 Y53.276
G0 X51.916 Y54.023
G0 X51.101 Y54.995
G0 X51.059 Y61.093
;TYPE:WALL-INNER
G1 F1500 E24.66207
G1 F1200 X51.072 Y55.291 E24.85505
G1 X51.502 Y54.829 E24.87604
G1 X52.049 Y54.116 E24.90593
G1 X52.528 Y53.355 E24.93583
G1 X52.932 Y52.554 E24.96567
G1 X53.261 Y51.717 E24.99558
G1 X53.51 Y50.854 E25.02546
G1 X53.676 Y49.972 E25.05531
G1 X53.762 Y49.079 E25.08515
