;FLAVOR:Marlin
;TIME:6446
;Filament used: 4.36319m
;Layer height: 0.2
;MINX:12.884
;MINY:16.644
;MINZ:0.2
;MAXX:69.859
;MAXY:105.13
;MAXZ:43
;Generated with Cura_SteamEngine 4.6.1
M140 S65
M105
M190 S65
M104 S210
M105
M109 S210
M82 ;absolute extrusion mode
; Ender 3 Custom Start G-code
G92 E0 ; Reset Extruder
G28 ; Home all axes
G1 Z2.0 F3000 ; Move Z Axis up little to prevent scratching of Heat Bed
G1 X0.1 Y20 Z0.3 F5000.0 ; Move to start position
G1 X0.1 Y200.0 Z0.3 F1500.0 E15 ; Draw the first line
G1 X0.4 Y200.0 Z0.3 F5000.0 ; Move to side a little
G1 X0.4 Y20 Z0.3 F1500.0 E30 ; Draw the second line
G92 E0 ; Reset Extruder
G1 Z2.0 F3000 ; Move Z Axis up little to prevent scratching of Heat Bed
G1 X5 Y20 Z0.3 F5000.0 ; Move over to prevent blob squish
G92 E0
G92 E0
G1 F1500 E-6.5
;LAYER_COUNT:215
;LAYER:0
M107
G0 F6000 X42.757 Y17.476 Z0.2
;TYPE:SKIRT
G1 F1500 E0
G1 F1200 X43.396 Y17.517 E0.0213
G1 X44.467 Y17.616 E0.05707
G1 X45.209 Y17.709 E0.08194
G1 X46.044 Y17.838 E0.11004
G1 X46.41 Y17.903 E0.12241
G1 X46.737 Y17.967 E0.13349
G1 X47.713 Y18.178 E0.1667
G1 X48.372 Y18.343 E0.1893
G1 X49.292 Y18.599 E0.22106
G1 X49.688 Y18.72 E0.23483
G1 X49.997 Y18.82 E0.24563
G1 X50.857 Y19.117 E0.27589
G1 X51.246 Y19.262 E0.2897
G1 X51.536 Y19.376 E0.30007
G1 X52.414 Y19.739 E0.33167
G1 X53.03 Y20.018 E0.35416
G1 X53.91 Y20.444 E0.38668
G1 X54.564 Y20.787 E0.41124
G1 X55.358 Y21.233 E0.44153
G1 X55.611 Y21.383 E0.45131
G1 X55.887 Y21.553 E0.46209
G1 X56.83 Y22.159 E0.49937
G1 X57.363 Y22.528 E0.52094
G1 X58.075 Y23.049 E0.55028
G1 X58.65 Y23.496 E0.5745
G1 X59.179 Y23.929 E0.59724
G1 X59.439 Y24.149 E0.60857
G1 X59.918 Y24.573 E0.62985
G1 X60.411 Y25.028 E0.65216
G1 X60.651 Y25.257 E0.66319
G1 X61.111 Y25.715 E0.68478
G1 X61.567 Y26.189 E0.70666
G1 X61.78 Y26.418 E0.71706
G1 X62.036 Y26.701 E0.72975
G1 X62.249 Y26.945 E0.74052
G1 X62.871 Y27.684 E0.77265
G1 X63.304 Y28.232 E0.79588
G1 X63.879 Y29.005 E0.82792
G1 X64.267 Y29.564 E0.85056
G1 X64.801 Y30.378 E0.88294
G1 X65.178 Y30.994 E0.90696
G1 X65.614 Y31.754 E0.9361
G1 X65.812 Y32.119 E0.94991
G1 X65.96 Y32.404 E0.96059
G1 X66.268 Y33.017 E0.98341
G1 X66.418 Y33.327 E0.99486
G1 X66.672 Y33.886 E1.01528
G1 X67.042 Y34.757 E1.04676
G1 X67.2 Y35.154 E1.06097
G1 X67.327 Y35.491 E1.07295
G1 X67.614 Y36.302 E1.10156
G1 X67.735 Y36.67 E1.11445
G1 X67.833 Y36.987 E1.12548
G1 X68.113 Y37.956 E1.15903
G1 X68.193 Y38.26 E1.16949
G1 X68.269 Y38.569 E1.18007
G1 X68.484 Y39.521 E1.21253
G1 X68.567 Y39.936 E1.22661
G1 X68.627 Y40.264 E1.2377
G1 X68.776 Y41.185 E1.26873
G1 X68.867 Y41.882 E1.29211
G1 X68.932 Y42.488 E1.31238
G1 X68.96 Y42.798 E1.32273
G1 X69.01 Y43.498 E1.34607
G1 X69.052 Y44.486 E1.37896
G1 X69.059 Y44.906 E1.39293
G1 X69.059 Y45.214 E1.40318
G1 X69.044 Y46.077 E1.43189
G1 X69.03 Y46.426 E1.4435
G1 X69.011 Y46.754 E1.45443
G1 X68.928 Y47.834 E1.49046
G1 X68.854 Y48.491 E1.51245
G1 X68.729 Y49.402 E1.54303
G1 X68.607 Y50.118 E1.56719
G1 X68.426 Y51.021 E1.59782
G1 X68.338 Y51.411 E1.61112
G1 X68.264 Y51.716 E1.62156
G1 X67.962 Y52.884 E1.66168
G1 X67.32 Y55.52 E1.75192
G1 X66.8 Y57.95 E1.83457
G1 X66.335 Y60.481 E1.92016
G1 X65.945 Y62.998 E2.00488
G1 X65.629 Y65.496 E2.08862
G1 X65.385 Y68.005 E2.17246
G1 X65.206 Y70.592 E2.25871
G1 X65.103 Y73.095 E2.34204
G1 X65.071 Y75.548 E2.42363
G1 X65.07 Y93.534 E3.02185
G1 X65.06 Y94.261 E3.04603
G1 X65.008 Y95.163 E3.07608
G1 X64.876 Y96.056 E3.1061
G1 X64.665 Y96.935 E3.13617
G1 X64.378 Y97.791 E3.1662
G1 X64.016 Y98.618 E3.19622
G1 X63.582 Y99.41 E3.22626
G1 X63.08 Y100.161 E3.25631
G1 X62.514 Y100.864 E3.28632
G1 X61.887 Y101.515 E3.31639
G1 X61.206 Y102.107 E3.3464
G1 X60.475 Y102.637 E3.37643
G1 X59.699 Y103.1 E3.40648
G1 X58.886 Y103.493 E3.43652
G1 X58.041 Y103.813 E3.46657
G1 X57.172 Y104.056 E3.49658
G1 X56.284 Y104.221 E3.52662
G1 X55.148 Y104.317 E3.56454
G1 X54.541 Y104.33 E3.58473
G1 X28.446 Y104.329 E4.45266
G1 X27.748 Y104.32 E4.47588
G1 X26.847 Y104.269 E4.50589
G1 X25.953 Y104.137 E4.53595
G1 X25.075 Y103.928 E4.56597
G1 X24.218 Y103.641 E4.59603
G1 X23.391 Y103.28 E4.62604
G1 X22.598 Y102.847 E4.65609
G1 X21.847 Y102.346 E4.68612
G1 X21.143 Y101.78 E4.71616
G1 X20.492 Y101.154 E4.7462
G1 X19.899 Y100.473 E4.77623
G1 X19.369 Y99.742 E4.80626
G1 X18.905 Y98.967 E4.83631
G1 X18.511 Y98.154 E4.86636
G1 X18.191 Y97.31 E4.89638
G1 X17.947 Y96.44 E4.92643
G1 X17.781 Y95.552 E4.95648
G1 X17.684 Y94.397 E4.99503
G1 X17.671 Y93.788 E5.01529
G1 X17.671 Y75.547 E5.62199
G1 X17.634 Y72.941 E5.70867
G1 X17.525 Y70.373 E5.79416
G1 X17.348 Y67.871 E5.87758
G1 X17.098 Y65.356 E5.96165
G1 X16.771 Y62.795 E6.04752
G1 X16.38 Y60.31 E6.13118
G1 X15.92 Y57.834 E6.21495
G1 X15.379 Y55.319 E6.30051
G1 X14.723 Y52.653 E6.39183
G1 X14.436 Y51.539 E6.43009
G1 X14.281 Y50.845 E6.45374
G1 X14.096 Y49.89 E6.48609
G1 X13.991 Y49.238 E6.50806
G1 X13.86 Y48.24 E6.54154
G1 X13.789 Y47.531 E6.56523
G1 X13.725 Y46.638 E6.59501
G1 X13.706 Y46.249 E6.60797
G1 X13.695 Y45.92 E6.61891
G1 X13.684 Y44.968 E6.65058
G1 X13.696 Y44.317 E6.67224
G1 X13.744 Y43.287 E6.70653
G1 X13.797 Y42.62 E6.72879
G1 X13.866 Y41.954 E6.75106
G1 X13.903 Y41.647 E6.76134
G1 X13.999 Y40.961 E6.78438
G1 X14.161 Y40.006 E6.8166
G1 X14.302 Y39.309 E6.84025
G1 X14.511 Y38.408 E6.87101
G1 X14.696 Y37.71 E6.89503
G1 X14.867 Y37.12 E6.91546
G1 X14.959 Y36.821 E6.92586
G1 X15.171 Y36.177 E6.94841
G1 X15.519 Y35.212 E6.98253
G1 X15.645 Y34.889 E6.99407
G1 X15.762 Y34.604 E7.00431
G1 X16.024 Y33.988 E7.02658
G1 X16.162 Y33.677 E7.03789
G1 X16.439 Y33.091 E7.05945
G1 X16.871 Y32.232 E7.09143
G1 X17.075 Y31.851 E7.10581
G1 X17.231 Y31.571 E7.11647
G1 X17.688 Y30.787 E7.14665
G1 X18.046 Y30.214 E7.16912
G1 X18.427 Y29.634 E7.1922
G1 X18.615 Y29.357 E7.20334
G1 X18.994 Y28.826 E7.22503
G1 X19.577 Y28.053 E7.25724
G1 X20.008 Y27.517 E7.28011
G1 X20.422 Y27.026 E7.30147
G1 X20.638 Y26.778 E7.31241
G1 X21.096 Y26.275 E7.33504
G1 X21.773 Y25.571 E7.36752
G1 X22.034 Y25.313 E7.37973
G1 X22.262 Y25.095 E7.39022
G1 X22.99 Y24.425 E7.42313
G1 X23.531 Y23.957 E7.44692
G1 X24.211 Y23.401 E7.47614
G1 X24.786 Y22.96 E7.50024
G1 X25.344 Y22.553 E7.52321
G1 X25.875 Y22.185 E7.5447
G1 X26.116 Y22.025 E7.55432
G1 X26.708 Y21.645 E7.57772
G1 X26.978 Y21.478 E7.58828
G1 X27.567 Y21.13 E7.61103
G1 X28.414 Y20.661 E7.64323
G1 X29.023 Y20.349 E7.66599
G1 X29.629 Y20.056 E7.68838
G1 X30.222 Y19.787 E7.71004
G1 X30.483 Y19.675 E7.71948
G1 X31.416 Y19.295 E7.75299
G1 X32.106 Y19.039 E7.77747
G1 X32.972 Y18.747 E7.80786
G1 X33.625 Y18.549 E7.83056
G1 X34.574 Y18.289 E7.86329
G1 X34.905 Y18.207 E7.87463
G1 X35.238 Y18.131 E7.88599
G1 X36.21 Y17.929 E7.91901
G1 X36.934 Y17.802 E7.94346
G1 X37.799 Y17.674 E7.97254
G1 X38.192 Y17.626 E7.98571
G1 X38.496 Y17.594 E7.99587
G1 X39.467 Y17.509 E8.02829
G1 X40.189 Y17.469 E8.05234
G1 X41.116 Y17.444 E8.08319
G1 X41.853 Y17.447 E8.1077
G1 X42.757 Y17.476 E8.13778
G0 F6000 X42.779 Y17.077
G1 F1200 X43.098 Y17.095 E8.14841
G1 X43.431 Y17.119 E8.15951
G1 X44.514 Y17.219 E8.19569
G1 X44.951 Y17.271 E8.21033
G1 X45.269 Y17.314 E8.221
G1 X46.114 Y17.444 E8.24943
G1 X46.48 Y17.509 E8.2618
G1 X46.82 Y17.575 E8.27332
G1 X47.808 Y17.789 E8.30694
G1 X48.182 Y17.88 E8.31974
G1 X48.477 Y17.957 E8.32988
G1 X49.409 Y18.217 E8.36206
G1 X50.126 Y18.441 E8.38705
G1 X50.713 Y18.641 E8.40767
G1 X51.385 Y18.888 E8.43149
G1 X51.687 Y19.005 E8.44226
G1 X52.268 Y19.242 E8.46313
G1 X52.576 Y19.374 E8.47428
G1 X53.203 Y19.657 E8.49715
G1 X53.799 Y19.942 E8.51913
G1 X54.094 Y20.089 E8.53009
G1 X54.477 Y20.287 E8.54443
G1 X54.758 Y20.438 E8.55504
G1 X55.562 Y20.889 E8.5857
G1 X55.815 Y21.039 E8.59548
G1 X56.102 Y21.215 E8.60668
G1 X56.779 Y21.646 E8.63337
G1 X57.056 Y21.829 E8.64442
G1 X57.598 Y22.204 E8.66634
G1 X58.319 Y22.731 E8.69604
G1 X58.647 Y22.983 E8.7098
G1 X58.903 Y23.186 E8.72067
G1 X59.432 Y23.619 E8.7434
G1 X59.702 Y23.848 E8.75518
G1 X60.189 Y24.279 E8.77681
G1 X60.682 Y24.734 E8.79912
G1 X60.932 Y24.972 E8.8106
G1 X61.399 Y25.438 E8.83254
G1 X61.855 Y25.912 E8.85442
G1 X62.077 Y26.15 E8.86525
G1 X62.333 Y26.433 E8.87794
G1 X62.554 Y26.686 E8.88911
G1 X63.184 Y27.434 E8.92164
G1 X63.425 Y27.735 E8.93446
G1 X63.624 Y27.992 E8.94527
G1 X64.014 Y28.511 E8.96687
G1 X64.206 Y28.775 E8.97772
G1 X64.601 Y29.343 E9.00073
G1 X65.141 Y30.167 E9.0335
G1 X65.525 Y30.794 E9.05796
G1 X65.822 Y31.307 E9.07767
G1 X66.163 Y31.929 E9.10126
G1 X66.318 Y32.224 E9.11235
G1 X66.626 Y32.837 E9.13517
G1 X66.781 Y33.16 E9.14708
G1 X67.039 Y33.728 E9.16783
G1 X67.414 Y34.609 E9.19968
G1 X67.572 Y35.006 E9.21389
G1 X67.704 Y35.356 E9.22633
G1 X67.994 Y36.177 E9.25529
G1 X68.115 Y36.545 E9.26817
G1 X68.217 Y36.875 E9.27966
G1 X68.5 Y37.854 E9.31356
G1 X68.58 Y38.158 E9.32401
G1 X68.659 Y38.479 E9.33501
G1 X68.876 Y39.442 E9.36784
G1 X68.959 Y39.857 E9.38192
G1 X69.022 Y40.199 E9.39348
G1 X69.172 Y41.131 E9.42488
G1 X69.265 Y41.84 E9.44866
G1 X69.33 Y42.446 E9.46894
G1 X69.359 Y42.767 E9.47966
G1 X69.409 Y43.479 E9.50339
G1 X69.452 Y44.479 E9.53669
G1 X69.459 Y44.899 E9.55066
G1 X69.459 Y45.219 E9.5613
G1 X69.443 Y46.093 E9.59037
G1 X69.429 Y46.442 E9.60199
G1 X69.41 Y46.783 E9.61335
G1 X69.356 Y47.528 E9.63819
G1 X69.325 Y47.876 E9.64982
G1 X69.251 Y48.544 E9.67217
G1 X69.124 Y49.467 E9.70316
G1 X69.057 Y49.876 E9.71694
G1 X68.999 Y50.195 E9.72773
G1 X68.816 Y51.109 E9.75873
G1 X68.728 Y51.499 E9.77203
G1 X68.651 Y51.816 E9.78288
G1 X68.335 Y53.039 E9.82489
G1 X67.719 Y55.57 E9.91153
G1 X67.185 Y58.062 E9.99629
G1 X66.73 Y60.542 E10.08016
G1 X66.346 Y63.024 E10.16369
G1 X66.026 Y65.548 E10.24831
G1 X65.783 Y68.044 E10.33172
G1 X65.608 Y70.57 E10.41594
G1 X65.503 Y73.118 E10.50076
G1 X65.471 Y75.553 E10.58175
G1 X65.47 Y93.54 E11.18
G1 X65.46 Y94.267 E11.20418
G1 X65.407 Y95.186 E11.2348
G1 X65.275 Y96.097 E11.26542
G1 X65.064 Y96.993 E11.29603
G1 X64.777 Y97.868 E11.32666
G1 X64.414 Y98.714 E11.35728
G1 X63.98 Y99.526 E11.3879
G1 X63.476 Y100.297 E11.41854
G1 X62.908 Y101.021 E11.44915
G1 X62.279 Y101.693 E11.47976
G1 X61.594 Y102.308 E11.51038
G1 X60.858 Y102.861 E11.541
G1 X60.077 Y103.349 E11.57163
G1 X59.257 Y103.767 E11.60224
G1 X58.403 Y104.112 E11.63287
G1 X57.523 Y104.381 E11.66348
G1 X56.622 Y104.574 E11.69413
G1 X55.709 Y104.687 E11.72473
G1 X55.159 Y104.717 E11.74305
G1 X54.541 Y104.73 E11.76361
G1 X28.441 Y104.729 E12.63169
G1 X27.743 Y104.72 E12.65491
G1 X26.824 Y104.668 E12.68553
G1 X25.913 Y104.537 E12.71614
G1 X25.017 Y104.327 E12.74675
G1 X24.142 Y104.04 E12.77738
G1 X23.295 Y103.678 E12.80801
G1 X22.483 Y103.244 E12.83863
G1 X21.712 Y102.742 E12.86924
G1 X20.987 Y102.174 E12.89987
G1 X20.314 Y101.545 E12.93051
G1 X19.699 Y100.861 E12.9611
G1 X19.145 Y100.126 E12.99171
G1 X18.657 Y99.345 E13.02234
G1 X18.238 Y98.525 E13.05297
G1 X17.892 Y97.672 E13.08359
G1 X17.622 Y96.792 E13.1142
G1 X17.429 Y95.891 E13.14485
G1 X17.315 Y94.978 E13.17545
G1 X17.284 Y94.407 E13.19447
G1 X17.271 Y93.788 E13.21506
G1 X17.271 Y75.553 E13.82156
G1 X17.234 Y72.928 E13.90888
G1 X17.127 Y70.42 E13.99237
G1 X16.949 Y67.899 E14.07643
G1 X16.699 Y65.381 E14.16059
G1 X16.378 Y62.87 E14.24479
G1 X15.991 Y60.408 E14.32768
G1 X15.522 Y57.886 E14.413
G1 X14.986 Y55.393 E14.49781
G1 X14.344 Y52.783 E14.58721
G1 X14.046 Y51.629 E14.62685
G1 X13.955 Y51.233 E14.64036
G1 X13.889 Y50.923 E14.6509
G1 X13.702 Y49.957 E14.68363
G1 X13.595 Y49.292 E14.70603
G1 X13.462 Y48.282 E14.73991
G1 X13.419 Y47.877 E14.75346
G1 X13.391 Y47.562 E14.76398
G1 X13.326 Y46.657 E14.79416
G1 X13.295 Y45.927 E14.81846
G1 X13.284 Y44.963 E14.85052
G1 X13.296 Y44.3 E14.87258
G1 X13.326 Y43.584 E14.89641
G1 X13.345 Y43.258 E14.90727
G1 X13.399 Y42.579 E14.92993
G1 X13.506 Y41.593 E14.96292
G1 X13.558 Y41.206 E14.9759
G1 X13.605 Y40.896 E14.98633
G1 X13.769 Y39.929 E15.01895
G1 X13.912 Y39.22 E15.04301
G1 X14.124 Y38.308 E15.07415
G1 X14.312 Y37.598 E15.09858
G1 X14.578 Y36.698 E15.1298
G1 X14.795 Y36.043 E15.15275
G1 X15.147 Y35.067 E15.18725
G1 X15.394 Y34.447 E15.20945
G1 X15.656 Y33.831 E15.23172
G1 X15.799 Y33.508 E15.24346
G1 X16.08 Y32.913 E15.26535
G1 X16.518 Y32.043 E15.29775
G1 X16.722 Y31.662 E15.31212
G1 X16.884 Y31.371 E15.3232
G1 X17.347 Y30.577 E15.35377
G1 X17.712 Y29.994 E15.37665
G1 X18.093 Y29.414 E15.39973
G1 X18.288 Y29.127 E15.41127
G1 X18.674 Y28.587 E15.43334
G1 X19.264 Y27.804 E15.46595
G1 X19.702 Y27.259 E15.48921
G1 X20.116 Y26.768 E15.51057
G1 X20.341 Y26.51 E15.52196
G1 X20.806 Y25.999 E15.54493
G1 X21.492 Y25.286 E15.57784
G1 X21.753 Y25.028 E15.59005
G1 X21.989 Y24.802 E15.60092
G1 X22.484 Y24.342 E15.62339
G1 X22.727 Y24.124 E15.63425
G1 X23.276 Y23.649 E15.6584
G1 X23.965 Y23.085 E15.68801
G1 X24.296 Y22.828 E15.70195
G1 X24.551 Y22.637 E15.71255
G1 X25.379 Y22.039 E15.74652
G1 X25.9 Y21.689 E15.76739
G1 X26.772 Y21.135 E15.80175
G1 X27.371 Y20.781 E15.8249
G1 X28.229 Y20.306 E15.85751
G1 X28.567 Y20.13 E15.87019
G1 X28.849 Y19.989 E15.88068
G1 X29.758 Y19.555 E15.91418
G1 X30.33 Y19.305 E15.93494
G1 X30.985 Y19.035 E15.9585
G1 X31.275 Y18.921 E15.96887
G1 X31.976 Y18.661 E15.99374
G1 X32.854 Y18.365 E16.02455
G1 X33.518 Y18.164 E16.04763
G1 X34.478 Y17.901 E16.08073
G1 X34.809 Y17.819 E16.09208
G1 X35.155 Y17.739 E16.10389
G1 X36.139 Y17.535 E16.13731
G1 X36.874 Y17.406 E16.16213
G1 X37.751 Y17.277 E16.19161
G1 X38.459 Y17.195 E16.21532
G1 X39.123 Y17.134 E16.2375
G1 X39.443 Y17.11 E16.24817
G1 X40.176 Y17.069 E16.27259
G1 X40.8 Y17.049 E16.29335
G1 X41.115 Y17.044 E16.30383
G1 X41.864 Y17.047 E16.32874
G1 X42.779 Y17.077 E16.35919
G0 F6000 X42.802 Y16.677
G1 F1200 X43.121 Y16.695 E16.36982
G1 X43.466 Y16.72 E16.38132
G1 X44.227 Y16.787 E16.40673
G1 X44.562 Y16.822 E16.41794
G1 X45.328 Y16.918 E16.44361
G1 X46.183 Y17.05 E16.47239
G1 X46.549 Y17.115 E16.48475
G1 X46.903 Y17.184 E16.49675
G1 X47.579 Y17.327 E16.51973
G1 X47.903 Y17.401 E16.53078
G1 X48.583 Y17.571 E16.55409
G1 X49.525 Y17.834 E16.58662
G1 X49.921 Y17.955 E16.6004
G1 X50.255 Y18.063 E16.61207
G1 X51.136 Y18.368 E16.64308
G1 X51.838 Y18.635 E16.66806
G1 X52.419 Y18.872 E16.68893
G1 X52.739 Y19.008 E16.70049
G1 X53.375 Y19.296 E16.72372
G1 X53.971 Y19.581 E16.74569
G1 X54.278 Y19.734 E16.7571
G1 X54.953 Y20.088 E16.78245
G1 X55.766 Y20.545 E16.81347
G1 X56.019 Y20.695 E16.82325
G1 X56.316 Y20.878 E16.83485
G1 X57.281 Y21.498 E16.873
G1 X57.833 Y21.88 E16.89533
G1 X58.563 Y22.414 E16.92541
G1 X58.891 Y22.666 E16.93917
G1 X59.156 Y22.877 E16.95044
G1 X59.685 Y23.31 E16.97317
G1 X59.966 Y23.547 E16.9854
G1 X60.46 Y23.986 E17.00738
G1 X60.953 Y24.441 E17.02969
G1 X61.212 Y24.687 E17.04157
G1 X61.687 Y25.161 E17.06389
G1 X62.374 Y25.882 E17.09702
G1 X62.63 Y26.165 E17.10971
G1 X62.859 Y26.427 E17.12128
G1 X63.496 Y27.184 E17.15419
G1 X63.737 Y27.485 E17.16701
G1 X63.944 Y27.752 E17.17825
G1 X64.533 Y28.544 E17.21108
G1 X64.757 Y28.862 E17.22402
G1 X64.934 Y29.122 E17.23448
G1 X65.481 Y29.956 E17.26765
G1 X65.697 Y30.304 E17.28127
G1 X65.871 Y30.594 E17.29252
G1 X66.317 Y31.373 E17.32238
G1 X66.515 Y31.738 E17.33619
G1 X66.675 Y32.044 E17.34767
G1 X66.983 Y32.657 E17.37049
G1 X67.144 Y32.992 E17.38285
G1 X67.406 Y33.57 E17.40396
G1 X67.785 Y34.461 E17.43616
G1 X67.943 Y34.858 E17.45038
G1 X68.08 Y35.222 E17.46331
G1 X68.374 Y36.052 E17.4926
G1 X68.495 Y36.42 E17.50548
G1 X68.601 Y36.762 E17.51739
G1 X68.887 Y37.753 E17.5517
G1 X68.967 Y38.057 E17.56215
G1 X69.049 Y38.39 E17.57356
G1 X69.268 Y39.364 E17.60676
G1 X69.351 Y39.779 E17.62084
G1 X69.416 Y40.133 E17.63281
G1 X69.568 Y41.077 E17.66461
G1 X69.662 Y41.797 E17.68876
G1 X69.758 Y42.736 E17.72016
G1 X69.809 Y43.46 E17.7443
G1 X69.841 Y44.135 E17.76677
G1 X69.851 Y44.473 E17.77802
G1 X69.859 Y45.225 E17.80303
G1 X69.843 Y46.109 E17.83244
G1 X69.829 Y46.458 E17.84406
G1 X69.809 Y46.812 E17.85585
G1 X69.755 Y47.557 E17.88069
G1 X69.723 Y47.918 E17.89275
G1 X69.647 Y48.597 E17.91547
G1 X69.567 Y49.2 E17.9357
G1 X69.518 Y49.531 E17.94683
G1 X69.392 Y50.272 E17.97183
G1 X69.272 Y50.886 E17.99264
G1 X69.206 Y51.197 E18.00321
G1 X69.039 Y51.916 E18.02777
G1 X68.719 Y53.155 E18.07033
G1 X68.11 Y55.658 E18.15601
G1 X67.569 Y58.185 E18.24196
G1 X67.127 Y60.595 E18.32345
G1 X66.742 Y63.077 E18.40699
