;FLAVOR:Marlin
;TIME:7640
;Filament used: 4.73172m
;Layer height: 0.2
;MINX:5.98
;MINY:17.154
;MINZ:0.2
;MAXX:62.953
;MAXY:105.638
;MAXZ:43
;Generated with Cura_SteamEngine 4.6.1
M140 S65
M105
M190 S65
M104 S210
M105
M109 S210
M82 ;absolute extrusion mode
; Ender 3 Custom Start G-code
G92 E0 ; Reset Extruder
G28 ; Home all axes
G1 Z2.0 F3000 ; Move Z Axis up little to prevent scratching of Heat Bed
G1 X0.1 Y20 Z0.3 F5000.0 ; Move to start position
G1 X0.1 Y200.0 Z0.3 F1500.0 E15 ; Draw the first line
G1 X0.4 Y200.0 Z0.3 F5000.0 ; Move to side a little
G1 X0.4 Y20 Z0.3 F1500.0 E30 ; Draw the second line
G92 E0 ; Reset Extruder
G1 Z2.0 F3000 ; Move Z Axis up little to prevent scratching of Heat Bed
G1 X5 Y20 Z0.3 F5000.0 ; Move over to prevent blob squish
G92 E0
G92 E0
G1 F1500 E-6.5
;LAYER_COUNT:215
;LAYER:0
M107
G0 F6000 X35.851 Y17.985 Z0.2
;TYPE:SKIRT
G1 F1500 E0
G1 F1200 X36.199 Y18.006 E0.0116
G1 X37.027 Y18.07 E0.03922
G1 X37.598 Y18.128 E0.05831
G1 X37.899 Y18.166 E0.0684
G1 X38.786 Y18.291 E0.09819
G1 X39.383 Y18.39 E0.11832
G1 X39.668 Y18.445 E0.12797
G1 X40.472 Y18.611 E0.15528
G1 X40.832 Y18.692 E0.16755
G1 X41.377 Y18.829 E0.18624
G1 X42.227 Y19.062 E0.21555
G1 X42.781 Y19.228 E0.23479
G1 X43.111 Y19.336 E0.24634
G1 X44.192 Y19.715 E0.28444
G1 X44.434 Y19.807 E0.29305
G1 X44.749 Y19.933 E0.30433
G1 X45.823 Y20.388 E0.34313
G1 X46.361 Y20.638 E0.36286
G1 X47.118 Y21.012 E0.39094
G1 X47.64 Y21.285 E0.41054
G1 X47.937 Y21.45 E0.42184
G1 X48.655 Y21.864 E0.4494
G1 X49.162 Y22.172 E0.46913
G1 X49.412 Y22.333 E0.47902
G1 X50.151 Y22.824 E0.50853
G1 X50.694 Y23.206 E0.53062
G1 X50.927 Y23.377 E0.54023
G1 X51.765 Y24.02 E0.57536
G1 X51.988 Y24.2 E0.58489
G1 X52.268 Y24.435 E0.59705
G1 X53.117 Y25.175 E0.63451
G1 X53.296 Y25.338 E0.64256
G1 X53.599 Y25.626 E0.65646
G1 X54.408 Y26.432 E0.69445
G1 X54.593 Y26.625 E0.70334
G1 X54.849 Y26.901 E0.71586
G1 X55.586 Y27.735 E0.75288
G1 X55.761 Y27.943 E0.76192
G1 X55.98 Y28.212 E0.77345
G1 X56.509 Y28.886 E0.80195
G1 X56.839 Y29.328 E0.8203
G1 X57.018 Y29.581 E0.83061
G1 X57.715 Y30.604 E0.87178
G1 X57.844 Y30.805 E0.87972
G1 X58.018 Y31.086 E0.89071
G1 X58.449 Y31.808 E0.91868
G1 X58.628 Y32.119 E0.93062
G1 X58.886 Y32.596 E0.94865
G1 X59.285 Y33.371 E0.97765
G1 X59.526 Y33.866 E0.99596
G1 X59.672 Y34.187 E1.00769
G1 X60.127 Y35.242 E1.0459
G1 X60.232 Y35.503 E1.05526
G1 X60.37 Y35.866 E1.06817
G1 X60.736 Y36.897 E1.10456
G1 X60.829 Y37.181 E1.1145
G1 X60.926 Y37.496 E1.12546
G1 X61.159 Y38.294 E1.15311
G1 X61.312 Y38.87 E1.17294
G1 X61.381 Y39.158 E1.18279
G1 X61.636 Y40.315 E1.22219
G1 X61.693 Y40.614 E1.23231
G1 X61.749 Y40.938 E1.24325
G1 X61.877 Y41.751 E1.27062
G1 X61.954 Y42.33 E1.29005
G1 X61.987 Y42.639 E1.30039
G1 X62.069 Y43.524 E1.32995
G1 X62.111 Y44.13 E1.35015
G1 X62.125 Y44.436 E1.36034
G1 X62.149 Y45.226 E1.38663
G1 X62.153 Y45.826 E1.40659
G1 X62.147 Y46.131 E1.41673
G1 X62.116 Y47.045 E1.44715
G1 X62.083 Y47.621 E1.46634
G1 X62.057 Y47.936 E1.47685
G1 X61.975 Y48.769 E1.50469
G1 X61.935 Y49.118 E1.51637
G1 X61.895 Y49.418 E1.52644
G1 X61.85 Y49.717 E1.5365
G1 X61.661 Y50.842 E1.57444
G1 X61.608 Y51.112 E1.58359
G1 X61.477 Y51.7 E1.60363
G1 X60.907 Y54.348 E1.69372
G1 X60.448 Y56.818 E1.77728
G1 X60.057 Y59.332 E1.8619
G1 X59.738 Y61.837 E1.94589
G1 X59.487 Y64.38 E2.03088
G1 X59.307 Y66.921 E2.1156
G1 X59.202 Y69.444 E2.19959
G1 X59.166 Y72.016 E2.28515
G1 X59.165 Y94.056 E3.0182
G1 X59.154 Y94.783 E3.04238
G1 X59.1 Y95.685 E3.07244
G1 X58.967 Y96.578 E3.10247
G1 X58.755 Y97.456 E3.13251
G1 X58.467 Y98.312 E3.16255
G1 X58.104 Y99.139 E3.19258
G1 X57.669 Y99.93 E3.22261
G1 X57.166 Y100.68 E3.25265
G1 X56.599 Y101.383 E3.28268
G1 X55.971 Y102.033 E3.31275
G1 X55.289 Y102.624 E3.34276
G1 X54.557 Y103.153 E3.3728
G1 X53.781 Y103.615 E3.40284
G1 X52.967 Y104.007 E3.43289
G1 X52.122 Y104.325 E3.46292
G1 X51.252 Y104.567 E3.49295
G1 X50.364 Y104.731 E3.52299
G1 X49.243 Y104.825 E3.5604
G1 X48.636 Y104.838 E3.58059
G1 X20.541 Y104.837 E4.51504
G1 X19.843 Y104.828 E4.53826
G1 X18.942 Y104.777 E4.56827
G1 X18.048 Y104.645 E4.59833
G1 X17.17 Y104.436 E4.62835
G1 X16.313 Y104.149 E4.65841
G1 X15.486 Y103.788 E4.68842
G1 X14.693 Y103.355 E4.71847
G1 X13.942 Y102.854 E4.7485
G1 X13.238 Y102.288 E4.77854
G1 X12.587 Y101.662 E4.80858
G1 X11.994 Y100.981 E4.83861
G1 X11.464 Y100.25 E4.86864
G1 X11 Y99.475 E4.89869
G1 X10.606 Y98.662 E4.92874
G1 X10.286 Y97.818 E4.95876
G1 X10.042 Y96.948 E4.98881
G1 X9.876 Y96.06 E5.01886
G1 X9.779 Y94.905 E5.05741
G1 X9.766 Y94.296 E5.07767
G1 X9.766 Y72.041 E5.81787
G1 X9.729 Y69.435 E5.90456
G1 X9.62 Y66.867 E5.99005
G1 X9.443 Y64.365 E6.07347
G1 X9.194 Y61.852 E6.15746
G1 X8.866 Y59.289 E6.2434
G1 X8.475 Y56.804 E6.32707
G1 X8.015 Y54.33 E6.41077
G1 X7.491 Y51.912 E6.49306
G1 X7.185 Y50.357 E6.54577
G1 X7.146 Y50.127 E6.55353
G1 X7.094 Y49.786 E6.565
G1 X6.941 Y48.617 E6.60421
G1 X6.912 Y48.336 E6.61361
G1 X6.884 Y48.014 E6.62436
G1 X6.808 Y46.879 E6.66219
G1 X6.787 Y46.24 E6.68346
G1 X6.78 Y45.475 E6.7089
G1 X6.79 Y44.846 E6.72983
G1 X6.802 Y44.533 E6.74025
G1 X6.85 Y43.656 E6.76946
G1 X6.902 Y43.05 E6.78969
G1 X7.031 Y41.926 E6.82732
G1 X7.084 Y41.529 E6.84064
G1 X7.174 Y40.977 E6.85924
G1 X7.322 Y40.179 E6.88623
G1 X7.452 Y39.566 E6.90708
G1 X7.515 Y39.298 E6.91623
G1 X7.801 Y38.178 E6.95468
G1 X7.871 Y37.931 E6.96322
G1 X7.976 Y37.586 E6.97521
G1 X8.339 Y36.473 E7.01415
G1 X8.43 Y36.217 E7.02319
G1 X8.551 Y35.893 E7.03469
G1 X8.86 Y35.109 E7.06272
G1 X9.092 Y34.56 E7.08254
G1 X9.219 Y34.276 E7.09289
G1 X9.587 Y33.49 E7.12176
G1 X9.839 Y32.983 E7.14059
G1 X9.998 Y32.681 E7.15194
G1 X10.408 Y31.935 E7.18025
G1 X10.7 Y31.434 E7.19954
G1 X10.845 Y31.197 E7.20878
G1 X11.334 Y30.425 E7.23917
G1 X11.618 Y29.998 E7.25623
G1 X11.823 Y29.705 E7.26812
G1 X12.35 Y28.982 E7.29788
G1 X12.717 Y28.503 E7.31795
G1 X12.913 Y28.26 E7.32833
G1 X13.423 Y27.647 E7.35486
G1 X13.843 Y27.167 E7.37607
G1 X14.041 Y26.95 E7.38584
G1 X14.612 Y26.343 E7.41356
G1 X15.03 Y25.921 E7.43331
G1 X15.233 Y25.726 E7.44268
G1 X15.915 Y25.089 E7.47372
G1 X16.177 Y24.852 E7.48547
G1 X16.642 Y24.453 E7.50584
G1 X17.192 Y24.002 E7.5295
G1 X17.669 Y23.629 E7.54964
G1 X17.934 Y23.431 E7.56064
G1 X18.682 Y22.893 E7.59129
G1 X19.151 Y22.572 E7.61019
G1 X19.431 Y22.39 E7.6213
G1 X20.111 Y21.964 E7.64799
G1 X20.44 Y21.766 E7.66076
G1 X20.885 Y21.514 E7.67777
G1 X21.666 Y21.09 E7.70733
G1 X22 Y20.917 E7.71984
G1 X22.512 Y20.667 E7.73879
G1 X23.243 Y20.329 E7.76557
G1 X23.776 Y20.098 E7.78489
G1 X24.077 Y19.976 E7.7957
G1 X25.22 Y19.541 E7.83637
G1 X25.466 Y19.455 E7.84504
G1 X25.774 Y19.353 E7.85583
G1 X26.844 Y19.021 E7.89309
G1 X27.074 Y18.956 E7.90104
G1 X27.458 Y18.856 E7.91424
G1 X28.549 Y18.593 E7.95157
G1 X29.151 Y18.467 E7.97202
G1 X30.033 Y18.31 E8.00182
G1 X30.597 Y18.224 E8.0208
G1 X30.862 Y18.19 E8.02968
G1 X31.759 Y18.087 E8.05971
G1 X32.099 Y18.053 E8.07108
G1 X32.395 Y18.029 E8.08096
G1 X32.712 Y18.009 E8.09152
G1 X33.475 Y17.971 E8.11693
G1 X34.088 Y17.955 E8.13732
G1 X34.396 Y17.954 E8.14757
G1 X35.263 Y17.965 E8.17641
G1 X35.851 Y17.985 E8.19598
G0 F6000 X35.868 Y17.586
G1 F1200 X36.23 Y17.608 E8.20804
G1 X37.058 Y17.672 E8.23566
G1 X37.642 Y17.73 E8.25518
G1 X37.955 Y17.77 E8.26567
G1 X38.842 Y17.895 E8.29547
G1 X39.453 Y17.996 E8.31606
G1 X39.749 Y18.053 E8.32609
G1 X40.553 Y18.219 E8.3534
G1 X40.927 Y18.303 E8.36614
G1 X41.482 Y18.443 E8.38518
G1 X42.332 Y18.676 E8.4145
G1 X42.899 Y18.845 E8.43417
G1 X43.242 Y18.958 E8.44619
G1 X44.334 Y19.341 E8.48468
G1 X44.576 Y19.433 E8.49329
G1 X44.904 Y19.564 E8.50503
G1 X45.692 Y19.894 E8.53345
G1 X46.235 Y20.136 E8.55322
G1 X46.538 Y20.28 E8.56438
G1 X47.586 Y20.803 E8.60333
G1 X47.828 Y20.932 E8.61246
G1 X48.137 Y21.103 E8.6242
G1 X48.855 Y21.517 E8.65177
G1 X49.373 Y21.833 E8.67195
G1 X49.633 Y22 E8.68223
G1 X50.372 Y22.491 E8.71174
G1 X50.68 Y22.704 E8.72419
G1 X51.169 Y23.059 E8.74429
G1 X52.016 Y23.709 E8.7798
G1 X52.239 Y23.889 E8.78933
G1 X52.531 Y24.133 E8.80199
G1 X53.565 Y25.043 E8.8478
G1 X53.88 Y25.342 E8.86225
G1 X54.697 Y26.155 E8.90058
G1 X54.882 Y26.348 E8.90947
G1 X55.148 Y26.635 E8.92249
G1 X55.892 Y27.478 E8.95989
G1 X56.067 Y27.686 E8.96893
G1 X56.294 Y27.965 E8.98089
G1 X56.823 Y28.639 E9.00939
G1 X57.162 Y29.092 E9.02821
G1 X57.348 Y29.354 E9.03889
G1 X57.868 Y30.111 E9.06944
G1 X58.181 Y30.589 E9.08844
G1 X58.362 Y30.881 E9.09987
G1 X58.793 Y31.603 E9.12784
G1 X59.104 Y32.155 E9.14891
G1 X59.241 Y32.413 E9.15863
G1 X59.784 Y33.478 E9.19839
G1 X59.887 Y33.694 E9.20634
G1 X60.039 Y34.027 E9.21852
G1 X60.498 Y35.093 E9.25712
G1 X60.603 Y35.354 E9.26648
G1 X60.746 Y35.731 E9.27989
G1 X61.116 Y36.772 E9.31664
G1 X61.209 Y37.056 E9.32658
G1 X61.31 Y37.384 E9.33799
G1 X61.543 Y38.182 E9.36564
G1 X61.7 Y38.771 E9.38591
G1 X61.772 Y39.07 E9.39614
G1 X61.959 Y39.903 E9.42454
G1 X62.085 Y40.539 E9.4461
G1 X62.144 Y40.875 E9.45745
G1 X62.272 Y41.688 E9.48482
G1 X62.351 Y42.281 E9.50472
G1 X62.386 Y42.602 E9.51546
G1 X62.468 Y43.487 E9.54502
G1 X62.511 Y44.106 E9.56566
G1 X62.525 Y44.424 E9.57625
G1 X62.549 Y45.214 E9.60253
G1 X62.553 Y45.828 E9.62296
G1 X62.547 Y46.144 E9.63347
G1 X62.516 Y47.058 E9.66389
G1 X62.482 Y47.648 E9.68354
G1 X62.455 Y47.975 E9.69445
G1 X62.373 Y48.808 E9.72229
G1 X62.331 Y49.171 E9.73445
G1 X62.245 Y49.781 E9.75494
G1 X62.113 Y50.588 E9.78213
G1 X62 Y51.189 E9.80247
G1 X61.927 Y51.532 E9.81414
G1 X61.857 Y51.835 E9.82448
G1 X61.305 Y54.4 E9.91175
G1 X60.837 Y56.919 E9.99696
G1 X60.456 Y59.367 E10.07936
G1 X60.134 Y61.891 E10.16399
G1 X59.885 Y64.412 E10.24825
G1 X59.708 Y66.934 E10.33234
G1 X59.602 Y69.465 E10.41659
G1 X59.566 Y72.022 E10.50165
G1 X59.565 Y94.062 E11.2347
G1 X59.554 Y94.789 E11.25888
G1 X59.5 Y95.708 E11.2895
G1 X59.366 Y96.619 E11.32013
G1 X59.154 Y97.515 E11.35075
G1 X58.866 Y98.389 E11.38136
G1 X58.502 Y99.235 E11.41199
G1 X58.066 Y100.046 E11.44262
G1 X57.562 Y100.816 E11.47323
G1 X56.992 Y101.54 E11.50387
G1 X56.362 Y102.211 E11.53449
G1 X55.677 Y102.825 E11.56508
G1 X54.94 Y103.378 E11.59573
G1 X54.158 Y103.864 E11.62635
G1 X53.337 Y104.281 E11.65698
G1 X52.483 Y104.625 E11.6876
G1 X51.603 Y104.893 E11.7182
G1 X50.702 Y105.084 E11.74883
G1 X49.788 Y105.196 E11.77946
G1 X49.254 Y105.225 E11.79724
G1 X48.636 Y105.238 E11.8178
G1 X20.536 Y105.237 E12.75241
G1 X19.838 Y105.228 E12.77563
G1 X18.919 Y105.176 E12.80624
G1 X18.008 Y105.045 E12.83686
G1 X17.112 Y104.835 E12.86747
G1 X16.237 Y104.548 E12.89809
G1 X15.39 Y104.186 E12.92873
G1 X14.578 Y103.752 E12.95935
G1 X13.807 Y103.25 E12.98995
G1 X13.082 Y102.682 E13.02059
G1 X12.409 Y102.053 E13.05122
G1 X11.794 Y101.369 E13.08182
G1 X11.24 Y100.634 E13.11243
G1 X10.752 Y99.853 E13.14306
G1 X10.333 Y99.033 E13.17369
G1 X9.987 Y98.18 E13.2043
G1 X9.717 Y97.3 E13.23492
G1 X9.524 Y96.399 E13.26557
G1 X9.41 Y95.486 E13.29617
G1 X9.379 Y94.915 E13.31519
G1 X9.366 Y94.296 E13.33578
G1 X9.366 Y72.047 E14.07579
G1 X9.329 Y69.422 E14.1631
G1 X9.222 Y66.914 E14.24659
G1 X9.044 Y64.393 E14.33065
G1 X8.794 Y61.875 E14.41481
G1 X8.473 Y59.364 E14.49901
G1 X8.086 Y56.902 E14.5819
G1 X7.619 Y54.391 E14.66685
G1 X7.099 Y51.991 E14.74853
G1 X6.79 Y50.424 E14.80165
G1 X6.751 Y50.194 E14.80941
G1 X6.697 Y49.84 E14.82132
G1 X6.582 Y48.988 E14.84991
G1 X6.514 Y48.377 E14.87036
G1 X6.485 Y48.042 E14.88154
G1 X6.408 Y46.895 E14.91978
G1 X6.387 Y46.244 E14.94144
G1 X6.38 Y45.479 E14.96689
G1 X6.39 Y44.836 E14.98828
G1 X6.403 Y44.511 E14.99909
G1 X6.451 Y43.634 E15.02831
G1 X6.504 Y43.004 E15.04933
G1 X6.633 Y41.88 E15.08696
G1 X6.728 Y41.216 E15.10927
G1 X6.781 Y40.904 E15.1198
G1 X6.929 Y40.106 E15.14679
G1 X7.004 Y39.735 E15.15938
G1 X7.127 Y39.2 E15.17764
G1 X7.334 Y38.376 E15.2059
G1 X7.487 Y37.822 E15.22502
G1 X7.595 Y37.463 E15.23748
G1 X7.962 Y36.339 E15.27681
G1 X8.053 Y36.083 E15.28585
G1 X8.179 Y35.746 E15.29781
G1 X8.488 Y34.962 E15.32584
G1 X8.724 Y34.402 E15.34605
G1 X8.857 Y34.106 E15.35685
G1 X9.225 Y33.32 E15.38571
G1 X9.482 Y32.802 E15.40495
G1 X9.648 Y32.489 E15.41673
G1 X10.058 Y31.743 E15.44504
G1 X10.356 Y31.229 E15.4648
G1 X10.507 Y30.983 E15.4744
G1 X11.171 Y29.944 E15.51542
G1 X11.286 Y29.774 E15.52224
G1 X11.5 Y29.469 E15.53463
G1 X12.027 Y28.746 E15.56439
G1 X12.402 Y28.257 E15.58489
G1 X12.605 Y28.005 E15.59565
G1 X13.115 Y27.392 E15.62217
G1 X13.544 Y26.901 E15.64386
G1 X13.749 Y26.676 E15.65398
G1 X14.32 Y26.069 E15.6817
G1 X14.749 Y25.636 E15.70197
G1 X14.96 Y25.433 E15.71171
G1 X15.642 Y24.796 E15.74275
G1 X15.914 Y24.551 E15.75493
G1 X16.389 Y24.143 E15.77575
G1 X16.939 Y23.692 E15.79941
G1 X17.425 Y23.312 E15.81993
G1 X17.701 Y23.107 E15.83136
G1 X18.719 Y22.38 E15.87297
G1 X18.927 Y22.24 E15.88131
G1 X19.219 Y22.051 E15.89288
G1 X19.899 Y21.625 E15.91957
G1 X20.467 Y21.29 E15.9415
G1 X20.695 Y21.162 E15.9502
G1 X21.476 Y20.738 E15.97975
G1 X22.082 Y20.43 E16.00236
G1 X22.344 Y20.304 E16.01203
G1 X23.075 Y19.966 E16.03882
G1 X23.621 Y19.729 E16.05862
G1 X23.933 Y19.603 E16.06981
G1 X24.777 Y19.278 E16.09989
G1 X25.334 Y19.078 E16.11957
G1 X25.654 Y18.972 E16.13078
G1 X26.735 Y18.637 E16.16843
G1 X26.965 Y18.572 E16.17637
G1 X27.364 Y18.467 E16.1901
G1 X28.455 Y18.204 E16.22742
G1 X29.081 Y18.073 E16.2487
G1 X29.963 Y17.916 E16.27849
G1 X30.541 Y17.827 E16.29794
G1 X30.817 Y17.792 E16.3072
G1 X31.714 Y17.689 E16.33723
G1 X32.362 Y17.631 E16.35887
G1 X32.692 Y17.609 E16.36987
G1 X33.455 Y17.571 E16.39527
G1 X34.081 Y17.555 E16.4161
G1 X34.401 Y17.554 E16.42675
G1 X35.268 Y17.565 E16.45558
G1 X35.868 Y17.586 E16.47555
G0 F6000 X35.886 Y17.186
G1 F1200 X36.261 Y17.209 E16.48805
G1 X37.089 Y17.273 E16.51567
G1 X37.686 Y17.333 E16.53563
G1 X38.011 Y17.374 E16.54652
G1 X38.898 Y17.499 E16.57631
G1 X39.523 Y17.602 E16.59738
G1 X39.83 Y17.661 E16.60778
G1 X40.634 Y17.827 E16.63509
G1 X41.292 Y17.981 E16.65756
G1 X41.588 Y18.057 E16.66773
G1 X42.438 Y18.29 E16.69704
G1 X43.017 Y18.463 E16.71714
G1 X43.373 Y18.58 E16.7296
G1 X44.476 Y18.967 E16.76848
G1 X44.718 Y19.059 E16.77709
G1 X45.058 Y19.195 E16.78927
G1 X45.846 Y19.525 E16.81769
G1 X46.401 Y19.772 E16.83789
G1 X46.715 Y19.921 E16.84945
G1 X47.472 Y20.295 E16.87753
G1 X48.016 Y20.579 E16.89795
G1 X48.337 Y20.757 E16.91015
G1 X49.055 Y21.171 E16.93772
G1 X49.585 Y21.493 E16.95835
G1 X49.854 Y21.667 E16.969
G1 X50.593 Y22.158 E16.99851
G1 X50.913 Y22.379 E17.01145
G1 X51.411 Y22.741 E17.03192
G1 X52.267 Y23.397 E17.06779
G1 X52.49 Y23.577 E17.07732
G1 X52.793 Y23.831 E17.09048
G1 X53.834 Y24.747 E17.13659
G1 X54.162 Y25.058 E17.15163
G1 X54.986 Y25.878 E17.19029
G1 X55.171 Y26.071 E17.19918
G1 X55.446 Y26.369 E17.21267
G1 X56.198 Y27.22 E17.25044
G1 X56.373 Y27.428 E17.25948
G1 X56.609 Y27.718 E17.27192
G1 X57.138 Y28.392 E17.30042
G1 X57.485 Y28.855 E17.31966
G1 X57.678 Y29.128 E17.33078
G1 X58.198 Y29.885 E17.36133
G1 X58.517 Y30.373 E17.38072
G1 X58.705 Y30.676 E17.39258
G1 X59.136 Y31.398 E17.42055
G1 X59.454 Y31.962 E17.44208
G1 X59.597 Y32.23 E17.45218
G1 X60.145 Y33.305 E17.49232
G1 X60.248 Y33.521 E17.50028
G1 X60.406 Y33.868 E17.51296
G1 X60.869 Y34.943 E17.55189
G1 X60.974 Y35.204 E17.56124
G1 X61.123 Y35.596 E17.57519
G1 X61.496 Y36.648 E17.61232
G1 X61.589 Y36.932 E17.62226
G1 X61.694 Y37.272 E17.63409
G1 X61.927 Y38.07 E17.66174
G1 X62.087 Y38.672 E17.68246
G1 X62.162 Y38.983 E17.6931
G1 X62.349 Y39.816 E17.72149
G1 X62.478 Y40.464 E17.74347
G1 X62.539 Y40.813 E17.75525
G1 X62.667 Y41.626 E17.78263
G1 X62.748 Y42.232 E17.80296
G1 X62.784 Y42.565 E17.8141
G1 X62.866 Y43.45 E17.84366
G1 X62.91 Y44.082 E17.86473
G1 X62.925 Y44.412 E17.87572
G1 X62.949 Y45.202 E17.90201
G1 X62.953 Y45.829 E17.92286
G1 X62.947 Y46.158 E17.93381
G1 X62.916 Y47.072 E17.96423
G1 X62.881 Y47.675 E17.98432
G1 X62.853 Y48.015 E17.99566
G1 X62.771 Y48.848 E18.0235
G1 X62.728 Y49.224 E18.03609
G1 X62.688 Y49.524 E18.04616
G1 X62.64 Y49.846 E18.05698
G1 X62.508 Y50.653 E18.08418
G1 X62.393 Y51.266 E18.10493
G1 X62.317 Y51.622 E18.11703
G1 X62.243 Y51.943 E18.12799
G1 X61.696 Y54.485 E18.21447
G1 X61.232 Y56.983 E18.29898
G1 X60.854 Y59.412 E18.38074
G1 X60.531 Y61.944 E18.46563
G1 X60.284 Y64.443 E18.54916
G1 X60.105 Y66.978 E18.63368
