;FLAVOR:Marlin
;TIME:6703
;Filament used: 4.39673m
;Layer height: 0.2
;MINX:11.748
;MINY:19.33
;MINZ:0.2
;MAXX:68.713
;MAXY:110.31
;MAXZ:43
;Generated with Cura_SteamEngine 4.6.1
M140 S65
M105
M190 S65
M104 S210
M105
M109 S210
M82 ;absolute extrusion mode
; Ender 3 Custom Start G-code
G92 E0 ; Reset Extruder
G28 ; Home all axes
G1 Z2.0 F3000 ; Move Z Axis up little to prevent scratching of Heat Bed
G1 X0.1 Y20 Z0.3 F5000.0 ; Move to start position
G1 X0.1 Y200.0 Z0.3 F1500.0 E15 ; Draw the first line
G1 X0.4 Y200.0 Z0.3 F5000.0 ; Move to side a little
G1 X0.4 Y20 Z0.3 F1500.0 E30 ; Draw the second line
G92 E0 ; Reset Extruder
G1 Z2.0 F3000 ; Move Z Axis up little to prevent scratching of Heat Bed
G1 X5 Y20 Z0.3 F5000.0 ; Move over to prevent blob squish
G92 E0
G92 E0
G1 F1500 E-6.5
;LAYER_COUNT:215
;LAYER:0
M107
G0 F6000 X41.888 Y20.178 Z0.2
;TYPE:SKIRT
G1 F1500 E0
G1 F1200 X43.127 Y20.279 E0.04135
G1 X43.516 Y20.318 E0.05435
G1 X44.168 Y20.4 E0.07621
G1 X44.512 Y20.451 E0.08777
G1 X44.905 Y20.517 E0.10103
G1 X45.823 Y20.69 E0.1321
G1 X46.384 Y20.809 E0.15117
G1 X47.067 Y20.977 E0.17456
G1 X47.778 Y21.175 E0.19911
G1 X48.877 Y21.51 E0.23733
G1 X49.22 Y21.622 E0.24933
G1 X49.819 Y21.831 E0.27043
G1 X50.175 Y21.964 E0.28307
G1 X50.573 Y22.123 E0.29732
G1 X51.075 Y22.335 E0.31545
G1 X51.424 Y22.49 E0.32815
G1 X52.49 Y22.988 E0.36728
G1 X52.813 Y23.145 E0.37923
G1 X53.439 Y23.47 E0.40269
G1 X53.715 Y23.621 E0.41315
G1 X54.075 Y23.827 E0.42694
G1 X54.579 Y24.13 E0.4465
G1 X54.902 Y24.333 E0.45919
G1 X55.857 Y24.957 E0.49714
G1 X56.162 Y25.164 E0.5094
G1 X56.686 Y25.538 E0.53081
G1 X56.929 Y25.718 E0.54087
G1 X57.262 Y25.975 E0.55486
G1 X57.738 Y26.359 E0.5752
G1 X58.068 Y26.637 E0.58955
G1 X58.919 Y27.385 E0.62723
G1 X59.157 Y27.601 E0.63792
G1 X59.472 Y27.896 E0.65228
G1 X59.938 Y28.355 E0.67403
G1 X60.191 Y28.616 E0.68612
G1 X60.61 Y29.066 E0.70657
G1 X60.887 Y29.376 E0.7204
G1 X61.599 Y30.206 E0.75677
G1 X61.806 Y30.455 E0.76754
G1 X62.081 Y30.797 E0.78214
G1 X62.296 Y31.074 E0.7938
G1 X62.751 Y31.694 E0.81938
G1 X63.072 Y32.161 E0.83823
G1 X63.254 Y32.435 E0.84917
G1 X63.869 Y33.397 E0.88714
G1 X64.059 Y33.707 E0.89924
G1 X64.391 Y34.276 E0.92115
G1 X64.777 Y34.988 E0.94808
G1 X65.03 Y35.494 E0.9669
G1 X65.181 Y35.81 E0.97855
G1 X65.669 Y36.883 E1.01775
G1 X65.808 Y37.203 E1.02936
G1 X66.085 Y37.883 E1.05378
G1 X66.181 Y38.136 E1.06278
G1 X66.306 Y38.485 E1.07511
G1 X66.503 Y39.067 E1.09555
G1 X66.629 Y39.469 E1.10956
G1 X66.961 Y40.602 E1.14883
G1 X67.136 Y41.285 E1.17228
G1 X67.4 Y42.489 E1.21327
G1 X67.531 Y43.207 E1.23755
G1 X67.708 Y44.425 E1.27848
G1 X67.753 Y44.775 E1.29022
G1 X67.819 Y45.418 E1.31172
G1 X67.851 Y45.811 E1.32483
G1 X67.875 Y46.193 E1.33757
G1 X67.899 Y46.741 E1.35581
G1 X67.909 Y47.152 E1.36948
G1 X67.913 Y48.305 E1.40783
G1 X67.908 Y48.66 E1.41964
G1 X67.883 Y49.305 E1.44111
G1 X67.857 Y49.736 E1.45547
G1 X67.825 Y50.136 E1.46882
G1 X67.704 Y51.3 E1.50774
G1 X67.659 Y51.643 E1.51925
G1 X67.599 Y52.042 E1.53267
G1 X67.395 Y53.204 E1.57191
G1 X67.32 Y53.573 E1.58443
G1 X67.223 Y53.999 E1.59896
G1 X66.764 Y55.825 E1.66158
G1 X66.166 Y58.296 E1.74614
G1 X65.634 Y60.806 E1.83148
G1 X65.181 Y63.281 E1.91517
G1 X64.798 Y65.773 E1.99902
G1 X64.482 Y68.304 E2.08386
G1 X64.236 Y70.853 E2.16903
G1 X64.066 Y73.353 E2.25237
G1 X63.964 Y75.921 E2.33785
G1 X63.935 Y78.237 E2.41489
G1 X63.934 Y98.728 E3.09642
G1 X63.923 Y99.455 E3.12061
G1 X63.869 Y100.357 E3.15066
G1 X63.736 Y101.25 E3.18069
G1 X63.524 Y102.128 E3.21073
G1 X63.236 Y102.984 E3.24077
G1 X62.873 Y103.811 E3.27081
G1 X62.438 Y104.602 E3.30083
G1 X61.935 Y105.352 E3.33087
G1 X61.368 Y106.055 E3.36091
G1 X60.74 Y106.705 E3.39097
G1 X60.058 Y107.296 E3.42099
G1 X59.326 Y107.825 E3.45102
G1 X58.55 Y108.287 E3.48106
G1 X57.736 Y108.679 E3.51111
G1 X56.891 Y108.997 E3.54114
G1 X56.021 Y109.239 E3.57118
G1 X55.133 Y109.403 E3.60121
G1 X54.012 Y109.497 E3.63863
G1 X53.405 Y109.51 E3.65882
G1 X27.31 Y109.509 E4.52674
G1 X26.612 Y109.5 E4.54996
G1 X25.711 Y109.449 E4.57998
G1 X24.817 Y109.317 E4.61003
G1 X23.939 Y109.108 E4.64005
G1 X23.082 Y108.821 E4.67011
G1 X22.255 Y108.46 E4.70012
G1 X21.462 Y108.027 E4.73017
G1 X20.711 Y107.526 E4.7602
G1 X20.007 Y106.96 E4.79025
G1 X19.356 Y106.334 E4.82028
G1 X18.763 Y105.653 E4.85032
G1 X18.233 Y104.922 E4.88035
G1 X17.769 Y104.147 E4.91039
G1 X17.375 Y103.334 E4.94044
G1 X17.055 Y102.49 E4.97046
G1 X16.811 Y101.62 E5.00052
G1 X16.645 Y100.732 E5.03056
G1 X16.548 Y99.577 E5.06911
G1 X16.535 Y98.968 E5.08937
G1 X16.535 Y78.187 E5.78055
G1 X16.498 Y75.601 E5.86657
G1 X16.389 Y73.033 E5.95206
G1 X16.212 Y70.531 E6.03548
G1 X15.963 Y68.018 E6.11948
G1 X15.635 Y65.455 E6.20542
G1 X15.244 Y62.97 E6.28909
G1 X14.784 Y60.494 E6.37285
G1 X14.239 Y57.964 E6.45893
G1 X13.697 Y55.74 E6.53506
G1 X13.294 Y54.175 E6.58881
G1 X13.214 Y53.841 E6.60023
G1 X13.063 Y53.138 E6.62415
G1 X12.998 Y52.8 E6.6356
G1 X12.928 Y52.392 E6.64937
G1 X12.844 Y51.834 E6.66813
G1 X12.792 Y51.442 E6.68129
G1 X12.665 Y50.299 E6.71954
G1 X12.613 Y49.619 E6.74222
G1 X12.558 Y48.362 E6.78407
G1 X12.548 Y47.969 E6.79714
G1 X12.548 Y47.331 E6.81836
G1 X12.564 Y46.735 E6.83819
G1 X12.587 Y46.286 E6.85315
G1 X12.63 Y45.635 E6.87485
G1 X12.664 Y45.24 E6.88803
G1 X12.761 Y44.362 E6.91741
G1 X12.807 Y44.026 E6.92869
G1 X12.864 Y43.664 E6.94088
G1 X13.069 Y42.484 E6.98072
G1 X13.212 Y41.798 E7.00402
G1 X13.499 Y40.629 E7.04406
G1 X13.599 Y40.253 E7.057
G1 X13.799 Y39.567 E7.08077
G1 X13.897 Y39.257 E7.09158
G1 X14.022 Y38.887 E7.10457
G1 X14.205 Y38.377 E7.12259
G1 X14.347 Y38.005 E7.13583
G1 X14.797 Y36.89 E7.17582
G1 X14.938 Y36.557 E7.18785
G1 X15.218 Y35.938 E7.21045
G1 X15.352 Y35.658 E7.22077
G1 X15.53 Y35.304 E7.23395
G1 X15.801 Y34.79 E7.25328
G1 X15.998 Y34.434 E7.26681
G1 X16.579 Y33.431 E7.30536
G1 X16.767 Y33.12 E7.31745
G1 X17.139 Y32.535 E7.34051
G1 X17.326 Y32.255 E7.35171
G1 X17.547 Y31.937 E7.36459
G1 X18.075 Y31.208 E7.39453
G1 X18.446 Y30.72 E7.41491
G1 X18.88 Y30.186 E7.4378
G1 X19.112 Y29.912 E7.44974
G1 X19.345 Y29.646 E7.4615
G1 X20.135 Y28.776 E7.50059
G1 X20.375 Y28.521 E7.51224
G1 X20.884 Y28.004 E7.53637
G1 X21.121 Y27.775 E7.54733
G1 X21.38 Y27.534 E7.5591
G1 X21.816 Y27.141 E7.57862
G1 X22.129 Y26.869 E7.59241
G1 X22.989 Y26.155 E7.62959
G1 X23.27 Y25.931 E7.64154
G1 X23.85 Y25.487 E7.66583
G1 X24.608 Y24.953 E7.69667
G1 X24.966 Y24.715 E7.71097
G1 X25.277 Y24.516 E7.72325
G1 X26.23 Y23.931 E7.76044
G1 X26.529 Y23.755 E7.77198
G1 X27.139 Y23.412 E7.79526
G1 X28.026 Y22.959 E7.82839
G1 X28.891 Y22.551 E7.8602
G1 X29.193 Y22.417 E7.87119
G1 X29.533 Y22.273 E7.88347
G1 X30.059 Y22.062 E7.90232
G1 X30.466 Y21.909 E7.91678
G1 X31.587 Y21.514 E7.95631
G1 X31.93 Y21.4 E7.96833
G1 X32.55 Y21.209 E7.98991
G1 X32.916 Y21.105 E8.00256
G1 X33.291 Y21.006 E8.01546
G1 X33.788 Y20.885 E8.03248
G1 X34.186 Y20.797 E8.04603
G1 X35.352 Y20.562 E8.0856
G1 X35.723 Y20.494 E8.09814
G1 X36.39 Y20.389 E8.1206
G1 X37.37 Y20.271 E8.15343
G1 X37.757 Y20.236 E8.16635
G1 X38.092 Y20.212 E8.17752
G1 X39.242 Y20.146 E8.21584
G1 X39.95 Y20.13 E8.23939
G1 X41.183 Y20.145 E8.2804
G1 X41.888 Y20.178 E8.30388
G0 F6000 X41.92 Y19.779
G1 F1200 X43.159 Y19.88 E8.34522
G1 X43.564 Y19.921 E8.35876
G1 X44.227 Y20.005 E8.38099
G1 X44.571 Y20.056 E8.39256
G1 X44.979 Y20.124 E8.40631
G1 X45.897 Y20.297 E8.43738
G1 X46.724 Y20.478 E8.46554
G1 X47.171 Y20.591 E8.48088
G1 X47.58 Y20.702 E8.49497
G1 X47.895 Y20.793 E8.50588
G1 X48.994 Y21.128 E8.54409
G1 X49.35 Y21.243 E8.55653
G1 X49.959 Y21.456 E8.57799
G1 X50.315 Y21.589 E8.59063
G1 X50.729 Y21.754 E8.60545
G1 X51.231 Y21.966 E8.62358
G1 X51.594 Y22.127 E8.63679
G1 X52.66 Y22.625 E8.67592
G1 X52.995 Y22.789 E8.68833
G1 X53.631 Y23.119 E8.71216
G1 X53.907 Y23.27 E8.72262
G1 X54.281 Y23.484 E8.73695
G1 X54.785 Y23.787 E8.75651
G1 X55.121 Y23.998 E8.76971
G1 X56.076 Y24.622 E8.80765
G1 X56.393 Y24.838 E8.82041
G1 X56.924 Y25.216 E8.84209
G1 X57.167 Y25.396 E8.85215
G1 X57.514 Y25.664 E8.86673
G1 X57.99 Y26.048 E8.88707
G1 X58.332 Y26.336 E8.90194
G1 X59.183 Y27.084 E8.93963
G1 X59.431 Y27.309 E8.95076
G1 X59.746 Y27.604 E8.96512
G1 X60.221 Y28.072 E8.9873
G1 X60.484 Y28.344 E8.99988
G1 X60.903 Y28.794 E9.02033
G1 X61.19 Y29.115 E9.03465
G1 X61.902 Y29.945 E9.07102
G1 X62.118 Y30.205 E9.08227
G1 X62.393 Y30.547 E9.09686
G1 X62.616 Y30.834 E9.10895
G1 X63.186 Y31.619 E9.14122
G1 X63.402 Y31.934 E9.15392
G1 X63.591 Y32.22 E9.16532
G1 X64.206 Y33.182 E9.2033
G1 X64.404 Y33.504 E9.21587
G1 X64.741 Y34.081 E9.2381
G1 X65.229 Y34.994 E9.27253
G1 X65.389 Y35.316 E9.28449
G1 X65.545 Y35.645 E9.2966
G1 X66.033 Y36.718 E9.3358
G1 X66.177 Y37.05 E9.34784
G1 X66.459 Y37.741 E9.37266
G1 X66.555 Y37.994 E9.38166
G1 X66.684 Y38.356 E9.39444
G1 X66.881 Y38.938 E9.41488
G1 X67.013 Y39.356 E9.42946
G1 X67.345 Y40.489 E9.46873
G1 X67.527 Y41.2 E9.49314
G1 X67.791 Y42.404 E9.53413
G1 X67.927 Y43.15 E9.55936
G1 X68.104 Y44.368 E9.60029
G1 X68.15 Y44.731 E9.61246
G1 X68.218 Y45.386 E9.63436
G1 X68.25 Y45.779 E9.64748
G1 X68.275 Y46.175 E9.66068
G1 X68.299 Y46.723 E9.67892
G1 X68.309 Y47.15 E9.69313
G1 X68.313 Y48.303 E9.73148
G1 X68.308 Y48.672 E9.74375
G1 X68.283 Y49.329 E9.76562
G1 X68.257 Y49.76 E9.77998
G1 X68.224 Y50.176 E9.79386
G1 X68.139 Y51.027 E9.8223
G1 X68.056 Y51.695 E9.84469
G1 X67.993 Y52.11 E9.85865
G1 X67.787 Y53.283 E9.89826
G1 X67.712 Y53.652 E9.91079
G1 X67.612 Y54.095 E9.92589
G1 X67.159 Y55.899 E9.98776
G1 X66.549 Y58.416 E10.0739
G1 X66.034 Y60.848 E10.15658
G1 X65.577 Y63.343 E10.24094
G1 X65.191 Y65.851 E10.32534
G1 X64.878 Y68.355 E10.40927
G1 X64.638 Y70.846 E10.49251
G1 X64.465 Y73.396 E10.57752
G1 X64.364 Y75.942 E10.66226
G1 X64.335 Y78.242 E10.73877
G1 X64.334 Y98.734 E11.42033
G1 X64.323 Y99.461 E11.44452
G1 X64.269 Y100.38 E11.47514
G1 X64.135 Y101.291 E11.50576
G1 X63.923 Y102.187 E11.53639
G1 X63.635 Y103.061 E11.56699
G1 X63.271 Y103.907 E11.59762
G1 X62.835 Y104.718 E11.62825
G1 X62.331 Y105.488 E11.65886
G1 X61.761 Y106.212 E11.68951
G1 X61.131 Y106.883 E11.72012
G1 X60.446 Y107.497 E11.75071
G1 X59.709 Y108.05 E11.78136
G1 X58.927 Y108.536 E11.81198
G1 X58.106 Y108.953 E11.84261
G1 X57.252 Y109.297 E11.87323
G1 X56.372 Y109.565 E11.90383
G1 X55.471 Y109.756 E11.93446
G1 X54.557 Y109.868 E11.96509
G1 X54.023 Y109.897 E11.98288
G1 X53.405 Y109.91 E12.00344
G1 X27.305 Y109.909 E12.87153
G1 X26.607 Y109.9 E12.89474
G1 X25.688 Y109.848 E12.92536
G1 X24.777 Y109.717 E12.95597
G1 X23.881 Y109.507 E12.98658
G1 X23.006 Y109.22 E13.01721
G1 X22.159 Y108.858 E13.04784
G1 X21.347 Y108.424 E13.07847
G1 X20.576 Y107.922 E13.10907
G1 X19.851 Y107.354 E13.1397
G1 X19.178 Y106.725 E13.17034
G1 X18.563 Y106.041 E13.20093
G1 X18.009 Y105.306 E13.23154
G1 X17.521 Y104.525 E13.26217
G1 X17.102 Y103.705 E13.2928
G1 X16.756 Y102.852 E13.32342
G1 X16.486 Y101.972 E13.35403
G1 X16.293 Y101.071 E13.38468
G1 X16.179 Y100.158 E13.41528
G1 X16.148 Y99.587 E13.4343
G1 X16.135 Y98.968 E13.45489
G1 X16.135 Y78.187 E14.14607
G1 X16.098 Y75.588 E14.23252
G1 X15.991 Y73.08 E14.31602
G1 X15.813 Y70.559 E14.40007
G1 X15.563 Y68.041 E14.48424
G1 X15.242 Y65.53 E14.56843
G1 X14.855 Y63.068 E14.65132
G1 X14.386 Y60.546 E14.73664
G1 X13.853 Y58.072 E14.82082
G1 X13.277 Y55.71 E14.90168
G1 X12.907 Y54.274 E14.951
G1 X12.824 Y53.928 E14.96284
G1 X12.67 Y53.214 E14.98713
G1 X12.605 Y52.876 E14.99858
G1 X12.532 Y52.452 E15.01289
G1 X12.448 Y51.894 E15.03166
G1 X12.395 Y51.487 E15.04531
G1 X12.268 Y50.344 E15.08356
G1 X12.213 Y49.636 E15.10718
G1 X12.158 Y48.379 E15.14902
G1 X12.148 Y47.971 E15.1626
G1 X12.148 Y47.324 E15.18412
G1 X12.164 Y46.715 E15.20438
G1 X12.188 Y46.259 E15.21957
G1 X12.231 Y45.608 E15.24127
G1 X12.266 Y45.198 E15.25495
G1 X12.325 Y44.637 E15.27372
G1 X12.365 Y44.308 E15.28474
G1 X12.411 Y43.972 E15.29602
G1 X12.469 Y43.596 E15.30867
G1 X12.674 Y42.416 E15.34851
G1 X12.824 Y41.703 E15.37274
G1 X13.111 Y40.534 E15.41278
G1 X13.215 Y40.143 E15.42623
G1 X13.418 Y39.447 E15.45035
G1 X13.516 Y39.137 E15.46116
G1 X13.646 Y38.752 E15.47468
G1 X13.829 Y38.242 E15.4927
G1 X13.976 Y37.855 E15.50647
G1 X14.426 Y36.74 E15.54646
G1 X14.573 Y36.395 E15.55893
G1 X14.858 Y35.765 E15.58193
G1 X14.992 Y35.485 E15.59225
G1 X15.176 Y35.117 E15.60594
G1 X15.447 Y34.603 E15.62526
G1 X15.652 Y34.234 E15.6393
G1 X16.233 Y33.231 E15.67786
G1 X16.428 Y32.907 E15.69043
G1 X16.806 Y32.313 E15.71385
G1 X16.993 Y32.033 E15.72505
G1 X17.223 Y31.702 E15.73846
G1 X17.751 Y30.973 E15.76839
G1 X18.129 Y30.476 E15.78916
G1 X18.574 Y29.927 E15.81267
G1 X18.806 Y29.653 E15.82461
G1 X19.049 Y29.377 E15.83684
G1 X19.839 Y28.507 E15.87593
G1 X20.088 Y28.242 E15.88802
G1 X20.606 Y27.716 E15.91257
G1 X20.843 Y27.487 E15.92353
G1 X21.112 Y27.236 E15.93577
G1 X21.548 Y26.843 E15.95529
G1 X21.874 Y26.561 E15.96963
G1 X22.734 Y25.847 E16.00681
G1 X23.025 Y25.614 E16.01921
G1 X23.615 Y25.164 E16.04389
G1 X24.216 Y24.735 E16.06845
G1 X24.745 Y24.382 E16.0896
G1 X25.068 Y24.175 E16.10236
G1 X26.021 Y23.59 E16.13955
G1 X26.331 Y23.407 E16.15152
G1 X26.951 Y23.059 E16.17517
G1 X27.854 Y22.598 E16.20889
G1 X28.729 Y22.185 E16.24107
G1 X29.031 Y22.051 E16.25206
G1 X29.384 Y21.902 E16.26481
G1 X29.91 Y21.691 E16.28366
G1 X30.333 Y21.531 E16.2987
G1 X31.454 Y21.136 E16.33823
G1 X31.81 Y21.018 E16.3507
G1 X32.441 Y20.825 E16.37265
G1 X32.807 Y20.721 E16.38531
G1 X33.197 Y20.618 E16.39872
G1 X33.694 Y20.497 E16.41574
G1 X34.107 Y20.405 E16.42981
G1 X35.273 Y20.17 E16.46937
G1 X35.658 Y20.1 E16.48239
G1 X36.336 Y19.993 E16.50522
G1 X37.124 Y19.894 E16.53163
G1 X37.721 Y19.838 E16.55157
G1 X38.069 Y19.812 E16.56318
G1 X39.219 Y19.746 E16.60149
G1 X39.955 Y19.73 E16.62598
G1 X41.188 Y19.745 E16.66699
G1 X41.92 Y19.779 E16.69136
G0 F6000 X41.953 Y19.38
G1 F1200 X43.192 Y19.481 E16.73271
G1 X43.612 Y19.524 E16.74675
G1 X44.285 Y19.609 E16.76931
G1 X44.629 Y19.66 E16.78088
G1 X45.053 Y19.731 E16.79518
G1 X45.971 Y19.904 E16.82625
G1 X46.556 Y20.028 E16.84614
G1 X47.026 Y20.14 E16.86221
G1 X47.685 Y20.316 E16.88489
G1 X48.011 Y20.41 E16.89618
G1 X49.11 Y20.745 E16.93439
G1 X49.481 Y20.865 E16.94736
G1 X50.099 Y21.082 E16.96915
G1 X50.455 Y21.215 E16.98179
G1 X50.884 Y21.386 E16.99715
G1 X51.386 Y21.598 E17.01527
G1 X51.763 Y21.765 E17.02899
G1 X52.829 Y22.263 E17.06812
G1 X53.177 Y22.433 E17.081
G1 X53.823 Y22.768 E17.1052
G1 X54.099 Y22.919 E17.11567
G1 X54.487 Y23.142 E17.13055
G1 X54.991 Y23.445 E17.15011
G1 X55.34 Y23.663 E17.1638
G1 X56.295 Y24.287 E17.20174
G1 X56.624 Y24.511 E17.21498
G1 X57.163 Y24.895 E17.23699
G1 X57.406 Y25.075 E17.24705
G1 X57.765 Y25.353 E17.26215
G1 X58.241 Y25.737 E17.28249
G1 X58.596 Y26.036 E17.29793
G1 X59.447 Y26.784 E17.33561
G1 X59.704 Y27.017 E17.34715
G1 X60.019 Y27.312 E17.3615
G1 X60.278 Y27.563 E17.3735
G1 X60.504 Y27.789 E17.38413
G1 X60.777 Y28.071 E17.39719
G1 X61.196 Y28.521 E17.41764
G1 X61.494 Y28.855 E17.43252
G1 X62.206 Y29.685 E17.4689
G1 X62.429 Y29.954 E17.48052
G1 X62.704 Y30.296 E17.49511
G1 X62.936 Y30.595 E17.5077
G1 X63.516 Y31.393 E17.54051
G1 X63.732 Y31.708 E17.55322
G1 X63.928 Y32.004 E17.56502
G1 X64.543 Y32.966 E17.603
G1 X64.748 Y33.301 E17.61606
G1 X65.09 Y33.887 E17.63863
G1 X65.486 Y34.618 E17.66628
G1 X65.747 Y35.138 E17.68563
G1 X65.909 Y35.479 E17.69819
G1 X66.397 Y36.552 E17.73739
G1 X66.547 Y36.897 E17.74991
G1 X66.833 Y37.6 E17.77515
G1 X66.929 Y37.853 E17.78415
G1 X67.063 Y38.228 E17.79739
G1 X67.26 Y38.81 E17.81783
G1 X67.397 Y39.244 E17.83297
G1 X67.729 Y40.377 E17.87224
G1 X67.918 Y41.114 E17.89754
G1 X68.182 Y42.318 E17.93854
G1 X68.323 Y43.092 E17.96471
G1 X68.5 Y44.31 E18.00564
G1 X68.548 Y44.687 E18.01828
G1 X68.617 Y45.353 E18.04055
G1 X68.649 Y45.746 E18.05367
G1 X68.674 Y46.158 E18.06739
G1 X68.698 Y46.706 E18.08564
G1 X68.709 Y47.149 E18.10038
G1 X68.713 Y48.302 E18.13873
G1 X68.708 Y48.685 E18.15147
G1 X68.697 Y49.036 E18.16315
G1 X68.682 Y49.353 E18.1737
G1 X68.656 Y49.784 E18.18806
G1 X68.622 Y50.215 E18.20244
G1 X68.537 Y51.066 E18.23089
G1 X68.498 Y51.404 E18.2422
G1 X68.453 Y51.747 E18.25371
G1 X68.387 Y52.178 E18.26821
G1 X68.179 Y53.363 E18.30823
G1 X68.104 Y53.732 E18.32075
